(G-CODE GENERATED BY FLATCAM v8.994 - www.flatcam.org - Version Date: 2020/11/7)

(Name: qtkiln-B_Cu.gbr_iso_combined_cnc)
(Type: G-code from Geometry)
(Units: MM)

(Created on Monday, 28 April 2025 at 16:21)

(This preprocessor is the default preprocessor used by FlatCAM.)
(It is made to work with MACH3 compatible motion controllers.)

(TOOL DIAMETER: 0.26 mm)
(Feedrate_XY: 120.0 mm/min)
(Feedrate_Z: 60.0 mm/min)
(Feedrate rapids 1500.0 mm/min)

(Z_Cut: -0.08 mm)
(Z_Move: 2.0 mm)
(Z Start: None mm)
(Z End: 15.0 mm)
(X,Y End: None mm)
(Steps per circle: 64)
(Preprocessor Geometry: default)

(X range:   -0.3315 ...  132.8315  mm)
(Y range:   -0.3315 ...   66.8315  mm)

(Spindle Speed: 0.0 RPM)
G21
G90
G94

G01 F120.00

M5
G00 Z15.0000
G00 X0.0000 Y0.0000
T1
M6    
(MSG, Change to Tool Dia = 0.2600)
M0
G00 Z15.0000

M03
G01 F120.00
G00 X6.9095 Y21.3758
G01 F60.00
G01 Z-0.0800
G01 F120.00
G01 X6.9156 Y21.3645
G01 X6.9357 Y21.3308
G01 X6.9428 Y21.3202
G01 X6.9701 Y21.2836
G01 X7.0029 Y21.2474
G01 X7.6274 Y20.6229
G01 X7.6588 Y20.5943
G01 X7.6687 Y20.5862
G01 X7.7054 Y20.5592
G01 X7.7445 Y20.5356
G01 X7.7558 Y20.5295
G01 X7.7971 Y20.5102
G01 X7.8400 Y20.4946
G01 X7.8492 Y20.4917
G01 X7.8966 Y20.4800
G01 X7.9417 Y20.4731
G01 X7.9544 Y20.4719
G01 X8.0000 Y20.4698
G01 X10.1604 Y20.4698
G01 X23.0051 Y7.6251
G01 X23.0388 Y7.5943
G01 X23.0487 Y7.5862
G01 X23.0854 Y7.5592
G01 X23.1301 Y7.5324
G01 X23.1713 Y7.5127
G01 X23.1831 Y7.5079
G01 X23.2261 Y7.4926
G01 X23.2734 Y7.4806
G01 X23.2828 Y7.4789
G01 X23.3280 Y7.4724
G01 X23.3800 Y7.4698
G01 X79.5098 Y7.4698
G01 X79.5098 Y6.4800
G01 X79.1900 Y6.4800
G01 X79.1741 Y6.4790
G01 X79.1584 Y6.4761
G01 X79.1492 Y6.4734
G01 X79.1403 Y6.4701
G01 X79.1316 Y6.4661
G01 X79.1232 Y6.4615
G01 X79.1151 Y6.4563
G01 X79.1075 Y6.4505
G01 X79.1004 Y6.4442
G01 X79.0937 Y6.4373
G01 X79.0875 Y6.4300
G01 X79.0819 Y6.4222
G01 X79.0769 Y6.4141
G01 X79.0725 Y6.4056
G01 X79.0687 Y6.3968
G01 X79.0656 Y6.3877
G01 X79.0632 Y6.3785
G01 X79.0614 Y6.3691
G01 X79.0604 Y6.3596
G01 X79.0600 Y6.3500
G01 X79.0600 Y4.6500
G01 X79.0606 Y4.6373
G01 X79.0632 Y4.6215
G01 X79.0676 Y4.6062
G01 X79.0725 Y4.5944
G01 X79.0769 Y4.5859
G01 X79.0819 Y4.5778
G01 X79.0916 Y4.5651
G01 X79.0981 Y4.5581
G01 X79.1051 Y4.5516
G01 X79.1178 Y4.5419
G01 X79.1259 Y4.5369
G01 X79.1344 Y4.5325
G01 X79.1492 Y4.5266
G01 X79.1646 Y4.5225
G01 X79.1741 Y4.5210
G01 X79.1836 Y4.5202
G01 X80.8900 Y4.5200
G01 X80.9027 Y4.5206
G01 X80.9154 Y4.5225
G01 X80.9247 Y4.5247
G01 X80.9368 Y4.5287
G01 X80.9456 Y4.5325
G01 X80.9541 Y4.5369
G01 X80.9622 Y4.5419
G01 X80.9725 Y4.5495
G01 X80.9819 Y4.5581
G01 X80.9884 Y4.5651
G01 X80.9944 Y4.5726
G01 X81.0015 Y4.5832
G01 X81.0075 Y4.5944
G01 X81.0113 Y4.6032
G01 X81.0153 Y4.6153
G01 X81.0175 Y4.6246
G01 X81.0190 Y4.6341
G01 X81.0198 Y4.6436
G01 X81.0200 Y6.3500
G01 X81.0194 Y6.3627
G01 X81.0175 Y6.3754
G01 X81.0153 Y6.3847
G01 X81.0124 Y6.3938
G01 X81.0088 Y6.4027
G01 X81.0046 Y6.4113
G01 X80.9998 Y6.4195
G01 X80.9944 Y6.4274
G01 X80.9884 Y6.4349
G01 X80.9819 Y6.4419
G01 X80.9725 Y6.4505
G01 X80.9649 Y6.4563
G01 X80.9568 Y6.4615
G01 X80.9484 Y6.4661
G01 X80.9397 Y6.4701
G01 X80.9308 Y6.4734
G01 X80.9216 Y6.4761
G01 X80.9059 Y6.4790
G01 X80.8900 Y6.4800
G01 X80.5702 Y6.4800
G01 X80.5702 Y7.8204
G01 X84.0299 Y11.2801
G01 X84.0628 Y11.3162
G01 X84.0757 Y11.3330
G01 X84.0924 Y11.3309
G01 X84.1412 Y11.3286
G01 X108.6928 Y11.3286
G01 X108.7443 Y11.2719
G01 X108.7999 Y11.2214
G01 X108.8097 Y11.2133
G01 X108.8649 Y11.1724
G01 X108.8755 Y11.1653
G01 X108.9400 Y11.1268
G01 X109.0078 Y11.0946
G01 X109.0196 Y11.0897
G01 X109.0903 Y11.0646
G01 X109.1693 Y11.0448
G01 X109.2499 Y11.0328
G01 X109.3312 Y11.0288
G01 X109.4126 Y11.0328
G01 X109.4869 Y11.0437
G01 X109.4994 Y11.0462
G01 X109.5722 Y11.0646
G01 X109.6429 Y11.0897
G01 X109.6547 Y11.0946
G01 X109.7168 Y11.1240
G01 X109.7281 Y11.1300
G01 X109.7924 Y11.1687
G01 X109.8579 Y11.2173
G01 X109.9181 Y11.2719
G01 X109.9687 Y11.3275
G01 X109.9748 Y11.3348
G01 X110.0177 Y11.3925
G01 X110.0248 Y11.4031
G01 X110.0632 Y11.4676
G01 X110.0955 Y11.5354
G01 X110.1004 Y11.5472
G01 X110.1255 Y11.6179
G01 X110.1439 Y11.6907
G01 X110.1464 Y11.7032
G01 X110.1572 Y11.7775
G01 X110.1611 Y11.8525
G01 X110.1611 Y11.8652
G01 X110.1572 Y11.9402
G01 X110.1464 Y12.0145
G01 X110.1439 Y12.0270
G01 X110.1255 Y12.0998
G01 X110.1004 Y12.1705
G01 X110.0955 Y12.1823
G01 X110.0632 Y12.2501
G01 X110.0248 Y12.3146
G01 X110.0177 Y12.3252
G01 X109.9728 Y12.3854
G01 X109.9225 Y12.4411
G01 X109.9135 Y12.4501
G01 X109.8574 Y12.5007
G01 X109.7924 Y12.5490
G01 X109.7281 Y12.5877
G01 X109.7168 Y12.5937
G01 X109.6489 Y12.6257
G01 X109.5782 Y12.6511
G01 X109.5660 Y12.6548
G01 X109.4963 Y12.6722
G01 X109.4869 Y12.6740
G01 X109.4189 Y12.6841
G01 X109.4062 Y12.6853
G01 X109.3312 Y12.6888
G01 X109.2562 Y12.6853
G01 X109.2436 Y12.6841
G01 X109.1693 Y12.6729
G01 X109.0965 Y12.6548
G01 X109.0842 Y12.6511
G01 X109.0136 Y12.6257
G01 X108.9457 Y12.5937
G01 X108.9344 Y12.5877
G01 X108.8701 Y12.5490
G01 X108.8097 Y12.5044
G01 X108.7999 Y12.4963
G01 X108.7443 Y12.4457
G01 X108.6928 Y12.3890
G01 X105.0302 Y12.3890
G01 X105.0302 Y26.4698
G01 X110.3615 Y26.4698
G01 X110.4131 Y26.4131
G01 X110.4686 Y26.3626
G01 X110.4785 Y26.3545
G01 X110.5337 Y26.3136
G01 X110.5443 Y26.3065
G01 X110.6087 Y26.2680
G01 X110.6765 Y26.2358
G01 X110.6883 Y26.2309
G01 X110.7591 Y26.2057
G01 X110.8381 Y26.1859
G01 X110.9186 Y26.1740
G01 X110.9936 Y26.1702
G01 X111.0032 Y26.1700
G01 X111.0814 Y26.1740
G01 X111.1556 Y26.1849
G01 X111.1682 Y26.1873
G01 X111.2409 Y26.2057
G01 X111.3117 Y26.2309
G01 X111.3235 Y26.2358
G01 X111.3913 Y26.2680
G01 X111.4611 Y26.3099
G01 X111.5217 Y26.3546
G01 X111.5314 Y26.3626
G01 X111.5869 Y26.4131
G01 X111.6415 Y26.4734
G01 X111.6864 Y26.5337
G01 X111.6935 Y26.5443
G01 X111.7320 Y26.6087
G01 X111.7668 Y26.6824
G01 X111.7943 Y26.7591
G01 X111.8127 Y26.8318
G01 X111.8151 Y26.8444
G01 X111.8252 Y26.9123
G01 X111.8265 Y26.9250
G01 X111.8300 Y27.0000
G01 X111.8265 Y27.0750
G01 X111.8252 Y27.0877
G01 X111.8141 Y27.1619
G01 X111.7943 Y27.2409
G01 X111.7668 Y27.3176
G01 X111.7349 Y27.3856
G01 X111.7288 Y27.3968
G01 X111.6935 Y27.4557
G01 X111.6864 Y27.4663
G01 X111.6416 Y27.5265
G01 X111.5913 Y27.5823
G01 X111.5823 Y27.5913
G01 X111.5262 Y27.6419
G01 X111.4611 Y27.6901
G01 X111.3913 Y27.7320
G01 X111.3235 Y27.7642
G01 X111.3117 Y27.7691
G01 X111.2407 Y27.7943
G01 X111.1682 Y27.8127
G01 X111.1556 Y27.8151
G01 X111.0877 Y27.8252
G01 X111.0750 Y27.8265
G01 X111.0000 Y27.8300
G01 X110.9250 Y27.8265
G01 X110.9123 Y27.8252
G01 X110.8381 Y27.8141
G01 X110.7652 Y27.7960
G01 X110.7530 Y27.7923
G01 X110.6824 Y27.7668
G01 X110.6087 Y27.7320
G01 X110.5443 Y27.6935
G01 X110.5337 Y27.6864
G01 X110.4735 Y27.6416
G01 X110.4177 Y27.5913
G01 X110.4087 Y27.5823
G01 X110.3615 Y27.5302
G01 X105.7800 Y27.5302
G01 X105.8793 Y27.6297
G01 X105.9099 Y27.6636
G01 X105.9372 Y27.7002
G01 X105.9443 Y27.7108
G01 X105.9644 Y27.7445
G01 X105.9705 Y27.7558
G01 X105.9898 Y27.7971
G01 X106.0064 Y27.8430
G01 X106.0091 Y27.8522
G01 X106.0200 Y27.8966
G01 X106.0269 Y27.9417
G01 X106.0281 Y27.9544
G01 X106.0302 Y28.0000
G01 X106.0302 Y28.2804
G01 X106.3771 Y28.6274
G01 X106.4099 Y28.6636
G01 X106.4372 Y28.7002
G01 X106.4443 Y28.7108
G01 X106.4644 Y28.7445
G01 X106.4705 Y28.7558
G01 X106.4898 Y28.7971
G01 X106.5054 Y28.8400
G01 X106.5091 Y28.8522
G01 X106.5200 Y28.8966
G01 X106.5269 Y28.9417
G01 X106.5281 Y28.9544
G01 X106.5302 Y29.0000
G01 X106.5302 Y42.4698
G01 X110.3615 Y42.4698
G01 X110.4087 Y42.4177
G01 X110.4177 Y42.4087
G01 X110.4735 Y42.3584
G01 X110.5337 Y42.3136
G01 X110.5443 Y42.3065
G01 X110.6087 Y42.2680
G01 X110.6824 Y42.2332
G01 X110.7530 Y42.2077
G01 X110.7652 Y42.2040
G01 X110.8381 Y42.1859
G01 X110.9123 Y42.1748
G01 X110.9250 Y42.1735
G01 X111.0000 Y42.1700
G01 X111.0750 Y42.1735
G01 X111.0845 Y42.1743
G01 X111.1619 Y42.1859
G01 X111.2409 Y42.2057
G01 X111.3176 Y42.2332
G01 X111.3856 Y42.2651
G01 X111.3968 Y42.2712
G01 X111.4611 Y42.3099
G01 X111.5217 Y42.3546
G01 X111.5314 Y42.3626
G01 X111.5869 Y42.4131
G01 X111.6374 Y42.4686
G01 X111.6455 Y42.4785
G01 X111.6864 Y42.5337
G01 X111.6935 Y42.5443
G01 X111.7320 Y42.6087
G01 X111.7668 Y42.6824
G01 X111.7943 Y42.7591
G01 X111.8141 Y42.8381
G01 X111.8260 Y42.9186
G01 X111.8300 Y43.0000
G01 X111.8260 Y43.0814
G01 X111.8141 Y43.1619
G01 X111.7943 Y43.2409
G01 X111.7691 Y43.3117
G01 X111.7642 Y43.3235
G01 X111.7349 Y43.3856
G01 X111.7288 Y43.3968
G01 X111.6901 Y43.4611
G01 X111.6416 Y43.5265
G01 X111.5869 Y43.5869
G01 X111.5314 Y43.6374
G01 X111.5215 Y43.6455
G01 X111.4663 Y43.6864
G01 X111.4557 Y43.6935
G01 X111.3913 Y43.7320
G01 X111.3176 Y43.7668
G01 X111.2407 Y43.7943
G01 X111.1682 Y43.8127
G01 X111.1556 Y43.8151
G01 X111.0814 Y43.8260
G01 X111.0064 Y43.8298
G01 X110.9936 Y43.8298
G01 X110.9186 Y43.8260
G01 X110.8444 Y43.8151
G01 X110.8318 Y43.8127
G01 X110.7591 Y43.7943
G01 X110.6824 Y43.7668
G01 X110.6087 Y43.7320
G01 X110.5443 Y43.6935
G01 X110.5337 Y43.6864
G01 X110.4735 Y43.6416
G01 X110.4177 Y43.5913
G01 X110.4087 Y43.5823
G01 X110.3615 Y43.5302
G01 X106.2196 Y43.5302
G01 X105.8749 Y43.8749
G01 X105.8412 Y43.9057
G01 X105.8313 Y43.9138
G01 X105.7946 Y43.9408
G01 X105.7555 Y43.9644
G01 X105.7442 Y43.9705
G01 X105.7029 Y43.9898
G01 X105.6600 Y44.0054
G01 X105.6478 Y44.0091
G01 X105.6034 Y44.0200
G01 X105.5551 Y44.0273
G01 X105.5456 Y44.0281
G01 X105.5000 Y44.0302
G01 X102.2196 Y44.0302
G01 X100.7949 Y45.4549
G01 X100.7612 Y45.4857
G01 X100.7513 Y45.4938
G01 X100.7198 Y45.5172
G01 X100.7092 Y45.5243
G01 X100.6699 Y45.5476
G01 X100.6229 Y45.5698
G01 X100.5800 Y45.5854
G01 X100.5678 Y45.5891
G01 X100.5234 Y45.6000
G01 X100.4751 Y45.6073
G01 X100.4656 Y45.6081
G01 X100.4200 Y45.6102
G01 X95.8236 Y45.6102
G01 X95.8130 Y45.6271
G01 X95.7576 Y45.7017
G01 X95.6974 Y45.7683
G01 X95.6883 Y45.7774
G01 X95.6217 Y45.8376
G01 X95.5497 Y45.8912
G01 X95.5391 Y45.8983
G01 X95.4620 Y45.9443
G01 X95.3809 Y45.9828
G01 X95.3691 Y45.9877
G01 X95.2842 Y46.0179
G01 X95.1974 Y46.0398
G01 X95.1849 Y46.0423
G01 X95.0961 Y46.0553
G01 X95.0064 Y46.0598
G01 X94.9936 Y46.0598
G01 X94.9039 Y46.0553
G01 X94.8151 Y46.0423
G01 X94.8026 Y46.0398
G01 X94.7217 Y46.0195
G01 X94.7095 Y46.0158
G01 X94.6250 Y45.9854
G01 X94.5380 Y45.9443
G01 X94.4555 Y45.8948
G01 X94.3833 Y45.8415
G01 X94.3735 Y45.8334
G01 X94.3117 Y45.7774
G01 X94.3026 Y45.7683
G01 X94.2424 Y45.7017
G01 X94.1852 Y45.6245
G01 X94.1357 Y45.5420
G01 X94.0972 Y45.4609
G01 X94.0923 Y45.4491
G01 X94.0640 Y45.3700
G01 X94.0605 Y45.3583
G01 X94.0388 Y45.2712
G01 X94.0255 Y45.1824
G01 X94.0242 Y45.1697
G01 X94.0200 Y45.0800
G01 X94.0242 Y44.9903
G01 X94.0255 Y44.9776
G01 X94.0377 Y44.8951
G01 X94.0402 Y44.8826
G01 X94.0622 Y44.7955
G01 X94.0946 Y44.7050
G01 X94.1357 Y44.6180
G01 X94.1817 Y44.5409
G01 X94.1888 Y44.5303
G01 X94.2424 Y44.4583
G01 X94.3070 Y44.3870
G01 X94.3783 Y44.3224
G01 X94.4555 Y44.2652
G01 X94.5380 Y44.2157
G01 X94.6250 Y44.1746
G01 X94.7155 Y44.1422
G01 X94.8057 Y44.1195
G01 X94.8151 Y44.1177
G01 X94.8976 Y44.1055
G01 X94.9103 Y44.1042
G01 X95.0000 Y44.1000
G01 X95.0961 Y44.1047
G01 X95.1855 Y44.1178
G01 X95.1974 Y44.1202
G01 X95.2845 Y44.1422
G01 X95.3750 Y44.1746
G01 X95.4563 Y44.2128
G01 X95.4675 Y44.2189
G01 X95.5445 Y44.2652
G01 X95.6217 Y44.3224
G01 X95.6930 Y44.3870
G01 X95.7534 Y44.4535
G01 X95.7615 Y44.4633
G01 X95.8112 Y44.5303
G01 X95.8166 Y44.5382
G01 X95.8233 Y44.5493
G01 X100.2004 Y44.5498
G01 X101.6274 Y43.1229
G01 X101.6588 Y43.0943
G01 X101.6687 Y43.0862
G01 X101.7054 Y43.0592
G01 X101.7445 Y43.0356
G01 X101.7558 Y43.0295
G01 X101.7971 Y43.0102
G01 X101.8430 Y42.9936
G01 X101.8522 Y42.9909
G01 X101.8903 Y42.9814
G01 X101.9028 Y42.9789
G01 X101.9480 Y42.9724
G01 X102.0000 Y42.9698
G01 X105.2804 Y42.9698
G01 X105.4698 Y42.7804
G01 X105.4698 Y29.2196
G01 X105.1207 Y28.8703
G01 X105.0901 Y28.8364
G01 X105.0628 Y28.7998
G01 X105.0557 Y28.7892
G01 X105.0356 Y28.7555
G01 X105.0309 Y28.7471
G01 X105.0102 Y28.7029
G01 X104.9926 Y28.6539
G01 X104.9800 Y28.6034
G01 X104.9727 Y28.5551
G01 X104.9719 Y28.5456
G01 X104.9698 Y28.5000
G01 X104.9698 Y28.2196
G01 X104.1251 Y27.3749
G01 X104.0922 Y27.3388
G01 X104.0862 Y27.3313
G01 X104.0628 Y27.2998
G01 X104.0557 Y27.2892
G01 X104.0324 Y27.2499
G01 X104.0102 Y27.2029
G01 X103.9926 Y27.1539
G01 X103.9814 Y27.1097
G01 X103.9789 Y27.0972
G01 X103.9731 Y27.0583
G01 X103.9719 Y27.0456
G01 X103.9698 Y27.0000
G01 X103.9698 Y12.3890
G01 X84.7117 Y12.3890
G01 X84.7017 Y12.4103
G01 X84.6973 Y12.4188
G01 X84.6637 Y12.4748
G01 X84.6583 Y12.4827
G01 X84.6213 Y12.5325
G01 X84.6151 Y12.5398
G01 X84.5712 Y12.5881
G01 X84.5205 Y12.6341
G01 X84.5131 Y12.6401
G01 X84.4606 Y12.6789
G01 X84.3991 Y12.7157
G01 X84.3344 Y12.7463
G01 X84.2730 Y12.7684
G01 X84.2608 Y12.7721
G01 X84.1974 Y12.7879
G01 X84.1329 Y12.7976
G01 X84.1202 Y12.7988
G01 X84.0582 Y12.8018
G01 X83.2518 Y12.8018
G01 X83.1839 Y12.7984
G01 X83.1183 Y12.7889
G01 X83.1064 Y12.7865
G01 X83.0492 Y12.7721
G01 X83.0370 Y12.7684
G01 X82.9756 Y12.7463
G01 X82.9166 Y12.7186
G01 X82.9053 Y12.7125
G01 X82.8494 Y12.6789
G01 X82.7969 Y12.6401
G01 X82.7871 Y12.6320
G01 X82.7388 Y12.5881
G01 X82.6949 Y12.5398
G01 X82.6868 Y12.5300
G01 X82.6480 Y12.4774
G01 X82.6112 Y12.4160
G01 X82.5832 Y12.3571
G01 X82.5783 Y12.3453
G01 X82.5584 Y12.2898
G01 X82.5555 Y12.2807
G01 X82.5390 Y12.2143
G01 X82.5293 Y12.1498
G01 X82.5280 Y12.1371
G01 X82.5250 Y12.0719
G01 X82.5280 Y12.0067
G01 X82.5293 Y11.9940
G01 X82.5390 Y11.9295
G01 X82.5555 Y11.8630
G01 X82.5584 Y11.8539
G01 X82.5783 Y11.7985
G01 X82.5832 Y11.7867
G01 X82.6112 Y11.7278
G01 X82.6462 Y11.6691
G01 X82.6517 Y11.6611
G01 X82.6868 Y11.6138
G01 X82.6928 Y11.6063
G01 X82.7388 Y11.5557
G01 X82.7739 Y11.5237
G01 X79.7804 Y8.5302
G01 X23.5996 Y8.5302
G01 X10.7549 Y21.3749
G01 X10.7188 Y21.4078
G01 X10.7113 Y21.4138
G01 X10.6746 Y21.4408
G01 X10.6355 Y21.4644
G01 X10.6242 Y21.4705
G01 X10.5887 Y21.4873
G01 X10.5769 Y21.4921
G01 X10.5339 Y21.5074
G01 X10.4834 Y21.5200
G01 X10.4320 Y21.5276
G01 X10.3864 Y21.5300
G01 X8.2196 Y21.5302
G01 X7.9102 Y21.8396
G01 X7.9102 Y23.0200
G01 X8.2300 Y23.0200
G01 X8.2459 Y23.0210
G01 X8.2616 Y23.0239
G01 X8.2708 Y23.0266
G01 X8.2797 Y23.0299
G01 X8.2884 Y23.0339
G01 X8.2968 Y23.0385
G01 X8.3049 Y23.0437
G01 X8.3125 Y23.0495
G01 X8.3196 Y23.0558
G01 X8.3263 Y23.0627
G01 X8.3325 Y23.0700
G01 X8.3381 Y23.0778
G01 X8.3431 Y23.0859
G01 X8.3475 Y23.0944
G01 X8.3513 Y23.1032
G01 X8.3544 Y23.1123
G01 X8.3568 Y23.1215
G01 X8.3586 Y23.1309
G01 X8.3596 Y23.1404
G01 X8.3600 Y23.1500
G01 X8.3600 Y24.8500
G01 X8.3596 Y24.8596
G01 X8.3581 Y24.8722
G01 X8.3561 Y24.8816
G01 X8.3534 Y24.8908
G01 X8.3501 Y24.8997
G01 X8.3446 Y24.9113
G01 X8.3381 Y24.9222
G01 X8.3325 Y24.9300
G01 X8.3263 Y24.9373
G01 X8.3196 Y24.9442
G01 X8.3125 Y24.9505
G01 X8.3022 Y24.9581
G01 X8.2941 Y24.9631
G01 X8.2856 Y24.9675
G01 X8.2768 Y24.9713
G01 X8.2647 Y24.9753
G01 X8.2491 Y24.9786
G01 X8.2332 Y24.9800
G01 X7.9102 Y24.9800
G01 X7.9102 Y28.6604
G01 X11.7196 Y32.4698
G01 X32.4400 Y32.4698
G01 X32.4400 Y32.1500
G01 X32.4410 Y32.1341
G01 X32.4432 Y32.1215
G01 X32.4476 Y32.1062
G01 X32.4512 Y32.0973
G01 X32.4554 Y32.0887
G01 X32.4637 Y32.0751
G01 X32.4695 Y32.0675
G01 X32.4758 Y32.0604
G01 X32.4827 Y32.0537
G01 X32.4900 Y32.0475
G01 X32.4978 Y32.0419
G01 X32.5059 Y32.0369
G01 X32.5203 Y32.0299
G01 X32.5292 Y32.0266
G01 X32.5384 Y32.0239
G01 X32.5541 Y32.0210
G01 X32.5700 Y32.0200
G01 X34.2700 Y32.0200
G01 X34.2796 Y32.0204
G01 X34.2922 Y32.0219
G01 X34.3047 Y32.0247
G01 X34.3138 Y32.0276
G01 X34.3256 Y32.0325
G01 X34.3368 Y32.0385
G01 X34.3474 Y32.0456
G01 X34.3573 Y32.0537
G01 X34.3663 Y32.0627
G01 X34.3744 Y32.0726
G01 X34.3798 Y32.0805
G01 X34.3861 Y32.0916
G01 X34.3913 Y32.1032
G01 X34.3953 Y32.1153
G01 X34.3981 Y32.1278
G01 X34.3996 Y32.1404
G01 X34.4000 Y32.1500
G01 X34.4000 Y33.8500
G01 X34.3996 Y33.8596
G01 X34.3981 Y33.8722
G01 X34.3961 Y33.8816
G01 X34.3934 Y33.8908
G01 X34.3888 Y33.9027
G01 X34.3846 Y33.9113
G01 X34.3781 Y33.9222
G01 X34.3705 Y33.9325
G01 X34.3619 Y33.9419
G01 X34.3549 Y33.9484
G01 X34.3449 Y33.9563
G01 X34.3368 Y33.9615
G01 X34.3256 Y33.9675
G01 X34.3138 Y33.9724
G01 X34.3047 Y33.9753
G01 X34.2922 Y33.9781
G01 X34.2827 Y33.9794
G01 X34.2700 Y33.9800
G01 X32.5700 Y33.9800
G01 X32.5541 Y33.9790
G01 X32.5384 Y33.9761
G01 X32.5292 Y33.9734
G01 X32.5203 Y33.9701
G01 X32.5116 Y33.9661
G01 X32.5032 Y33.9615
G01 X32.4900 Y33.9525
G01 X32.4827 Y33.9463
G01 X32.4758 Y33.9396
G01 X32.4656 Y33.9274
G01 X32.4602 Y33.9195
G01 X32.4554 Y33.9113
G01 X32.4512 Y33.9027
G01 X32.4476 Y33.8938
G01 X32.4432 Y33.8785
G01 X32.4406 Y33.8627
G01 X32.4400 Y33.8500
G01 X32.4400 Y33.5302
G01 X11.5000 Y33.5302
G01 X11.4480 Y33.5276
G01 X11.3966 Y33.5200
G01 X11.3461 Y33.5074
G01 X11.3031 Y33.4921
G01 X11.2913 Y33.4873
G01 X11.2501 Y33.4676
G01 X11.2054 Y33.4408
G01 X11.1636 Y33.4099
G01 X11.1251 Y33.3749
G01 X7.0051 Y29.2549
G01 X6.9701 Y29.2164
G01 X6.9392 Y29.1746
G01 X6.9124 Y29.1299
G01 X6.8927 Y29.0887
G01 X6.8879 Y29.0769
G01 X6.8726 Y29.0339
G01 X6.8600 Y28.9834
G01 X6.8524 Y28.9320
G01 X6.8498 Y28.8800
G01 X6.8498 Y24.9800
G01 X6.5300 Y24.9800
G01 X6.5141 Y24.9790
G01 X6.5015 Y24.9768
G01 X6.4862 Y24.9724
G01 X6.4773 Y24.9688
G01 X6.4687 Y24.9646
G01 X6.4551 Y24.9563
G01 X6.4475 Y24.9505
G01 X6.4404 Y24.9442
G01 X6.4337 Y24.9373
G01 X6.4275 Y24.9300
G01 X6.4185 Y24.9168
G01 X6.4139 Y24.9084
G01 X6.4099 Y24.8997
G01 X6.4066 Y24.8908
G01 X6.4039 Y24.8816
G01 X6.4010 Y24.8659
G01 X6.4000 Y24.8500
G01 X6.4000 Y23.1500
G01 X6.4004 Y23.1404
G01 X6.4014 Y23.1309
G01 X6.4039 Y23.1184
G01 X6.4066 Y23.1092
G01 X6.4099 Y23.1003
G01 X6.4154 Y23.0887
G01 X6.4219 Y23.0778
G01 X6.4275 Y23.0700
G01 X6.4337 Y23.0627
G01 X6.4404 Y23.0558
G01 X6.4475 Y23.0495
G01 X6.4578 Y23.0419
G01 X6.4659 Y23.0369
G01 X6.4744 Y23.0325
G01 X6.4832 Y23.0287
G01 X6.4953 Y23.0247
G01 X6.5109 Y23.0214
G01 X6.5268 Y23.0200
G01 X6.8498 Y23.0200
G01 X6.8498 Y21.6168
G01 X6.8524 Y21.5680
G01 X6.8589 Y21.5228
G01 X6.8614 Y21.5103
G01 X6.8726 Y21.4661
G01 X6.8879 Y21.4231
G01 X6.8927 Y21.4113
G01 X6.9095 Y21.3758
G00 Z2.0000
G00 X8.7263 Y23.7808
G01 F60.00
G01 Z-0.0800
G01 F120.00
G01 X8.7140 Y23.8633
G01 X8.7118 Y23.8810
G01 X8.7105 Y23.8988
G01 X8.7064 Y23.9821
G01 X8.7060 Y24.0000
G01 X8.7064 Y24.0179
G01 X8.7105 Y24.1012
G01 X8.7128 Y24.1279
G01 X8.7263 Y24.2192
G01 X8.7293 Y24.2368
G01 X8.7332 Y24.2543
G01 X8.7557 Y24.3435
G01 X8.7634 Y24.3680
G01 X8.7951 Y24.4563
G01 X8.8019 Y24.4728
G01 X8.8226 Y24.5167
G01 X8.7997 Y24.5178
G01 X8.7728 Y24.5211
G01 X8.7462 Y24.5264
G01 X8.7287 Y24.5310
G01 X8.7029 Y24.5395
G01 X8.6290 Y24.5672
G01 X8.6124 Y24.5743
G01 X8.5940 Y24.5835
G01 X8.5940 Y23.4149
G01 X8.6075 Y23.4235
G01 X8.6232 Y23.4325
G01 X8.6475 Y23.4444
G01 X8.6727 Y23.4545
G01 X8.6985 Y23.4627
G01 X8.7249 Y23.4690
G01 X8.7517 Y23.4733
G01 X8.7697 Y23.4750
G01 X8.8246 Y23.4789
G01 X8.8019 Y23.5272
G01 X8.7951 Y23.5437
G01 X8.7610 Y23.6391
G01 X8.7535 Y23.6648
G01 X8.7332 Y23.7457
G01 X8.7295 Y23.7623
G01 X8.7263 Y23.7808
G00 Z2.0000
G00 X8.9577 Y23.8151
G01 F60.00
G01 Z-0.0800
G01 F120.00
G01 X8.9602 Y23.8026
G01 X8.9822 Y23.7155
G01 X9.0146 Y23.6250
G01 X9.0557 Y23.5380
G01 X9.1052 Y23.4555
G01 X9.1624 Y23.3783
G01 X9.2270 Y23.3070
G01 X9.2983 Y23.2424
G01 X9.3755 Y23.1852
G01 X9.4580 Y23.1357
G01 X9.5450 Y23.0946
G01 X9.6355 Y23.0622
G01 X9.7288 Y23.0388
G01 X9.8239 Y23.0247
G01 X9.9200 Y23.0200
G01 X10.0161 Y23.0247
G01 X10.1115 Y23.0389
G01 X10.2045 Y23.0622
G01 X10.2950 Y23.0946
G01 X10.3820 Y23.1357
G01 X10.4645 Y23.1852
G01 X10.5417 Y23.2424
G01 X10.6130 Y23.3070
G01 X10.6776 Y23.3783
G01 X10.7348 Y23.4555
G01 X10.7843 Y23.5380
G01 X10.8254 Y23.6250
G01 X10.8578 Y23.7155
G01 X10.8811 Y23.8085
G01 X10.8953 Y23.9039
G01 X10.9000 Y24.0000
G01 X10.8953 Y24.0961
G01 X10.8812 Y24.1912
G01 X10.8578 Y24.2845
G01 X10.8254 Y24.3750
G01 X10.7843 Y24.4620
G01 X10.7348 Y24.5445
G01 X10.6776 Y24.6217
G01 X10.6130 Y24.6930
G01 X10.5417 Y24.7576
G01 X10.4645 Y24.8148
G01 X10.3820 Y24.8643
G01 X10.2950 Y24.9054
G01 X10.2042 Y24.9379
G01 X10.1112 Y24.9612
G01 X10.0161 Y24.9753
G01 X9.9200 Y24.9800
G01 X9.8239 Y24.9753
G01 X9.7288 Y24.9612
G01 X9.6355 Y24.9378
G01 X9.5450 Y24.9054
G01 X9.4580 Y24.8643
G01 X9.3755 Y24.8148
G01 X9.2983 Y24.7576
G01 X9.2270 Y24.6930
G01 X9.1624 Y24.6217
G01 X9.1052 Y24.5445
G01 X9.0557 Y24.4620
G01 X9.0146 Y24.3750
G01 X8.9821 Y24.2842
G01 X8.9588 Y24.1912
G01 X8.9447 Y24.0961
G01 X8.9400 Y24.0000
G01 X8.9447 Y23.9039
G01 X8.9577 Y23.8151
G00 Z2.0000
G00 X11.1004 Y24.2795
G01 F60.00
G01 Z-0.0800
G01 F120.00
G01 X11.1088 Y24.2456
G01 X11.1123 Y24.2281
G01 X11.1272 Y24.1279
G01 X11.1295 Y24.1012
G01 X11.1336 Y24.0179
G01 X11.1340 Y24.0000
G01 X11.1336 Y23.9821
G01 X11.1295 Y23.8988
G01 X11.1272 Y23.8721
G01 X11.1121 Y23.7705
G01 X11.1087 Y23.7539
G01 X11.1011 Y23.7233
G01 X11.1200 Y23.7272
G01 X11.1469 Y23.7311
G01 X11.1739 Y23.7329
G01 X11.1920 Y23.7330
G01 X11.2101 Y23.7322
G01 X11.2370 Y23.7293
G01 X11.2548 Y23.7263
G01 X11.2795 Y23.7207
G01 X11.2713 Y23.7540
G01 X11.2679 Y23.7707
G01 X11.2528 Y23.8721
G01 X11.2505 Y23.8988
G01 X11.2464 Y23.9821
G01 X11.2460 Y24.0000
G01 X11.2464 Y24.0179
G01 X11.2505 Y24.1012
G01 X11.2528 Y24.1279
G01 X11.2677 Y24.2281
G01 X11.2712 Y24.2456
G01 X11.2788 Y24.2766
G01 X11.2606 Y24.2728
G01 X11.2337 Y24.2689
G01 X11.2157 Y24.2675
G01 X11.1886 Y24.2670
G01 X11.1615 Y24.2685
G01 X11.1436 Y24.2706
G01 X11.1258 Y24.2737
G01 X11.1004 Y24.2795
G00 Z2.0000
G00 X11.9089 Y25.0885
G01 F60.00
G01 Z-0.0800
G01 F120.00
G01 X12.0900 Y24.9074
G01 X12.1755 Y24.9378
G01 X12.2688 Y24.9612
G01 X12.3639 Y24.9753
G01 X12.4600 Y24.9800
G01 X12.5561 Y24.9753
G01 X12.6512 Y24.9612
G01 X12.7442 Y24.9379
G01 X12.8300 Y24.9074
G01 X13.0111 Y25.0885
G01 X12.9283 Y25.1306
G01 X12.7457 Y25.1900
G01 X12.5560 Y25.2200
G01 X12.3640 Y25.2200
G01 X12.1743 Y25.1900
G01 X11.9917 Y25.1306
G01 X11.9089 Y25.0885
G00 Z2.0000
G00 X13.3674 Y24.3700
G01 F60.00
G01 Z-0.0800
G01 F120.00
G01 X13.3978 Y24.2845
G01 X13.4212 Y24.1912
G01 X13.4353 Y24.0961
G01 X13.4400 Y24.0000
G01 X13.4353 Y23.9039
G01 X13.4212 Y23.8088
G01 X13.3978 Y23.7155
G01 X13.3674 Y23.6300
G01 X13.5627 Y23.4347
G01 X13.5733 Y23.4449
G01 X13.5831 Y23.4526
G01 X13.5936 Y23.4593
G01 X13.6076 Y23.4663
G01 X13.6164 Y23.4696
G01 X13.6856 Y23.4931
G01 X13.6981 Y23.4964
G01 X13.7108 Y23.4984
G01 X13.7205 Y23.4990
G01 X13.7302 Y23.4990
G01 X13.7430 Y23.4978
G01 X13.7525 Y23.4960
G01 X13.8297 Y23.4768
G01 X13.8448 Y23.4712
G01 X13.8592 Y23.4637
G01 X13.8725 Y23.4546
G01 X13.8822 Y23.4461
G01 X13.9347 Y23.3907
G01 X13.9408 Y23.3838
G01 X13.9499 Y23.3712
G01 X13.9561 Y23.3603
G01 X14.0691 Y23.2049
G01 X14.2049 Y23.0690
G01 X14.3603 Y22.9561
G01 X14.5315 Y22.8689
G01 X14.7142 Y22.8096
G01 X14.9039 Y22.7795
G01 X15.0961 Y22.7795
G01 X15.2858 Y22.8096
G01 X15.4685 Y22.8689
G01 X15.6397 Y22.9561
G01 X15.7951 Y23.0690
G01 X15.9310 Y23.2049
G01 X16.0439 Y23.3603
G01 X16.0500 Y23.3710
G01 X16.0573 Y23.3812
G01 X16.1045 Y23.4358
G01 X16.1112 Y23.4423
G01 X16.1184 Y23.4483
G01 X16.1312 Y23.4572
G01 X16.1422 Y23.4631
G01 X16.1537 Y23.4680
G01 X16.2289 Y23.4935
G01 X16.2383 Y23.4958
G01 X16.2479 Y23.4974
G01 X16.2575 Y23.4983
G01 X16.2704 Y23.4984
G01 X16.2833 Y23.4972
G01 X16.2928 Y23.4955
G01 X16.3638 Y23.4779
G01 X16.3731 Y23.4753
G01 X16.3851 Y23.4706
G01 X16.3994 Y23.4632
G01 X16.4102 Y23.4560
G01 X16.4201 Y23.4478
G01 X16.4270 Y23.4410
G01 X16.4750 Y23.3902
G01 X16.4831 Y23.3808
G01 X16.4902 Y23.3707
G01 X16.4961 Y23.3603
G01 X16.6091 Y23.2049
G01 X16.6975 Y23.1164
G01 X16.7044 Y23.1085
G01 X16.7249 Y23.0828
G01 X16.7303 Y23.0748
G01 X16.7350 Y23.0665
G01 X16.7391 Y23.0579
G01 X16.7426 Y23.0490
G01 X16.7642 Y22.9759
G01 X16.7672 Y22.9638
G01 X16.7689 Y22.9516
G01 X16.7695 Y22.9392
G01 X16.7695 Y21.3841
G01 X16.7991 Y21.2353
G01 X16.8572 Y21.0950
G01 X16.9415 Y20.9688
G01 X19.0088 Y18.9015
G01 X19.1350 Y18.8172
G01 X19.2753 Y18.7591
G01 X19.4241 Y18.7295
G01 X47.5759 Y18.7295
G01 X47.7247 Y18.7591
G01 X47.8650 Y18.8172
G01 X47.9912 Y18.9015
G01 X48.0985 Y19.0088
G01 X48.1828 Y19.1350
G01 X48.2409 Y19.2753
G01 X48.2705 Y19.4241
G01 X48.2705 Y21.5791
G01 X48.2712 Y21.5895
G01 X48.2741 Y21.6159
G01 X48.2755 Y21.6254
G01 X48.2784 Y21.6378
G01 X48.2837 Y21.6528
G01 X48.2892 Y21.6643
G01 X48.3242 Y21.7283
G01 X48.3327 Y21.7412
G01 X48.3427 Y21.7530
G01 X55.5966 Y29.0070
G01 X55.6070 Y29.0163
G01 X55.6301 Y29.0349
G01 X55.6379 Y29.0404
G01 X55.6461 Y29.0454
G01 X55.6547 Y29.0497
G01 X55.6635 Y29.0534
G01 X55.6726 Y29.0564
G01 X55.7456 Y29.0777
G01 X55.7577 Y29.0801
G01 X55.7731 Y29.0813
G01 X57.1819 Y29.0814
G01 X57.1958 Y29.0810
G01 X57.2114 Y29.0792
G01 X57.2267 Y29.0756
G01 X57.2984 Y29.0501
G01 X57.3071 Y29.0467
G01 X57.3154 Y29.0427
G01 X57.3235 Y29.0381
G01 X57.3463 Y29.0218
G01 X57.4825 Y28.9525
G01 X57.6277 Y28.9053
G01 X57.7786 Y28.8814
G01 X58.7314 Y28.8814
G01 X58.8823 Y28.9053
G01 X59.0275 Y28.9525
G01 X59.1637 Y29.0218
G01 X59.2872 Y29.1116
G01 X59.3953 Y29.2196
G01 X59.4850 Y29.3432
G01 X59.5544 Y29.4793
G01 X59.6016 Y29.6246
G01 X59.6255 Y29.7755
G01 X59.6255 Y29.9283
G01 X59.6016 Y30.0791
G01 X59.5544 Y30.2244
G01 X59.4850 Y30.3605
G01 X59.3953 Y30.4841
G01 X59.2872 Y30.5921
G01 X59.1637 Y30.6819
G01 X59.0275 Y30.7513
G01 X58.8823 Y30.7985
G01 X58.7314 Y30.8224
G01 X57.7786 Y30.8224
G01 X57.6277 Y30.7985
G01 X57.4825 Y30.7513
G01 X57.3463 Y30.6819
G01 X57.3197 Y30.6630
G01 X57.3116 Y30.6582
G01 X57.3032 Y30.6539
G01 X57.2886 Y30.6483
G01 X57.2185 Y30.6276
G01 X57.2095 Y30.6254
G01 X57.1973 Y30.6233
G01 X57.1819 Y30.6224
G01 X55.2760 Y30.6224
G01 X55.1271 Y30.5928
G01 X54.9869 Y30.5347
G01 X54.8607 Y30.4504
G01 X46.9015 Y22.4912
G01 X46.8172 Y22.3650
G01 X46.7591 Y22.2247
G01 X46.7295 Y22.0759
G01 X46.7295 Y20.5245
G01 X46.7289 Y20.5121
G01 X46.7272 Y20.4999
G01 X46.7138 Y20.4390
G01 X46.7098 Y20.4267
G01 X46.7031 Y20.4119
G01 X46.6964 Y20.4008
G01 X46.6886 Y20.3903
G01 X46.6408 Y20.3351
G01 X46.6342 Y20.3280
G01 X46.6246 Y20.3193
G01 X46.6142 Y20.3117
G01 X46.6031 Y20.3051
G01 X46.5914 Y20.2997
G01 X46.5792 Y20.2955
G01 X46.5121 Y20.2758
G01 X46.5001 Y20.2728
G01 X46.4879 Y20.2711
G01 X46.4755 Y20.2705
G01 X19.9244 Y20.2705
G01 X19.9105 Y20.2712
G01 X19.8809 Y20.2745
G01 X19.8715 Y20.2761
G01 X19.8592 Y20.2793
G01 X19.8472 Y20.2837
G01 X19.8357 Y20.2892
G01 X19.7717 Y20.3242
G01 X19.7588 Y20.3327
G01 X19.7470 Y20.3427
G01 X18.3849 Y21.7048
G01 X18.3778 Y21.7124
G01 X18.3590 Y21.7358
G01 X18.3532 Y21.7434
G01 X18.3481 Y21.7515
G01 X18.3422 Y21.7628
G01 X18.3374 Y21.7746
G01 X18.3158 Y21.8477
G01 X18.3123 Y21.8628
G01 X18.3111 Y21.8720
G01 X18.3105 Y21.8813
G01 X18.3105 Y22.9392
G01 X18.3109 Y22.9497
G01 X18.3145 Y22.9827
G01 X18.3161 Y22.9921
G01 X18.3184 Y23.0014
G01 X18.3213 Y23.0105
G01 X18.3263 Y23.0222
G01 X18.3627 Y23.0892
G01 X18.3709 Y23.1023
G01 X18.3766 Y23.1097
G01 X18.3827 Y23.1166
G01 X18.4710 Y23.2049
G01 X18.5839 Y23.3603
G01 X18.5900 Y23.3710
G01 X18.5954 Y23.3787
G01 X18.6013 Y23.3861
G01 X18.6445 Y23.4358
G01 X18.6559 Y23.4464
G01 X18.6659 Y23.4538
G01 X18.6766 Y23.4603
G01 X18.6908 Y23.4669
G01 X18.7689 Y23.4935
G01 X18.7847 Y23.4970
G01 X18.7943 Y23.4981
G01 X18.8040 Y23.4985
G01 X18.8169 Y23.4980
G01 X18.8328 Y23.4955
G01 X18.9038 Y23.4779
G01 X18.9131 Y23.4753
G01 X18.9251 Y23.4706
G01 X18.9366 Y23.4648
G01 X18.9475 Y23.4579
G01 X18.9577 Y23.4499
G01 X18.9670 Y23.4410
G01 X19.0150 Y23.3902
G01 X19.0231 Y23.3808
G01 X19.0302 Y23.3707
G01 X19.0361 Y23.3603
G01 X19.1491 Y23.2049
G01 X19.2849 Y23.0690
G01 X19.4403 Y22.9561
G01 X19.6115 Y22.8689
G01 X19.7942 Y22.8096
G01 X19.9839 Y22.7795
G01 X20.1761 Y22.7795
G01 X20.3658 Y22.8096
G01 X20.5485 Y22.8689
G01 X20.7197 Y22.9561
G01 X20.8751 Y23.0690
G01 X20.9636 Y23.1575
G01 X20.9715 Y23.1644
G01 X20.9921 Y23.1810
G01 X21.0052 Y23.1903
G01 X21.0192 Y23.1978
G01 X21.0280 Y23.2015
G01 X21.0371 Y23.2045
G01 X21.1101 Y23.2258
G01 X21.1223 Y23.2282
G01 X21.1377 Y23.2295
G01 X46.5759 Y23.2295
G01 X46.7247 Y23.2591
G01 X46.8650 Y23.3172
G01 X46.9912 Y23.4015
G01 X55.0985 Y31.5088
G01 X55.1828 Y31.6350
G01 X55.2409 Y31.7753
G01 X55.2705 Y31.9241
G01 X55.2705 Y36.4474
G01 X55.2708 Y36.4567
G01 X55.2728 Y36.4720
G01 X55.2854 Y36.5297
G01 X55.2891 Y36.5421
G01 X55.2955 Y36.5571
G01 X55.3036 Y36.5711
G01 X55.3114 Y36.5815
G01 X55.3636 Y36.6416
G01 X55.3729 Y36.6505
G01 X55.3832 Y36.6584
G01 X55.3941 Y36.6652
G01 X55.4057 Y36.6709
G01 X55.4208 Y36.6764
G01 X55.4879 Y36.6961
G01 X55.4999 Y36.6990
G01 X55.5121 Y36.7008
G01 X55.5245 Y36.7014
G01 X57.1819 Y36.7014
G01 X57.1958 Y36.7010
G01 X57.2114 Y36.6992
G01 X57.2267 Y36.6956
G01 X57.2984 Y36.6701
G01 X57.3071 Y36.6667
G01 X57.3154 Y36.6627
G01 X57.3235 Y36.6581
G01 X57.3463 Y36.6418
G01 X57.4825 Y36.5725
G01 X57.6277 Y36.5253
G01 X57.7786 Y36.5014
G01 X58.7314 Y36.5014
G01 X58.8823 Y36.5253
G01 X59.0275 Y36.5725
G01 X59.1637 Y36.6418
G01 X59.1903 Y36.6608
G01 X59.2012 Y36.6671
G01 X59.2097 Y36.6711
G01 X59.2244 Y36.6764
G01 X59.2945 Y36.6970
G01 X59.3066 Y36.6996
G01 X59.3158 Y36.7008
G01 X59.3281 Y36.7014
G01 X61.0478 Y36.7014
G01 X61.1966 Y36.7310
G01 X61.2487 Y36.7526
G01 X61.3369 Y36.7891
G01 X61.4630 Y36.8734
G01 X62.0985 Y37.5088
G01 X62.1828 Y37.6350
G01 X62.2408 Y37.7751
G01 X62.2447 Y37.7836
G01 X62.2491 Y37.7917
G01 X62.2689 Y37.8249
G01 X62.2764 Y37.8356
G01 X62.2827 Y37.8431
G01 X62.2934 Y37.8536
G01 X62.3012 Y37.8624
G01 X62.3082 Y37.8690
G01 X62.3156 Y37.8751
G01 X62.3289 Y37.8840
G01 X62.3374 Y37.8885
G01 X62.3518 Y37.8951
G01 X62.3704 Y37.9076
G01 X62.3847 Y37.9149
G01 X62.3968 Y37.9194
G01 X62.4061 Y37.9220
G01 X62.4173 Y37.9242
G01 X62.4314 Y37.9279
G01 X62.4474 Y37.9302
G01 X62.4570 Y37.9307
G01 X62.4667 Y37.9304
G01 X62.4889 Y37.9275
G01 X62.5048 Y37.9281
G01 X62.5144 Y37.9278
G01 X62.5241 Y37.9268
G01 X62.5336 Y37.9251
G01 X62.5461 Y37.9218
G01 X62.5597 Y37.9165
G01 X62.5675 Y37.9142
G01 X62.5766 Y37.9109
G01 X62.5882 Y37.9054
G01 X62.5993 Y37.8987
G01 X62.6097 Y37.8910
G01 X62.6217 Y37.8807
G01 X62.6407 Y37.8690
G01 X62.6485 Y37.8631
G01 X62.6557 Y37.8567
G01 X62.6625 Y37.8498
G01 X62.6687 Y37.8424
G01 X62.6753 Y37.8331
G01 X62.6846 Y37.8219
G01 X62.6917 Y37.8111
G01 X62.6963 Y37.8026
G01 X62.7003 Y37.7938
G01 X62.7036 Y37.7847
G01 X62.7081 Y37.7694
G01 X62.7165 Y37.7523
G01 X62.7221 Y37.7371
G01 X62.7245 Y37.7278
G01 X62.7262 Y37.7182
G01 X62.7272 Y37.7086
G01 X62.7275 Y37.7005
G01 X62.7289 Y37.6903
G01 X62.7295 Y37.6810
G01 X62.7295 Y33.9244
G01 X62.7288 Y33.9105
G01 X62.7255 Y33.8809
G01 X62.7239 Y33.8715
G01 X62.7207 Y33.8592
G01 X62.7163 Y33.8472
G01 X62.7108 Y33.8357
G01 X62.6758 Y33.7717
G01 X62.6691 Y33.7613
G01 X62.6614 Y33.7515
G01 X62.6551 Y33.7448
G01 X62.1471 Y33.2368
G01 X62.1368 Y33.2275
G01 X62.1111 Y33.2070
G01 X62.1004 Y33.2000
G01 X62.0862 Y33.1928
G01 X62.0712 Y33.1873
G01 X62.0012 Y33.1668
G01 X61.9860 Y33.1637
G01 X61.9706 Y33.1624
G01 X59.3244 Y33.1624
G01 X59.3142 Y33.1628
G01 X59.3048 Y33.1636
G01 X59.2955 Y33.1651
G01 X59.2864 Y33.1673
G01 X59.2774 Y33.1701
G01 X59.2116 Y33.1936
G01 X59.2029 Y33.1971
G01 X59.1946 Y33.2011
G01 X59.1865 Y33.2057
G01 X59.1637 Y33.2219
G01 X59.0275 Y33.2913
G01 X58.8823 Y33.3385
G01 X58.7314 Y33.3624
G01 X57.7786 Y33.3624
G01 X57.6277 Y33.3385
G01 X57.4825 Y33.2913
G01 X57.3463 Y33.2219
G01 X57.2228 Y33.1321
G01 X57.1147 Y33.0241
G01 X57.0250 Y32.9005
G01 X56.9556 Y32.7644
G01 X56.9084 Y32.6191
G01 X56.8845 Y32.4683
G01 X56.8845 Y32.3155
G01 X56.9084 Y32.1646
G01 X56.9556 Y32.0193
G01 X57.0250 Y31.8832
G01 X57.1147 Y31.7596
G01 X57.2228 Y31.6516
G01 X57.3463 Y31.5618
G01 X57.4825 Y31.4925
G01 X57.6277 Y31.4453
G01 X57.7786 Y31.4214
G01 X58.7314 Y31.4214
G01 X58.8823 Y31.4453
G01 X59.0275 Y31.4925
G01 X59.1637 Y31.5618
G01 X59.1903 Y31.5808
G01 X59.2012 Y31.5871
G01 X59.2097 Y31.5911
G01 X59.2244 Y31.5964
G01 X59.2945 Y31.6170
G01 X59.3066 Y31.6196
G01 X59.3220 Y31.6212
G01 X62.4678 Y31.6214
G01 X62.6166 Y31.6510
G01 X62.6687 Y31.6726
G01 X62.7569 Y31.7091
G01 X62.8830 Y31.7934
G01 X64.0985 Y33.0088
G01 X64.1828 Y33.1350
G01 X64.2409 Y33.2753
G01 X64.2705 Y33.4241
G01 X64.2705 Y61.0759
G01 X64.2409 Y61.2247
G01 X64.2058 Y61.3094
G01 X64.1828 Y61.3650
G01 X64.0985 Y61.4912
G01 X61.8449 Y63.7448
G01 X61.8356 Y63.7551
G01 X61.8190 Y63.7758
G01 X61.8132 Y63.7834
G01 X61.8081 Y63.7915
G01 X61.8035 Y63.7999
G01 X61.7996 Y63.8086
G01 X61.7964 Y63.8176
G01 X61.7749 Y63.8907
G01 X61.7718 Y63.9059
G01 X61.7706 Y63.9182
G01 X61.7705 Y64.5759
G01 X61.7409 Y64.7247
G01 X61.6828 Y64.8650
G01 X61.5985 Y64.9912
G01 X61.4912 Y65.0985
G01 X61.3650 Y65.1828
G01 X61.2247 Y65.2409
G01 X61.0759 Y65.2705
G01 X54.4241 Y65.2705
G01 X54.2753 Y65.2409
G01 X54.1350 Y65.1828
G01 X54.0088 Y65.0985
G01 X43.4015 Y54.4912
G01 X43.3172 Y54.3650
G01 X43.2591 Y54.2247
G01 X43.2295 Y54.0759
G01 X43.2295 Y53.4244
G01 X43.2291 Y53.4139
G01 X43.2255 Y53.3809
G01 X43.2239 Y53.3715
G01 X43.2216 Y53.3622
G01 X43.2175 Y53.3501
G01 X43.2108 Y53.3357
G01 X43.1758 Y53.2717
G01 X43.1708 Y53.2638
G01 X43.1654 Y53.2563
G01 X43.1551 Y53.2448
G01 X42.9815 Y53.0712
G01 X42.8972 Y52.9450
G01 X42.8391 Y52.8047
G01 X42.8095 Y52.6559
G01 X42.8095 Y34.0608
G01 X42.8091 Y34.0503
G01 X42.8055 Y34.0173
G01 X42.8039 Y34.0079
G01 X42.8007 Y33.9956
G01 X42.7975 Y33.9865
G01 X42.7937 Y33.9778
G01 X42.7573 Y33.9108
G01 X42.7491 Y33.8977
G01 X42.7434 Y33.8903
G01 X42.7373 Y33.8834
G01 X42.6490 Y33.7951
G01 X42.5361 Y33.6397
G01 X42.5300 Y33.6291
G01 X42.5247 Y33.6213
G01 X42.5187 Y33.6139
G01 X42.4755 Y33.5643
G01 X42.4641 Y33.5536
G01 X42.4541 Y33.5462
G01 X42.4406 Y33.5382
G01 X42.4263 Y33.5320
G01 X42.3572 Y33.5084
G01 X42.3448 Y33.5049
G01 X42.3353 Y33.5030
G01 X42.3225 Y33.5017
G01 X42.3128 Y33.5015
G01 X42.3031 Y33.5020
G01 X42.2935 Y33.5033
G01 X42.2841 Y33.5053
G01 X42.2162 Y33.5221
G01 X42.2069 Y33.5247
G01 X42.1949 Y33.5294
G01 X42.1862 Y33.5336
G01 X42.1751 Y33.5403
G01 X42.1673 Y33.5460
G01 X42.1599 Y33.5522
G01 X42.1530 Y33.5590
G01 X42.1050 Y33.6098
G01 X42.0970 Y33.6192
G01 X42.0898 Y33.6293
G01 X42.0839 Y33.6397
G01 X41.9710 Y33.7951
G01 X41.8351 Y33.9310
G01 X41.6797 Y34.0439
G01 X41.5085 Y34.1311
G01 X41.3258 Y34.1904
G01 X41.1361 Y34.2205
G01 X40.9439 Y34.2205
G01 X40.7542 Y34.1904
G01 X40.5715 Y34.1311
G01 X40.4003 Y34.0439
G01 X40.2449 Y33.9310
G01 X40.1090 Y33.7951
G01 X39.9961 Y33.6397
G01 X39.9898 Y33.6285
G01 X39.9825 Y33.6182
G01 X39.9352 Y33.5637
G01 X39.9285 Y33.5572
G01 X39.9214 Y33.5511
G01 X39.9085 Y33.5423
G01 X39.8976 Y33.5363
G01 X39.8861 Y33.5315
G01 X39.8108 Y33.5059
G01 X39.7983 Y33.5030
G01 X39.7855 Y33.5013
G01 X39.7726 Y33.5009
G01 X39.7629 Y33.5015
G01 X39.7533 Y33.5027
G01 X39.7438 Y33.5047
G01 X39.6729 Y33.5223
G01 X39.6576 Y33.5275
G01 X39.6431 Y33.5346
G01 X39.6296 Y33.5434
G01 X39.6173 Y33.5539
G01 X39.6045 Y33.5671
G01 X39.4074 Y33.3700
G01 X39.4378 Y33.2845
G01 X39.4612 Y33.1912
G01 X39.4753 Y33.0961
G01 X39.4800 Y33.0000
G01 X39.4753 Y32.9039
G01 X39.4612 Y32.8088
G01 X39.4378 Y32.7155
G01 X39.4074 Y32.6300
G01 X39.6027 Y32.4347
G01 X39.6133 Y32.4449
G01 X39.6231 Y32.4526
G01 X39.6336 Y32.4593
G01 X39.6476 Y32.4663
G01 X39.6564 Y32.4696
G01 X39.7256 Y32.4931
G01 X39.7412 Y32.4970
G01 X39.7540 Y32.4987
G01 X39.7702 Y32.4990
G01 X39.7798 Y32.4982
G01 X39.7894 Y32.4967
G01 X39.8666 Y32.4777
G01 X39.8789 Y32.4736
G01 X39.8878 Y32.4698
G01 X39.8992 Y32.4637
G01 X39.9073 Y32.4584
G01 X39.9174 Y32.4505
G01 X39.9245 Y32.4439
G01 X39.9747 Y32.3907
G01 X39.9828 Y32.3814
G01 X39.9899 Y32.3712
G01 X39.9961 Y32.3603
G01 X40.1091 Y32.2049
G01 X40.2449 Y32.0691
G01 X40.2574 Y32.0591
G01 X40.2682 Y32.0488
G01 X40.2745 Y32.0420
G01 X40.2972 Y32.0145
G01 X40.3047 Y32.0037
G01 X40.3144 Y31.9869
G01 X40.3184 Y31.9781
G01 X40.3217 Y31.9690
G01 X40.3243 Y31.9597
G01 X40.3311 Y31.9316
G01 X40.3408 Y31.8979
G01 X40.3432 Y31.8858
G01 X40.3445 Y31.8704
G01 X40.3445 Y31.0245
G01 X40.3442 Y31.0152
G01 X40.3422 Y30.9999
G01 X40.3296 Y30.9422
G01 X40.3248 Y30.9267
G01 X40.3181 Y30.9119
G01 X40.3114 Y30.9008
G01 X40.3036 Y30.8903
G01 X40.2536 Y30.8326
G01 X40.2421 Y30.8214
G01 X40.2318 Y30.8135
G01 X40.2209 Y30.8067
G01 X40.2123 Y30.8023
G01 X40.2003 Y30.7974
G01 X40.1211 Y30.7742
G01 X40.1059 Y30.7714
G01 X40.0936 Y30.7705
G01 X37.9641 Y30.7705
G01 X37.8153 Y30.7409
G01 X37.6750 Y30.6828
G01 X37.5488 Y30.5985
G01 X36.7902 Y29.8401
G01 X36.7642 Y29.8190
G01 X36.7566 Y29.8132
G01 X36.7457 Y29.8065
G01 X36.7314 Y29.7996
G01 X36.7193 Y29.7955
G01 X36.6493 Y29.7749
G01 X36.6341 Y29.7718
G01 X36.6218 Y29.7706
G01 X16.9241 Y29.7705
G01 X16.7753 Y29.7409
G01 X16.6350 Y29.6828
G01 X16.5088 Y29.5985
G01 X14.4015 Y27.4912
G01 X14.3172 Y27.3650
G01 X14.2591 Y27.2247
G01 X14.2295 Y27.0759
G01 X14.2295 Y25.0608
G01 X14.2288 Y25.0469
G01 X14.2251 Y25.0142
G01 X14.2232 Y25.0048
G01 X14.2179 Y24.9850
G01 X14.2132 Y24.9728
G01 X14.2072 Y24.9611
G01 X14.1898 Y24.9336
G01 X14.1742 Y24.9054
G01 X14.1654 Y24.8927
G01 X14.1551 Y24.8812
G01 X14.0690 Y24.7951
G01 X13.9561 Y24.6397
G01 X13.9498 Y24.6285
G01 X13.9425 Y24.6182
G01 X13.8952 Y24.5637
G01 X13.8862 Y24.5551
G01 X13.8764 Y24.5474
G01 X13.8631 Y24.5392
G01 X13.8490 Y24.5326
G01 X13.7739 Y24.5069
G01 X13.7614 Y24.5036
G01 X13.7487 Y24.5016
G01 X13.7358 Y24.5009
G01 X13.7261 Y24.5012
G01 X13.7165 Y24.5022
G01 X13.7038 Y24.5047
G01 X13.6329 Y24.5223
G01 X13.6176 Y24.5275
G01 X13.6031 Y24.5346
G01 X13.5896 Y24.5434
G01 X13.5773 Y24.5539
G01 X13.5645 Y24.5671
G01 X13.3674 Y24.3700
G00 Z2.0000
G00 X13.8063 Y23.7808
G01 F60.00
G01 Z-0.0800
G01 F120.00
G01 X13.7940 Y23.8633
G01 X13.7918 Y23.8810
G01 X13.7905 Y23.8988
G01 X13.7864 Y23.9821
G01 X13.7861 Y24.0089
G01 X13.7905 Y24.1012
G01 X13.7928 Y24.1279
G01 X13.8077 Y24.2281
G01 X13.8112 Y24.2456
G01 X13.8189 Y24.2767
G01 X13.8000 Y24.2728
G01 X13.7732 Y24.2689
G01 X13.7552 Y24.2675
G01 X13.7281 Y24.2670
G01 X13.7010 Y24.2685
G01 X13.6830 Y24.2706
G01 X13.6652 Y24.2737
G01 X13.6405 Y24.2793
G01 X13.6488 Y24.2456
G01 X13.6523 Y24.2281
G01 X13.6672 Y24.1279
G01 X13.6695 Y24.1012
G01 X13.6736 Y24.0179
G01 X13.6740 Y24.0000
G01 X13.6736 Y23.9821
G01 X13.6695 Y23.8988
G01 X13.6672 Y23.8721
G01 X13.6523 Y23.7719
G01 X13.6488 Y23.7544
G01 X13.6412 Y23.7234
G01 X13.6595 Y23.7272
G01 X13.6863 Y23.7311
G01 X13.7043 Y23.7325
G01 X13.7314 Y23.7330
G01 X13.7585 Y23.7315
G01 X13.7765 Y23.7293
G01 X13.7943 Y23.7263
G01 X13.8196 Y23.7205
G01 X13.8113 Y23.7540
G01 X13.8063 Y23.7808
G00 Z2.0000
G00 X14.0377 Y23.8151
G01 F60.00
G01 Z-0.0800
G01 F120.00
G01 X14.0402 Y23.8026
G01 X14.0605 Y23.7217
G01 X14.0642 Y23.7095
G01 X14.0946 Y23.6250
G01 X14.1357 Y23.5380
G01 X14.1852 Y23.4555
G01 X14.2385 Y23.3833
G01 X14.2466 Y23.3735
G01 X14.3070 Y23.3070
G01 X14.3735 Y23.2466
G01 X14.3833 Y23.2385
G01 X14.4555 Y23.1852
G01 X14.5380 Y23.1357
G01 X14.6191 Y23.0972
G01 X14.6309 Y23.0923
G01 X14.7155 Y23.0622
G01 X14.8088 Y23.0388
G01 X14.8976 Y23.0255
G01 X14.9103 Y23.0242
G01 X15.0000 Y23.0200
G01 X15.0961 Y23.0247
G01 X15.1855 Y23.0378
G01 X15.1974 Y23.0402
G01 X15.2845 Y23.0622
G01 X15.3750 Y23.0946
G01 X15.4563 Y23.1328
G01 X15.4675 Y23.1389
G01 X15.5445 Y23.1852
G01 X15.6217 Y23.2424
G01 X15.6930 Y23.3070
G01 X15.7534 Y23.3735
G01 X15.7615 Y23.3833
G01 X15.8148 Y23.4555
G01 X15.8643 Y23.5380
G01 X15.9028 Y23.6191
G01 X15.9077 Y23.6309
G01 X15.9358 Y23.7095
G01 X15.9395 Y23.7217
G01 X15.9612 Y23.8088
G01 X15.9753 Y23.9039
G01 X15.9800 Y24.0000
G01 X15.9756 Y24.0929
G01 X15.9745 Y24.1024
G01 X15.9612 Y24.1912
G01 X15.9395 Y24.2783
G01 X15.9358 Y24.2905
G01 X15.9077 Y24.3691
G01 X15.9028 Y24.3809
G01 X15.8643 Y24.4620
G01 X15.8183 Y24.5391
G01 X15.8112 Y24.5497
G01 X15.7576 Y24.6217
G01 X15.6930 Y24.6930
G01 X15.6217 Y24.7576
G01 X15.5471 Y24.8130
G01 X15.5307 Y24.8233
G01 X15.5302 Y26.7804
G01 X17.2196 Y28.4698
G01 X37.0432 Y28.4698
G01 X37.0920 Y28.4724
G01 X37.1434 Y28.4800
G01 X37.1939 Y28.4926
G01 X37.2369 Y28.5079
G01 X37.2487 Y28.5127
G01 X37.2842 Y28.5295
G01 X37.2955 Y28.5356
G01 X37.3346 Y28.5592
G01 X37.3764 Y28.5901
G01 X37.4149 Y28.6251
G01 X38.2596 Y29.4698
G01 X49.0000 Y29.4698
G01 X49.0520 Y29.4724
G01 X49.1034 Y29.4800
G01 X49.1539 Y29.4926
G01 X49.1969 Y29.5079
G01 X49.2087 Y29.5127
G01 X49.2502 Y29.5325
G01 X49.2946 Y29.5592
G01 X49.3364 Y29.5901
G01 X49.3726 Y29.6229
G01 X51.4053 Y31.6555
G01 X51.4380 Y31.6918
G01 X51.4653 Y31.7283
G01 X51.4724 Y31.7389
G01 X51.4957 Y31.7782
G01 X51.5154 Y31.8194
G01 X51.5203 Y31.8312
G01 X51.5355 Y31.8742
G01 X51.5475 Y31.9216
G01 X51.5492 Y31.9310
G01 X51.5558 Y31.9762
G01 X51.5583 Y32.0281
G01 X51.5583 Y39.4817
G01 X57.3540 Y39.4817
G01 X57.3919 Y39.4476
G01 X57.4494 Y39.4049
G01 X57.5109 Y39.3681
G01 X57.5698 Y39.3400
G01 X57.5816 Y39.3352
G01 X57.6370 Y39.3153
G01 X57.6492 Y39.3116
G01 X57.7126 Y39.2959
G01 X57.7771 Y39.2862
G01 X57.7898 Y39.2849
G01 X57.8550 Y39.2819
G01 X58.6550 Y39.2819
G01 X58.7266 Y39.2854
G01 X58.7974 Y39.2959
G01 X58.8608 Y39.3116
G01 X58.8730 Y39.3153
G01 X58.9344 Y39.3374
G01 X58.9934 Y39.3652
G01 X59.0047 Y39.3712
G01 X59.0552 Y39.4015
G01 X59.0658 Y39.4086
G01 X59.1181 Y39.4476
G01 X59.1712 Y39.4957
G01 X59.2193 Y39.5488
G01 X59.2583 Y39.6011
G01 X59.2654 Y39.6117
G01 X59.2957 Y39.6622
G01 X59.3017 Y39.6735
G01 X59.3294 Y39.7325
G01 X59.3516 Y39.7939
G01 X59.3553 Y39.8061
G01 X59.3710 Y39.8695
G01 X59.3815 Y39.9403
G01 X59.3850 Y40.0119
G01 X59.3820 Y40.0771
G01 X59.3807 Y40.0898
G01 X59.3720 Y40.1486
G01 X59.3696 Y40.1605
G01 X59.3536 Y40.2238
G01 X59.3317 Y40.2853
G01 X59.3268 Y40.2971
G01 X59.3017 Y40.3503
G01 X59.2957 Y40.3616
G01 X59.2620 Y40.4174
G01 X59.2193 Y40.4750
G01 X59.1756 Y40.5234
G01 X59.1666 Y40.5325
G01 X59.1181 Y40.5762
G01 X59.0606 Y40.6189
G01 X59.0047 Y40.6525
G01 X58.9934 Y40.6586
G01 X58.9344 Y40.6863
G01 X58.8669 Y40.7104
G01 X58.7974 Y40.7279
G01 X58.7329 Y40.7376
G01 X58.7202 Y40.7388
G01 X58.6550 Y40.7419
G01 X57.8518 Y40.7418
G01 X57.7839 Y40.7384
G01 X57.7183 Y40.7289
G01 X57.7064 Y40.7265
G01 X57.6492 Y40.7121
G01 X57.6370 Y40.7084
G01 X57.5756 Y40.6863
G01 X57.5137 Y40.6572
G01 X57.5053 Y40.6525
G01 X57.4548 Y40.6223
G01 X57.4468 Y40.6170
G01 X57.3919 Y40.5762
G01 X57.3540 Y40.5421
G01 X51.0249 Y40.5420
G01 X50.9762 Y40.5395
G01 X50.9247 Y40.5319
G01 X50.8742 Y40.5192
G01 X50.8252 Y40.5017
G01 X50.7782 Y40.4795
G01 X50.7336 Y40.4527
G01 X50.6918 Y40.4217
G01 X50.6578 Y40.3912
G01 X50.6488 Y40.3822
G01 X50.6183 Y40.3482
G01 X50.5873 Y40.3064
G01 X50.5605 Y40.2618
G01 X50.5383 Y40.2148
G01 X50.5208 Y40.1658
G01 X50.5081 Y40.1153
G01 X50.5005 Y40.0638
G01 X50.4980 Y40.0151
G01 X50.4979 Y32.2477
G01 X48.7804 Y30.5302
G01 X41.4952 Y30.5302
G01 X41.4952 Y32.1323
G01 X41.5075 Y32.1389
G01 X41.5791 Y32.1817
G01 X41.5897 Y32.1888
G01 X41.6617 Y32.2424
G01 X41.7330 Y32.3070
G01 X41.7934 Y32.3735
G01 X41.8015 Y32.3833
G01 X41.8548 Y32.4555
G01 X41.9043 Y32.5380
G01 X41.9428 Y32.6191
G01 X41.9477 Y32.6309
G01 X41.9778 Y32.7155
G01 X42.0012 Y32.8088
G01 X42.0153 Y32.9039
G01 X42.0198 Y32.9936
G01 X42.0198 Y33.0064
G01 X42.0158 Y33.0897
G01 X42.0149 Y33.0992
G01 X42.0012 Y33.1912
G01 X41.9778 Y33.2845
G01 X41.9454 Y33.3750
G01 X41.9043 Y33.4620
G01 X41.8548 Y33.5445
G01 X41.7976 Y33.6217
G01 X41.7330 Y33.6930
G01 X41.6665 Y33.7534
G01 X41.6567 Y33.7615
G01 X41.5845 Y33.8148
G01 X41.5075 Y33.8611
G01 X41.4963 Y33.8672
G01 X41.4209 Y33.9028
G01 X41.4091 Y33.9077
G01 X41.3242 Y33.9379
G01 X41.2312 Y33.9612
G01 X41.1361 Y33.9753
G01 X41.0464 Y33.9798
G01 X41.0368 Y33.9800
G01 X40.9439 Y33.9753
G01 X40.8488 Y33.9612
G01 X40.7555 Y33.9378
G01 X40.6709 Y33.9077
G01 X40.6591 Y33.9028
G01 X40.5837 Y33.8672
G01 X40.5725 Y33.8611
G01 X40.4955 Y33.8148
G01 X40.4233 Y33.7615
G01 X40.4135 Y33.7534
G01 X40.3470 Y33.6930
G01 X40.2824 Y33.6217
G01 X40.2252 Y33.5445
G01 X40.1757 Y33.4620
G01 X40.1346 Y33.3750
G01 X40.1021 Y33.2842
G01 X40.0788 Y33.1912
G01 X40.0651 Y33.0992
G01 X40.0642 Y33.0897
G01 X40.0602 Y33.0064
G01 X40.0602 Y32.9936
G01 X40.0647 Y32.9039
G01 X40.0789 Y32.8085
G01 X40.1022 Y32.7155
G01 X40.1323 Y32.6309
G01 X40.1372 Y32.6191
G01 X40.1757 Y32.5380
G01 X40.2252 Y32.4555
G01 X40.2785 Y32.3833
G01 X40.2866 Y32.3735
G01 X40.3470 Y32.3070
G01 X40.4183 Y32.2424
G01 X40.4903 Y32.1888
G01 X40.5009 Y32.1817
G01 X40.5725 Y32.1389
G01 X40.5847 Y32.1324
G01 X40.5848 Y30.5302
G01 X38.0400 Y30.5302
G01 X37.9944 Y30.5281
G01 X37.9817 Y30.5269
G01 X37.9366 Y30.5200
G01 X37.8892 Y30.5083
G01 X37.8800 Y30.5054
G01 X37.8371 Y30.4898
G01 X37.7958 Y30.4705
G01 X37.7845 Y30.4644
G01 X37.7454 Y30.4408
G01 X37.7087 Y30.4138
G01 X37.6988 Y30.4057
G01 X37.6697 Y30.3793
G01 X36.8204 Y29.5302
G01 X17.0000 Y29.5302
G01 X16.9480 Y29.5276
G01 X16.8966 Y29.5200
G01 X16.8522 Y29.5091
G01 X16.8400 Y29.5054
G01 X16.7971 Y29.4898
G01 X16.7501 Y29.4676
G01 X16.7108 Y29.4443
G01 X16.7002 Y29.4372
G01 X16.6636 Y29.4099
G01 X16.6274 Y29.3771
G01 X14.6251 Y27.3749
G01 X14.5901 Y27.3364
G01 X14.5628 Y27.2998
G01 X14.5557 Y27.2892
G01 X14.5356 Y27.2555
G01 X14.5309 Y27.2471
G01 X14.5127 Y27.2087
G01 X14.5079 Y27.1969
G01 X14.4926 Y27.1539
G01 X14.4814 Y27.1097
G01 X14.4789 Y27.0972
G01 X14.4724 Y27.0520
G01 X14.4698 Y27.0032
G01 X14.4698 Y24.8236
G01 X14.4582 Y24.8166
G01 X14.4503 Y24.8112
G01 X14.3833 Y24.7615
G01 X14.3735 Y24.7534
G01 X14.3070 Y24.6930
G01 X14.2424 Y24.6217
G01 X14.1852 Y24.5445
G01 X14.1389 Y24.4675
G01 X14.1328 Y24.4563
G01 X14.0946 Y24.3750
G01 X14.0640 Y24.2900
G01 X14.0605 Y24.2783
G01 X14.0388 Y24.1912
G01 X14.0247 Y24.0961
G01 X14.0202 Y24.0064
G01 X14.0202 Y23.9936
G01 X14.0247 Y23.9039
G01 X14.0377 Y23.8151
G00 Z2.0000
G00 X16.0439 Y24.6397
G01 F60.00
G01 Z-0.0800
G01 F120.00
G01 X16.0515 Y24.6267
G01 X16.0609 Y24.6144
G01 X16.1130 Y24.5590
G01 X16.1199 Y24.5522
G01 X16.1298 Y24.5440
G01 X16.1434 Y24.5352
G01 X16.1549 Y24.5294
G01 X16.1700 Y24.5238
G01 X16.2504 Y24.5039
G01 X16.2664 Y24.5018
G01 X16.2825 Y24.5017
G01 X16.2953 Y24.5030
G01 X16.3111 Y24.5065
G01 X16.3834 Y24.5310
G01 X16.3921 Y24.5343
G01 X16.4034 Y24.5397
G01 X16.4114 Y24.5445
G01 X16.4216 Y24.5517
G01 X16.4288 Y24.5577
G01 X16.4397 Y24.5689
G01 X16.4808 Y24.6163
G01 X16.4883 Y24.6264
G01 X16.4961 Y24.6397
G01 X16.6090 Y24.7951
G01 X16.7449 Y24.9310
G01 X16.9003 Y25.0439
G01 X17.0715 Y25.1311
G01 X17.2542 Y25.1904
G01 X17.4439 Y25.2205
G01 X17.6361 Y25.2205
G01 X17.8258 Y25.1904
G01 X18.0085 Y25.1311
G01 X18.1797 Y25.0439
G01 X18.3351 Y24.9310
G01 X18.4710 Y24.7951
G01 X18.5839 Y24.6397
G01 X18.5898 Y24.6293
G01 X18.5970 Y24.6192
G01 X18.6050 Y24.6098
G01 X18.6530 Y24.5590
G01 X18.6623 Y24.5501
G01 X18.6725 Y24.5421
G01 X18.6834 Y24.5352
G01 X18.6949 Y24.5294
G01 X18.7069 Y24.5247
G01 X18.7162 Y24.5221
G01 X18.7872 Y24.5045
G01 X18.7999 Y24.5024
G01 X18.8128 Y24.5015
G01 X18.8225 Y24.5017
G01 X18.8321 Y24.5026
G01 X18.8480 Y24.5056
G01 X18.8572 Y24.5084
G01 X18.9234 Y24.5310
G01 X18.9350 Y24.5355
G01 X18.9461 Y24.5412
G01 X18.9566 Y24.5479
G01 X18.9665 Y24.5556
G01 X18.9733 Y24.5620
G01 X18.9797 Y24.5689
G01 X19.0187 Y24.6139
G01 X19.0247 Y24.6213
G01 X19.0300 Y24.6291
G01 X19.0361 Y24.6397
G01 X19.1490 Y24.7951
G01 X19.2849 Y24.9310
G01 X19.4403 Y25.0439
G01 X19.6115 Y25.1311
G01 X19.7942 Y25.1904
G01 X19.9839 Y25.2205
G01 X20.1761 Y25.2205
G01 X20.2146 Y25.2144
G01 X20.3658 Y25.1904
G01 X20.5485 Y25.1311
G01 X20.7197 Y25.0439
G01 X20.8751 Y24.9310
G01 X20.9634 Y24.8427
G01 X20.9727 Y24.8346
G01 X20.9854 Y24.8258
G01 X21.0549 Y24.7877
G01 X21.0695 Y24.7813
G01 X21.0817 Y24.7775
G01 X21.0942 Y24.7749
G01 X21.1269 Y24.7712
G01 X21.1373 Y24.7705
G01 X46.0756 Y24.7705
G01 X46.0911 Y24.7714
G01 X46.1063 Y24.7742
G01 X46.1824 Y24.7964
G01 X46.1943 Y24.8009
G01 X46.2029 Y24.8050
G01 X46.2139 Y24.8115
G01 X46.2217 Y24.8170
G01 X46.2476 Y24.8378
G01 X46.2552 Y24.8449
G01 X53.6551 Y32.2448
G01 X53.6614 Y32.2515
G01 X53.6673 Y32.2588
G01 X53.6758 Y32.2717
G01 X53.7123 Y32.3385
G01 X53.7163 Y32.3472
G01 X53.7197 Y32.3561
G01 X53.7232 Y32.3684
G01 X53.7255 Y32.3809
G01 X53.7291 Y32.4139
G01 X53.7295 Y32.4244
G01 X53.7295 Y37.5759
G01 X53.7591 Y37.7247
G01 X53.8170 Y37.8644
G01 X53.9015 Y37.9912
G01 X54.0088 Y38.0985
G01 X54.1350 Y38.1828
G01 X54.2753 Y38.2409
G01 X54.4241 Y38.2705
G01 X54.5759 Y38.2705
G01 X54.6959 Y38.2467
G01 X54.7053 Y38.2454
G01 X54.7295 Y38.2430
G01 X54.7423 Y38.2424
G01 X57.1819 Y38.2424
G01 X57.1942 Y38.2430
G01 X57.2065 Y38.2447
G01 X57.2155 Y38.2468
G01 X57.2856 Y38.2674
G01 X57.3003 Y38.2727
G01 X57.3116 Y38.2782
G01 X57.3197 Y38.2830
G01 X57.3463 Y38.3019
G01 X57.4825 Y38.3713
G01 X57.6277 Y38.4185
G01 X57.7786 Y38.4424
G01 X58.7314 Y38.4424
G01 X58.8823 Y38.4185
G01 X59.0275 Y38.3713
G01 X59.1637 Y38.3019
G01 X59.1865 Y38.2857
G01 X59.1946 Y38.2811
G01 X59.2029 Y38.2771
G01 X59.2116 Y38.2736
G01 X59.2774 Y38.2501
G01 X59.2864 Y38.2473
G01 X59.2955 Y38.2451
G01 X59.3048 Y38.2436
G01 X59.3142 Y38.2428
G01 X59.3244 Y38.2424
G01 X60.4755 Y38.2424
G01 X60.4909 Y38.2433
G01 X60.5001 Y38.2447
G01 X60.5091 Y38.2468
G01 X60.5823 Y38.2683
G01 X60.5914 Y38.2716
G01 X60.6002 Y38.2755
G01 X60.6087 Y38.2802
G01 X60.6168 Y38.2854
G01 X60.6271 Y38.2933
G01 X60.6364 Y38.3022
G01 X60.6886 Y38.3622
G01 X60.6945 Y38.3700
G01 X60.6999 Y38.3781
G01 X60.7073 Y38.3926
G01 X60.7109 Y38.4016
G01 X60.7146 Y38.4141
G01 X60.7265 Y38.4687
G01 X60.7286 Y38.4809
G01 X60.7295 Y38.4964
G01 X60.7295 Y58.6183
G01 X60.7283 Y58.6419
G01 X60.7273 Y58.6516
G01 X60.7249 Y58.6642
G01 X60.7213 Y58.6766
G01 X60.7100 Y58.7034
G01 X60.7036 Y58.7250
G01 X60.6978 Y58.7399
G01 X60.6935 Y58.7484
G01 X60.6885 Y58.7566
G01 X60.6731 Y58.7778
G01 X60.6668 Y58.7853
G01 X60.6599 Y58.7923
G01 X60.6313 Y58.8181
G01 X60.6217 Y58.8259
G01 X60.5088 Y58.9015
G01 X59.7508 Y59.6594
G01 X59.7412 Y59.6673
G01 X59.7283 Y59.6758
G01 X59.6615 Y59.7123
G01 X59.6499 Y59.7175
G01 X59.6408 Y59.7207
G01 X59.6285 Y59.7239
G01 X59.6191 Y59.7255
G01 X59.5861 Y59.7291
G01 X59.5756 Y59.7295
G01 X53.9244 Y59.7295
G01 X53.9151 Y59.7292
G01 X53.9059 Y59.7282
G01 X53.8907 Y59.7251
G01 X53.8207 Y59.7045
G01 X53.8057 Y59.6991
G01 X53.7915 Y59.6919
G01 X53.7808 Y59.6849
G01 X53.7551 Y59.6644
G01 X53.7448 Y59.6551
G01 X46.9649 Y52.8752
G01 X46.9586 Y52.8685
G01 X46.9527 Y52.8612
G01 X46.9442 Y52.8483
G01 X46.9077 Y52.7815
G01 X46.9013 Y52.7669
G01 X46.8975 Y52.7547
G01 X46.8949 Y52.7422
G01 X46.8912 Y52.7095
G01 X46.8905 Y52.6956
G01 X46.8905 Y34.0577
G01 X46.8918 Y34.0423
G01 X46.8942 Y34.0301
G01 X46.9155 Y33.9571
G01 X46.9185 Y33.9480
G01 X46.9222 Y33.9392
G01 X46.9265 Y33.9307
G01 X46.9315 Y33.9225
G01 X46.9390 Y33.9121
G01 X46.9556 Y33.8915
G01 X46.9625 Y33.8836
G01 X47.0509 Y33.7951
G01 X47.1639 Y33.6397
G01 X47.2511 Y33.4685
G01 X47.3104 Y33.2858
G01 X47.3405 Y33.0961
G01 X47.3405 Y32.9039
G01 X47.3104 Y32.7142
G01 X47.2511 Y32.5315
G01 X47.1639 Y32.3603
G01 X47.0510 Y32.2049
G01 X46.9151 Y32.0690
G01 X46.7597 Y31.9561
G01 X46.5885 Y31.8689
G01 X46.4058 Y31.8096
G01 X46.2161 Y31.7795
G01 X46.0239 Y31.7795
G01 X45.8342 Y31.8096
G01 X45.6515 Y31.8689
G01 X45.4803 Y31.9561
G01 X45.3249 Y32.0690
G01 X45.1891 Y32.2049
G01 X45.0761 Y32.3603
G01 X45.0702 Y32.3707
G01 X45.0631 Y32.3808
G01 X45.0550 Y32.3902
G01 X45.0070 Y32.4410
G01 X44.9977 Y32.4499
G01 X44.9875 Y32.4579
G01 X44.9766 Y32.4648
G01 X44.9651 Y32.4706
G01 X44.9531 Y32.4753
G01 X44.9438 Y32.4779
G01 X44.8728 Y32.4955
G01 X44.8601 Y32.4976
G01 X44.8472 Y32.4985
G01 X44.8375 Y32.4983
G01 X44.8247 Y32.4970
G01 X44.8120 Y32.4944
G01 X44.8028 Y32.4916
G01 X44.7366 Y32.4691
G01 X44.7279 Y32.4657
G01 X44.7139 Y32.4588
G01 X44.7059 Y32.4538
G01 X44.6984 Y32.4483
G01 X44.6912 Y32.4423
G01 X44.6824 Y32.4335
G01 X44.6372 Y32.3812
G01 X44.6299 Y32.3709
G01 X44.6239 Y32.3603
G01 X44.5110 Y32.2049
G01 X44.3751 Y32.0690
G01 X44.2197 Y31.9561
G01 X44.0485 Y31.8689
G01 X43.8658 Y31.8096
G01 X43.6761 Y31.7795
G01 X43.4839 Y31.7795
G01 X43.2942 Y31.8096
G01 X43.1115 Y31.8689
G01 X42.9403 Y31.9561
G01 X42.7849 Y32.0690
G01 X42.6491 Y32.2049
G01 X42.5361 Y32.3603
G01 X42.5285 Y32.3733
G01 X42.5211 Y32.3832
G01 X42.5150 Y32.3902
G01 X42.4648 Y32.4433
G01 X42.4552 Y32.4520
G01 X42.4449 Y32.4597
G01 X42.4366 Y32.4648
G01 X42.4281 Y32.4693
G01 X42.4192 Y32.4731
G01 X42.4100 Y32.4762
G01 X42.3359 Y32.4947
G01 X42.3265 Y32.4967
G01 X42.3104 Y32.4984
G01 X42.2943 Y32.4981
G01 X42.2783 Y32.4958
G01 X42.2628 Y32.4916
G01 X42.1966 Y32.4691
G01 X42.1822 Y32.4631
G01 X42.1739 Y32.4588
G01 X42.1634 Y32.4521
G01 X42.1536 Y32.4444
G01 X42.1445 Y32.4358
G01 X42.1013 Y32.3861
G01 X42.0953 Y32.3787
G01 X42.0899 Y32.3709
G01 X42.0839 Y32.3603
G01 X41.9710 Y32.2049
G01 X41.8340 Y32.0679
G01 X41.8238 Y32.0586
G01 X41.8156 Y32.0494
G01 X41.7710 Y31.9917
G01 X41.7654 Y31.9838
G01 X41.7604 Y31.9755
G01 X41.7560 Y31.9669
G01 X41.7523 Y31.9580
G01 X41.7492 Y31.9488
G01 X41.7462 Y31.9363
G01 X41.7372 Y31.8883
G01 X41.7361 Y31.8793
G01 X41.7355 Y31.8703
G01 X41.7356 Y31.0183
G01 X41.7373 Y31.0029
G01 X41.7399 Y30.9909
G01 X41.7605 Y30.9208
G01 X41.7635 Y30.9117
G01 X41.7687 Y30.8998
G01 X41.7750 Y30.8885
G01 X41.7823 Y30.8779
G01 X41.7930 Y30.8658
G01 X41.8001 Y30.8592
G01 X41.8553 Y30.8114
G01 X41.8685 Y30.8018
G01 X41.8798 Y30.7955
G01 X41.8917 Y30.7902
G01 X41.9072 Y30.7854
G01 X41.9649 Y30.7728
G01 X41.9741 Y30.7714
G01 X41.9864 Y30.7705
G01 X48.5756 Y30.7705
G01 X48.5880 Y30.7711
G01 X48.5972 Y30.7723
G01 X48.6123 Y30.7758
G01 X48.6793 Y30.7955
G01 X48.6884 Y30.7985
G01 X48.6972 Y30.8022
G01 X48.7085 Y30.8081
G01 X48.7192 Y30.8151
G01 X48.7449 Y30.8356
G01 X48.7527 Y30.8425
G01 X50.1875 Y32.2774
G01 X50.1972 Y32.2894
G01 X50.2039 Y32.2998
G01 X50.2389 Y32.3638
G01 X50.2457 Y32.3783
G01 X50.2506 Y32.3934
G01 X50.2532 Y32.4059
G01 X50.2569 Y32.4386
G01 X50.2576 Y32.4525
G01 X50.2576 Y40.0878
G01 X50.2872 Y40.2366
G01 X50.3453 Y40.3768
G01 X50.4296 Y40.5030
G01 X50.5370 Y40.6104
G01 X50.6631 Y40.6947
G01 X50.8034 Y40.7528
G01 X50.9522 Y40.7824
G01 X57.1850 Y40.7824
G01 X57.2004 Y40.7837
G01 X57.2155 Y40.7868
G01 X57.2856 Y40.8074
G01 X57.3003 Y40.8127
G01 X57.3116 Y40.8182
G01 X57.3197 Y40.8230
G01 X57.3463 Y40.8419
G01 X57.4825 Y40.9113
G01 X57.6277 Y40.9585
G01 X57.7786 Y40.9824
G01 X58.7314 Y40.9824
G01 X58.8823 Y40.9585
G01 X59.0275 Y40.9113
G01 X59.1637 Y40.8419
G01 X59.2872 Y40.7521
G01 X59.3953 Y40.6441
G01 X59.4850 Y40.5205
G01 X59.5544 Y40.3844
G01 X59.6016 Y40.2391
G01 X59.6255 Y40.0883
G01 X59.6255 Y39.9355
G01 X59.6016 Y39.7846
G01 X59.5544 Y39.6393
G01 X59.4850 Y39.5032
G01 X59.3953 Y39.3796
G01 X59.2872 Y39.2716
G01 X59.1637 Y39.1818
G01 X59.0275 Y39.1125
G01 X58.8823 Y39.0653
G01 X58.7314 Y39.0414
G01 X57.7786 Y39.0414
G01 X57.6277 Y39.0653
G01 X57.4825 Y39.1125
G01 X57.3463 Y39.1818
G01 X57.3235 Y39.1981
G01 X57.3154 Y39.2027
G01 X57.3071 Y39.2067
G01 X57.2984 Y39.2101
G01 X57.2326 Y39.2336
G01 X57.2236 Y39.2365
G01 X57.2145 Y39.2386
G01 X57.2052 Y39.2402
G01 X57.1958 Y39.2410
G01 X57.1856 Y39.2413
G01 X52.0526 Y39.2414
G01 X52.0372 Y39.2405
G01 X52.0220 Y39.2377
G01 X51.9490 Y39.2164
G01 X51.9398 Y39.2134
G01 X51.9251 Y39.2067
G01 X51.9139 Y39.2002
G01 X51.9011 Y39.1905
G01 X51.8917 Y39.1816
G01 X51.8395 Y39.1215
G01 X51.8317 Y39.1111
G01 X51.8236 Y39.0971
G01 X51.8172 Y39.0821
G01 X51.8135 Y39.0697
G01 X51.8010 Y39.0120
G01 X51.7995 Y39.0028
G01 X51.7987 Y38.9905
G01 X51.7986 Y31.9522
G01 X51.7690 Y31.8034
G01 X51.7109 Y31.6632
G01 X51.6266 Y31.5370
G01 X49.4912 Y29.4015
G01 X49.3650 Y29.3172
G01 X49.2247 Y29.2591
G01 X49.0759 Y29.2295
G01 X38.4644 Y29.2295
G01 X38.4520 Y29.2289
G01 X38.4428 Y29.2277
G01 X38.4307 Y29.2251
G01 X38.3607 Y29.2045
G01 X38.3457 Y29.1991
G01 X38.3343 Y29.1935
G01 X38.3234 Y29.1868
G01 X38.3158 Y29.1810
G01 X38.2898 Y29.1599
G01 X37.5312 Y28.4015
G01 X37.4050 Y28.3172
G01 X37.2647 Y28.2591
G01 X37.1159 Y28.2295
G01 X17.4244 Y28.2295
G01 X17.4151 Y28.2292
G01 X17.4059 Y28.2282
G01 X17.3967 Y28.2265
G01 X17.3877 Y28.2242
G01 X17.3207 Y28.2045
G01 X17.3057 Y28.1991
G01 X17.2943 Y28.1935
G01 X17.2808 Y28.1849
G01 X17.2551 Y28.1644
G01 X17.2473 Y28.1575
G01 X15.8427 Y26.7530
G01 X15.8327 Y26.7412
G01 X15.8242 Y26.7283
G01 X15.7877 Y26.6615
G01 X15.7813 Y26.6469
G01 X15.7775 Y26.6347
G01 X15.7749 Y26.6222
G01 X15.7712 Y26.5895
G01 X15.7705 Y26.5756
G01 X15.7705 Y25.0608
G01 X15.7714 Y25.0453
G01 X15.7728 Y25.0362
G01 X15.7749 Y25.0271
G01 X15.7964 Y24.9540
G01 X15.7996 Y24.9450
G01 X15.8035 Y24.9363
G01 X15.8115 Y24.9225
G01 X15.8190 Y24.9121
G01 X15.8356 Y24.8915
G01 X15.8425 Y24.8836
G01 X15.9309 Y24.7951
G01 X16.0439 Y24.6397
G00 Z2.0000
G00 X16.3463 Y23.7808
G01 F60.00
G01 Z-0.0800
G01 F120.00
G01 X16.3340 Y23.8633
G01 X16.3318 Y23.8810
G01 X16.3305 Y23.8988
G01 X16.3264 Y23.9821
G01 X16.3261 Y24.0089
G01 X16.3305 Y24.1012
G01 X16.3328 Y24.1279
G01 X16.3477 Y24.2281
G01 X16.3512 Y24.2456
G01 X16.3590 Y24.2772
G01 X16.3403 Y24.2733
G01 X16.3134 Y24.2695
G01 X16.2864 Y24.2676
G01 X16.2683 Y24.2675
G01 X16.2412 Y24.2691
G01 X16.2233 Y24.2712
G01 X16.2055 Y24.2742
G01 X16.1803 Y24.2800
G01 X16.1888 Y24.2456
G01 X16.1923 Y24.2281
G01 X16.2072 Y24.1279
G01 X16.2095 Y24.1012
G01 X16.2136 Y24.0179
G01 X16.2140 Y24.0000
G01 X16.2136 Y23.9821
G01 X16.2095 Y23.8988
G01 X16.2072 Y23.8721
G01 X16.1923 Y23.7719
G01 X16.1888 Y23.7544
G01 X16.1810 Y23.7228
G01 X16.1997 Y23.7267
G01 X16.2266 Y23.7305
G01 X16.2446 Y23.7320
G01 X16.2717 Y23.7325
G01 X16.2988 Y23.7309
G01 X16.3167 Y23.7288
G01 X16.3345 Y23.7258
G01 X16.3597 Y23.7200
G01 X16.3513 Y23.7540
G01 X16.3463 Y23.7808
G00 Z2.0000
G00 X16.5777 Y23.8151
G01 F60.00
G01 Z-0.0800
G01 F120.00
G01 X16.5802 Y23.8026
G01 X16.6022 Y23.7155
G01 X16.6346 Y23.6250
G01 X16.6757 Y23.5380
G01 X16.7252 Y23.4555
G01 X16.7824 Y23.3783
G01 X16.8470 Y23.3070
G01 X16.9183 Y23.2424
G01 X16.9929 Y23.1870
G01 X17.0093 Y23.1767
G01 X17.0098 Y21.4568
G01 X17.0119 Y21.4144
G01 X17.0131 Y21.4017
G01 X17.0200 Y21.3566
G01 X17.0309 Y21.3122
G01 X17.0346 Y21.3000
G01 X17.0502 Y21.2571
G01 X17.0698 Y21.2152
G01 X17.0756 Y21.2045
G01 X17.0992 Y21.1654
G01 X17.1262 Y21.1287
G01 X17.1343 Y21.1188
G01 X17.1651 Y21.0851
G01 X19.1274 Y19.1229
G01 X19.1636 Y19.0901
G01 X19.2002 Y19.0628
G01 X19.2108 Y19.0557
G01 X19.2501 Y19.0324
G01 X19.2971 Y19.0102
G01 X19.3400 Y18.9946
G01 X19.3522 Y18.9909
G01 X19.3903 Y18.9814
G01 X19.4028 Y18.9789
G01 X19.4480 Y18.9724
G01 X19.5000 Y18.9698
G01 X47.5000 Y18.9698
G01 X47.5456 Y18.9719
G01 X47.5583 Y18.9731
G01 X47.6034 Y18.9800
G01 X47.6539 Y18.9926
G01 X47.7029 Y19.0102
G01 X47.7442 Y19.0295
G01 X47.7555 Y19.0356
G01 X47.7892 Y19.0557
G01 X47.7998 Y19.0628
G01 X47.8364 Y19.0901
G01 X47.8703 Y19.1207
G01 X47.8793 Y19.1297
G01 X47.9057 Y19.1588
G01 X47.9138 Y19.1687
G01 X47.9408 Y19.2054
G01 X47.9676 Y19.2501
G01 X47.9898 Y19.2971
G01 X48.0054 Y19.3400
G01 X48.0091 Y19.3522
G01 X48.0186 Y19.3903
G01 X48.0206 Y19.3997
G01 X48.0276 Y19.4480
G01 X48.0302 Y19.5000
G01 X48.0302 Y21.7804
G01 X55.5715 Y29.3217
G01 X57.3540 Y29.3217
G01 X57.3919 Y29.2876
G01 X57.4496 Y29.2448
G01 X57.5109 Y29.2081
G01 X57.5698 Y29.1800
G01 X57.5816 Y29.1752
G01 X57.6370 Y29.1553
G01 X57.6492 Y29.1516
G01 X57.7126 Y29.1359
G01 X57.7803 Y29.1257
G01 X57.7898 Y29.1249
G01 X57.8550 Y29.1219
G01 X58.6550 Y29.1219
G01 X58.7266 Y29.1254
G01 X58.7911 Y29.1348
G01 X58.8036 Y29.1373
G01 X58.8669 Y29.1533
G01 X58.9284 Y29.1752
G01 X58.9402 Y29.1800
G01 X58.9934 Y29.2052
G01 X59.0047 Y29.2112
G01 X59.0606 Y29.2449
G01 X59.1181 Y29.2876
G01 X59.1712 Y29.3357
G01 X59.2151 Y29.3839
G01 X59.2232 Y29.3938
G01 X59.2618 Y29.4461
G01 X59.2988 Y29.5078
G01 X59.3294 Y29.5725
G01 X59.3536 Y29.6400
G01 X59.3710 Y29.7095
G01 X59.3815 Y29.7803
G01 X59.3850 Y29.8519
G01 X59.3820 Y29.9171
G01 X59.3807 Y29.9298
G01 X59.3709 Y29.9946
G01 X59.3536 Y30.0638
G01 X59.3294 Y30.1312
G01 X59.3017 Y30.1903
G01 X59.2957 Y30.2016
G01 X59.2654 Y30.2521
G01 X59.2583 Y30.2627
G01 X59.2193 Y30.3150
G01 X59.1712 Y30.3681
G01 X59.1181 Y30.4162
G01 X59.0606 Y30.4589
G01 X58.9991 Y30.4957
G01 X58.9402 Y30.5237
G01 X58.9284 Y30.5286
G01 X58.8730 Y30.5484
G01 X58.8608 Y30.5521
G01 X58.7974 Y30.5679
G01 X58.7329 Y30.5776
G01 X58.7234 Y30.5786
G01 X58.6550 Y30.5819
G01 X57.8550 Y30.5819
G01 X57.7898 Y30.5788
G01 X57.7771 Y30.5776
G01 X57.7123 Y30.5678
G01 X57.6492 Y30.5521
G01 X57.6370 Y30.5484
G01 X57.5816 Y30.5286
G01 X57.5698 Y30.5237
G01 X57.5109 Y30.4957
G01 X57.4494 Y30.4589
G01 X57.3919 Y30.4162
G01 X57.3540 Y30.3821
G01 X55.3519 Y30.3821
G01 X55.3031 Y30.3798
G01 X55.2936 Y30.3787
G01 X55.2547 Y30.3730
G01 X55.2422 Y30.3705
G01 X55.1980 Y30.3592
G01 X55.1490 Y30.3417
G01 X55.1076 Y30.3223
G01 X55.0964 Y30.3163
G01 X55.0573 Y30.2927
G01 X55.0180 Y30.2637
G01 X55.0107 Y30.2576
G01 X54.9770 Y30.2268
G01 X47.1251 Y22.3749
G01 X47.0943 Y22.3412
G01 X47.0882 Y22.3339
G01 X47.0592 Y22.2946
G01 X47.0356 Y22.2555
G01 X47.0295 Y22.2442
G01 X47.0102 Y22.2029
G01 X46.9926 Y22.1539
G01 X46.9814 Y22.1097
G01 X46.9789 Y22.0972
G01 X46.9731 Y22.0583
G01 X46.9719 Y22.0456
G01 X46.9698 Y22.0000
G01 X46.9698 Y20.0302
G01 X19.7196 Y20.0302
G01 X18.0702 Y21.6796
G01 X18.0702 Y23.1764
G01 X18.0871 Y23.1870
G01 X18.1617 Y23.2424
G01 X18.2330 Y23.3070
G01 X18.2976 Y23.3783
G01 X18.3512 Y23.4503
G01 X18.3583 Y23.4609
G01 X18.4043 Y23.5380
G01 X18.4428 Y23.6191
G01 X18.4477 Y23.6309
G01 X18.4758 Y23.7095
G01 X18.4795 Y23.7217
G01 X18.5012 Y23.8088
G01 X18.5145 Y23.8976
G01 X18.5156 Y23.9071
G01 X18.5200 Y24.0000
G01 X18.5153 Y24.0961
G01 X18.5012 Y24.1912
G01 X18.4778 Y24.2845
G01 X18.4454 Y24.3750
G01 X18.4043 Y24.4620
G01 X18.3548 Y24.5445
G01 X18.2976 Y24.6217
G01 X18.2330 Y24.6930
G01 X18.1665 Y24.7534
G01 X18.1567 Y24.7615
G01 X18.0897 Y24.8112
G01 X18.0791 Y24.8183
G01 X18.0020 Y24.8643
G01 X17.9150 Y24.9054
G01 X17.8242 Y24.9379
G01 X17.7374 Y24.9598
G01 X17.7249 Y24.9623
G01 X17.6424 Y24.9745
G01 X17.6297 Y24.9758
G01 X17.5400 Y24.9800
G01 X17.4439 Y24.9753
G01 X17.3488 Y24.9612
G01 X17.2617 Y24.9395
G01 X17.2495 Y24.9358
G01 X17.1709 Y24.9077
G01 X17.1591 Y24.9028
G01 X17.0780 Y24.8643
G01 X16.9955 Y24.8148
G01 X16.9183 Y24.7576
G01 X16.8517 Y24.6974
G01 X16.8426 Y24.6883
G01 X16.7866 Y24.6265
G01 X16.7785 Y24.6167
G01 X16.7252 Y24.5445
G01 X16.6757 Y24.4620
G01 X16.6346 Y24.3750
G01 X16.6040 Y24.2900
G01 X16.6005 Y24.2783
G01 X16.5802 Y24.1974
G01 X16.5777 Y24.1849
G01 X16.5647 Y24.0961
G01 X16.5600 Y24.0000
G01 X16.5647 Y23.9039
G01 X16.5777 Y23.8151
G00 Z2.0000
G00 X18.7203 Y24.2800
G01 F60.00
G01 Z-0.0800
G01 F120.00
G01 X18.7288 Y24.2456
G01 X18.7323 Y24.2281
G01 X18.7472 Y24.1279
G01 X18.7495 Y24.1012
G01 X18.7536 Y24.0179
G01 X18.7540 Y24.0000
G01 X18.7536 Y23.9821
G01 X18.7495 Y23.8988
G01 X18.7472 Y23.8721
G01 X18.7323 Y23.7719
G01 X18.7288 Y23.7544
G01 X18.7210 Y23.7228
G01 X18.7397 Y23.7267
G01 X18.7666 Y23.7305
G01 X18.7846 Y23.7320
G01 X18.8117 Y23.7325
G01 X18.8298 Y23.7317
G01 X18.8567 Y23.7288
G01 X18.8745 Y23.7258
G01 X18.8997 Y23.7200
G01 X18.8913 Y23.7540
G01 X18.8879 Y23.7707
G01 X18.8728 Y23.8721
G01 X18.8705 Y23.8988
G01 X18.8664 Y23.9821
G01 X18.8660 Y24.0000
G01 X18.8664 Y24.0179
G01 X18.8705 Y24.1012
G01 X18.8728 Y24.1279
G01 X18.8877 Y24.2281
G01 X18.8912 Y24.2456
G01 X18.8990 Y24.2772
G01 X18.8803 Y24.2733
G01 X18.8534 Y24.2695
G01 X18.8354 Y24.2680
G01 X18.8083 Y24.2675
G01 X18.7812 Y24.2691
G01 X18.7633 Y24.2712
G01 X18.7455 Y24.2742
G01 X18.7203 Y24.2800
G00 Z2.0000
G00 X19.1177 Y23.8151
G01 F60.00
G01 Z-0.0800
G01 F120.00
G01 X19.1202 Y23.8026
G01 X19.1405 Y23.7217
G01 X19.1442 Y23.7095
G01 X19.1746 Y23.6250
G01 X19.2128 Y23.5437
G01 X19.2189 Y23.5325
G01 X19.2652 Y23.4555
G01 X19.3224 Y23.3783
G01 X19.3870 Y23.3070
G01 X19.4583 Y23.2424
G01 X19.5355 Y23.1852
G01 X19.6125 Y23.1389
G01 X19.6237 Y23.1328
G01 X19.6991 Y23.0972
G01 X19.7109 Y23.0923
G01 X19.7955 Y23.0622
G01 X19.8888 Y23.0388
G01 X19.9839 Y23.0247
G01 X20.0800 Y23.0200
G01 X20.1761 Y23.0247
G01 X20.2655 Y23.0378
G01 X20.2774 Y23.0402
G01 X20.3645 Y23.0622
G01 X20.4491 Y23.0923
G01 X20.4609 Y23.0972
G01 X20.5420 Y23.1357
G01 X20.6191 Y23.1817
G01 X20.6297 Y23.1888
G01 X20.7017 Y23.2424
G01 X20.7683 Y23.3026
G01 X20.7774 Y23.3117
G01 X20.8376 Y23.3783
G01 X20.8930 Y23.4529
G01 X20.9033 Y23.4693
G01 X46.5000 Y23.4698
G01 X46.5520 Y23.4724
G01 X46.6034 Y23.4800
G01 X46.6539 Y23.4926
G01 X46.6969 Y23.5079
G01 X46.7087 Y23.5127
G01 X46.7442 Y23.5295
G01 X46.7555 Y23.5356
G01 X46.7946 Y23.5592
G01 X46.8313 Y23.5862
G01 X46.8388 Y23.5922
G01 X46.8749 Y23.6251
G01 X54.8749 Y31.6251
G01 X54.9099 Y31.6636
G01 X54.9372 Y31.7002
G01 X54.9443 Y31.7108
G01 X54.9676 Y31.7501
G01 X54.9873 Y31.7913
G01 X54.9921 Y31.8031
G01 X55.0074 Y31.8461
G01 X55.0186 Y31.8903
G01 X55.0211 Y31.9028
G01 X55.0276 Y31.9480
G01 X55.0302 Y31.9968
G01 X55.0302 Y36.9417
G01 X57.3540 Y36.9417
G01 X57.3919 Y36.9076
G01 X57.4446 Y36.8683
G01 X57.4548 Y36.8615
G01 X57.5053 Y36.8312
G01 X57.5137 Y36.8266
G01 X57.5756 Y36.7974
G01 X57.6370 Y36.7753
G01 X57.6492 Y36.7716
G01 X57.7064 Y36.7573
G01 X57.7189 Y36.7548
G01 X57.7834 Y36.7454
G01 X57.8518 Y36.7419
G01 X58.6550 Y36.7419
G01 X58.7266 Y36.7454
G01 X58.7974 Y36.7559
G01 X58.8669 Y36.7733
G01 X58.9314 Y36.7963
G01 X58.9402 Y36.8000
G01 X58.9991 Y36.8281
G01 X59.0579 Y36.8632
G01 X59.0658 Y36.8686
G01 X59.1181 Y36.9076
G01 X59.1560 Y36.9417
G01 X60.9719 Y36.9417
G01 X61.0175 Y36.9438
G01 X61.0270 Y36.9446
G01 X61.0753 Y36.9519
G01 X61.1196 Y36.9628
G01 X61.1318 Y36.9665
G01 X61.1748 Y36.9820
G01 X61.2218 Y37.0043
G01 X61.2611 Y37.0276
G01 X61.2717 Y37.0347
G01 X61.3032 Y37.0581
G01 X61.3131 Y37.0662
G01 X61.3468 Y37.0970
G01 X61.8793 Y37.6297
G01 X61.9099 Y37.6636
G01 X61.9408 Y37.7054
G01 X61.9676 Y37.7501
G01 X61.9898 Y37.7971
G01 X62.0074 Y37.8461
G01 X62.0200 Y37.8966
G01 X62.0276 Y37.9480
G01 X62.0302 Y38.0000
G01 X62.0302 Y59.5000
G01 X62.0276 Y59.5520
G01 X62.0200 Y59.6034
G01 X62.0074 Y59.6539
G01 X61.9921 Y59.6969
G01 X61.9873 Y59.7087
G01 X61.9705 Y59.7442
G01 X61.9644 Y59.7555
G01 X61.9408 Y59.7946
G01 X61.9138 Y59.8313
G01 X61.9078 Y59.8388
G01 X61.8749 Y59.8749
G01 X61.8412 Y59.9057
G01 X61.8313 Y59.9138
G01 X61.7946 Y59.9408
G01 X61.7499 Y59.9676
G01 X61.7087 Y59.9873
G01 X61.6969 Y59.9921
G01 X61.6600 Y60.0054
G01 X61.6508 Y60.0083
G01 X61.6034 Y60.0200
G01 X61.5583 Y60.0269
G01 X61.5456 Y60.0281
G01 X61.5000 Y60.0302
G01 X61.2196 Y60.0302
G01 X60.3749 Y60.8749
G01 X60.3388 Y60.9078
G01 X60.3313 Y60.9138
G01 X60.2998 Y60.9372
G01 X60.2892 Y60.9443
G01 X60.2499 Y60.9676
G01 X60.2029 Y60.9898
G01 X60.1600 Y61.0054
G01 X60.1478 Y61.0091
G01 X60.1034 Y61.0200
G01 X60.0551 Y61.0273
G01 X60.0456 Y61.0281
G01 X60.0000 Y61.0302
G01 X53.5000 Y61.0302
G01 X53.4480 Y61.0276
G01 X53.3966 Y61.0200
G01 X53.3461 Y61.0074
G01 X53.2971 Y60.9898
G01 X53.2498 Y60.9675
G01 X53.2054 Y60.9408
G01 X53.1636 Y60.9099
G01 X53.1251 Y60.8749
G01 X45.6251 Y53.3749
G01 X45.5901 Y53.3364
G01 X45.5592 Y53.2946
G01 X45.5324 Y53.2499
G01 X45.5114 Y53.2058
G01 X45.5079 Y53.1969
G01 X45.4946 Y53.1600
G01 X45.4909 Y53.1478
G01 X45.4800 Y53.1034
G01 X45.4731 Y53.0583
G01 X45.4719 Y53.0456
G01 X45.4698 Y53.0000
G01 X45.4719 Y52.9544
G01 X45.4731 Y52.9417
G01 X45.4800 Y52.8966
G01 X45.4909 Y52.8522
G01 X45.4946 Y52.8400
G01 X45.5102 Y52.7971
G01 X45.5297 Y52.7554
G01 X45.5356 Y52.7445
G01 X45.5592 Y52.7054
G01 X45.5898 Y52.6641
G01 X45.5898 Y33.8236
G01 X45.5729 Y33.8130
G01 X45.4983 Y33.7576
G01 X45.4317 Y33.6974
G01 X45.4226 Y33.6883
G01 X45.3624 Y33.6217
G01 X45.3088 Y33.5497
G01 X45.3017 Y33.5391
G01 X45.2557 Y33.4620
G01 X45.2172 Y33.3809
G01 X45.2123 Y33.3691
G01 X45.1821 Y33.2842
G01 X45.1602 Y33.1974
G01 X45.1577 Y33.1849
G01 X45.1447 Y33.0961
G01 X45.1402 Y33.0064
G01 X45.1400 Y32.9968
G01 X45.1447 Y32.9039
G01 X45.1589 Y32.8085
G01 X45.1822 Y32.7155
G01 X45.2146 Y32.6250
G01 X45.2557 Y32.5380
G01 X45.3052 Y32.4555
G01 X45.3624 Y32.3783
G01 X45.4270 Y32.3070
G01 X45.4983 Y32.2424
G01 X45.5755 Y32.1852
G01 X45.6580 Y32.1357
G01 X45.7450 Y32.0946
G01 X45.8358 Y32.0621
G01 X45.9288 Y32.0388
G01 X46.0239 Y32.0247
G01 X46.1136 Y32.0202
G01 X46.1232 Y32.0200
G01 X46.2161 Y32.0247
G01 X46.3115 Y32.0389
G01 X46.4045 Y32.0622
G01 X46.4950 Y32.0946
G01 X46.5820 Y32.1357
G01 X46.6645 Y32.1852
G01 X46.7417 Y32.2424
G01 X46.8130 Y32.3070
G01 X46.8776 Y32.3783
G01 X46.9348 Y32.4555
G01 X46.9843 Y32.5380
G01 X47.0254 Y32.6250
G01 X47.0578 Y32.7155
G01 X47.0812 Y32.8088
G01 X47.0953 Y32.9039
G01 X47.1000 Y32.9968
G01 X47.0998 Y33.0064
G01 X47.0953 Y33.0961
G01 X47.0823 Y33.1849
G01 X47.0798 Y33.1974
G01 X47.0578 Y33.2845
G01 X47.0277 Y33.3691
G01 X47.0228 Y33.3809
G01 X46.9843 Y33.4620
G01 X46.9383 Y33.5391
G01 X46.9312 Y33.5497
G01 X46.8776 Y33.6217
G01 X46.8174 Y33.6883
G01 X46.8083 Y33.6974
G01 X46.7417 Y33.7576
G01 X46.6671 Y33.8130
G01 X46.6507 Y33.8233
G01 X46.6502 Y52.8800
G01 X46.6494 Y52.8996
G01 X53.7196 Y59.9698
G01 X59.7804 Y59.9698
G01 X60.6251 Y59.1251
G01 X60.6636 Y59.0901
G01 X60.7054 Y59.0592
G01 X60.7445 Y59.0356
G01 X60.7558 Y59.0295
G01 X60.7913 Y59.0127
G01 X60.8001 Y59.0090
G01 X60.8461 Y58.9926
G01 X60.8934 Y58.9806
G01 X60.9028 Y58.9789
G01 X60.9449 Y58.9727
G01 X60.9698 Y58.9711
G01 X60.9698 Y38.2196
G01 X60.7523 Y38.0021
G01 X59.1560 Y38.0021
G01 X59.1181 Y38.0362
G01 X59.0632 Y38.0770
G01 X59.0552 Y38.0823
G01 X59.0047 Y38.1125
G01 X58.9963 Y38.1172
G01 X58.9344 Y38.1463
G01 X58.8730 Y38.1684
G01 X58.8608 Y38.1721
G01 X58.8036 Y38.1865
G01 X58.7911 Y38.1889
G01 X58.7266 Y38.1984
G01 X58.6582 Y38.2018
G01 X57.8518 Y38.2018
G01 X57.7839 Y38.1984
G01 X57.7123 Y38.1878
G01 X57.6431 Y38.1704
G01 X57.5756 Y38.1463
G01 X57.5109 Y38.1157
G01 X57.4494 Y38.0789
G01 X57.3919 Y38.0362
G01 X57.3540 Y38.0021
G01 X54.6692 Y38.0021
G01 X54.6508 Y38.0083
G01 X54.6097 Y38.0186
G01 X54.5972 Y38.0211
G01 X54.5520 Y38.0276
G01 X54.5064 Y38.0300
G01 X54.4936 Y38.0300
G01 X54.4480 Y38.0276
G01 X54.3966 Y38.0200
G01 X54.3461 Y38.0074
G01 X54.2971 Y37.9898
G01 X54.2498 Y37.9675
G01 X54.2054 Y37.9408
G01 X54.1636 Y37.9099
G01 X54.1274 Y37.8771
G01 X54.1207 Y37.8703
G01 X54.0901 Y37.8364
G01 X54.0592 Y37.7946
G01 X54.0324 Y37.7499
G01 X54.0102 Y37.7029
G01 X53.9926 Y37.6539
G01 X53.9800 Y37.6034
G01 X53.9724 Y37.5520
G01 X53.9698 Y37.5032
G01 X53.9698 Y32.2196
G01 X46.2804 Y24.5302
G01 X20.9036 Y24.5302
G01 X20.8930 Y24.5471
G01 X20.8376 Y24.6217
G01 X20.7774 Y24.6883
G01 X20.7683 Y24.6974
G01 X20.7017 Y24.7576
G01 X20.6297 Y24.8112
G01 X20.6191 Y24.8183
G01 X20.5420 Y24.8643
G01 X20.4609 Y24.9028
G01 X20.4491 Y24.9077
G01 X20.3642 Y24.9379
G01 X20.2774 Y24.9598
G01 X20.2649 Y24.9623
G01 X20.1761 Y24.9753
G01 X20.0864 Y24.9798
G01 X20.0768 Y24.9800
G01 X19.9839 Y24.9753
G01 X19.8951 Y24.9623
G01 X19.8826 Y24.9598
G01 X19.7955 Y24.9378
G01 X19.7109 Y24.9077
G01 X19.6991 Y24.9028
G01 X19.6237 Y24.8672
G01 X19.6125 Y24.8611
G01 X19.5355 Y24.8148
G01 X19.4583 Y24.7576
G01 X19.3870 Y24.6930
G01 X19.3224 Y24.6217
G01 X19.2652 Y24.5445
G01 X19.2157 Y24.4620
G01 X19.1746 Y24.3750
G01 X19.1440 Y24.2900
G01 X19.1405 Y24.2783
G01 X19.1188 Y24.1912
G01 X19.1055 Y24.1024
G01 X19.1042 Y24.0897
G01 X19.1002 Y24.0064
G01 X19.1002 Y23.9936
G01 X19.1047 Y23.9039
G01 X19.1177 Y23.8151
G00 Z2.0000
G00 X11.9089 Y22.9115
G01 F60.00
G01 Z-0.0800
G01 F120.00
G01 X11.9917 Y22.8694
G01 X12.1743 Y22.8100
G01 X12.3640 Y22.7800
G01 X12.5560 Y22.7800
G01 X12.7457 Y22.8100
G01 X12.9283 Y22.8694
G01 X13.0111 Y22.9115
G01 X12.8300 Y23.0926
G01 X12.7445 Y23.0622
G01 X12.6515 Y23.0389
G01 X12.5561 Y23.0247
G01 X12.4600 Y23.0200
G01 X12.3639 Y23.0247
G01 X12.2688 Y23.0388
G01 X12.1755 Y23.0622
G01 X12.0900 Y23.0926
G01 X11.9089 Y22.9115
G00 Z2.0000
G00 X6.1634 Y24.9274
G01 F60.00
G01 Z-0.0800
G01 F120.00
G01 X6.1595 Y24.8909
G01 X6.1595 Y23.1091
G01 X6.1634 Y23.0726
G01 X6.2015 Y22.9706
G01 X6.2653 Y22.8853
G01 X6.3506 Y22.8215
G01 X6.4486 Y22.7848
G01 X6.4655 Y22.7774
G01 X6.4740 Y22.7728
G01 X6.4820 Y22.7675
G01 X6.4921 Y22.7596
G01 X6.5449 Y22.7138
G01 X6.5565 Y22.7025
G01 X6.5665 Y22.6899
G01 X6.5733 Y22.6790
G01 X6.5791 Y22.6674
G01 X6.5836 Y22.6553
G01 X6.6058 Y22.5792
G01 X6.6086 Y22.5640
G01 X6.6095 Y22.5517
G01 X6.6095 Y21.5441
G01 X6.6391 Y21.3953
G01 X6.6972 Y21.2550
G01 X6.7815 Y21.1288
G01 X7.5088 Y20.4015
G01 X7.6350 Y20.3172
G01 X7.7753 Y20.2591
G01 X7.9241 Y20.2295
G01 X9.9626 Y20.2293
G01 X9.9959 Y20.2259
G01 X10.0054 Y20.2245
G01 X10.0178 Y20.2216
G01 X10.0299 Y20.2175
G01 X10.0443 Y20.2108
G01 X10.1083 Y20.1758
G01 X10.1187 Y20.1691
G01 X10.1285 Y20.1614
G01 X10.1352 Y20.1551
G01 X22.8888 Y7.4015
G01 X23.0150 Y7.3172
G01 X23.1553 Y7.2591
G01 X23.3041 Y7.2295
G01 X79.0217 Y7.2294
G01 X79.0309 Y7.2286
G01 X79.0401 Y7.2272
G01 X79.0978 Y7.2146
G01 X79.1133 Y7.2098
G01 X79.1281 Y7.2031
G01 X79.1419 Y7.1945
G01 X79.1521 Y7.1865
G01 X79.2074 Y7.1386
G01 X79.2165 Y7.1295
G01 X79.2246 Y7.1195
G01 X79.2300 Y7.1115
G01 X79.2349 Y7.1031
G01 X79.2391 Y7.0943
G01 X79.2426 Y7.0853
G01 X79.2642 Y7.0121
G01 X79.2672 Y7.0001
G01 X79.2686 Y6.9909
G01 X79.2694 Y6.9817
G01 X79.2694 Y6.9468
G01 X79.2689 Y6.9347
G01 X79.2680 Y6.9252
G01 X79.2664 Y6.9157
G01 X79.2640 Y6.9063
G01 X79.2610 Y6.8972
G01 X79.2366 Y6.8317
G01 X79.2315 Y6.8198
G01 X79.2252 Y6.8086
G01 X79.2179 Y6.7979
G01 X79.2095 Y6.7881
G01 X79.2002 Y6.7791
G01 X79.1927 Y6.7731
G01 X79.1367 Y6.7312
G01 X79.1286 Y6.7256
G01 X79.1200 Y6.7206
G01 X79.1111 Y6.7162
G01 X79.1050 Y6.7137
G01 X79.0106 Y6.6785
G01 X78.9253 Y6.6147
G01 X78.8615 Y6.5294
G01 X78.8234 Y6.4274
G01 X78.8195 Y6.3909
G01 X78.8195 Y6.3709
G01 X78.8186 Y6.3586
G01 X78.8172 Y6.3494
G01 X78.8137 Y6.3333
G01 X78.8098 Y6.3193
G01 X78.8064 Y6.3103
G01 X78.8008 Y6.2986
G01 X78.7673 Y6.2373
G01 X78.7591 Y6.2242
G01 X78.7514 Y6.2145
G01 X78.7451 Y6.2077
G01 X78.4074 Y5.8700
G01 X78.4378 Y5.7845
G01 X78.4612 Y5.6912
G01 X78.4753 Y5.5961
G01 X78.4800 Y5.5000
G01 X78.4753 Y5.4039
G01 X78.4612 Y5.3088
G01 X78.4378 Y5.2155
G01 X78.4074 Y5.1300
G01 X78.7451 Y4.7923
G01 X78.7534 Y4.7832
G01 X78.7710 Y4.7613
G01 X78.7768 Y4.7536
G01 X78.7835 Y4.7428
G01 X78.7891 Y4.7313
G01 X78.7926 Y4.7224
G01 X78.7969 Y4.7085
G01 X78.8049 Y4.6930
G01 X78.8085 Y4.6845
G01 X78.8114 Y4.6757
G01 X78.8165 Y4.6537
G01 X78.8186 Y4.6414
G01 X78.8195 Y4.6291
G01 X78.8195 Y4.6091
G01 X78.8234 Y4.5726
G01 X78.8615 Y4.4706
G01 X78.9253 Y4.3853
G01 X79.0106 Y4.3215
G01 X79.1126 Y4.2834
G01 X79.1491 Y4.2795
G01 X80.9309 Y4.2795
G01 X80.9674 Y4.2834
G01 X81.0694 Y4.3215
G01 X81.1547 Y4.3853
G01 X81.2185 Y4.4706
G01 X81.2566 Y4.5726
G01 X81.2605 Y4.6091
G01 X81.2605 Y6.3909
G01 X81.2566 Y6.4274
G01 X81.2185 Y6.5294
G01 X81.1547 Y6.6147
G01 X81.0694 Y6.6785
G01 X80.9714 Y6.7152
G01 X80.9545 Y6.7226
G01 X80.9460 Y6.7272
G01 X80.9380 Y6.7325
G01 X80.9279 Y6.7404
G01 X80.8751 Y6.7862
G01 X80.8635 Y6.7975
G01 X80.8554 Y6.8075
G01 X80.8467 Y6.8210
G01 X80.8409 Y6.8326
G01 X80.8364 Y6.8447
G01 X80.8142 Y6.9208
G01 X80.8114 Y6.9360
G01 X80.8105 Y6.9514
G01 X80.8105 Y7.6191
G01 X80.8112 Y7.6295
G01 X80.8141 Y7.6559
G01 X80.8161 Y7.6685
G01 X80.8203 Y7.6839
G01 X80.8263 Y7.6986
G01 X80.8658 Y7.7710
G01 X80.8746 Y7.7837
G01 X80.8849 Y7.7952
G01 X84.1036 Y11.0139
G01 X84.1139 Y11.0232
G01 X84.1397 Y11.0438
G01 X84.1503 Y11.0507
G01 X84.1616 Y11.0567
G01 X84.1765 Y11.0624
G01 X84.2525 Y11.0847
G01 X84.2678 Y11.0874
G01 X84.2832 Y11.0883
G01 X108.4880 Y11.0883
G01 X108.5019 Y11.0880
G01 X108.5113 Y11.0871
G01 X108.5206 Y11.0856
G01 X108.5298 Y11.0834
G01 X108.5387 Y11.0806
G01 X108.6045 Y11.0571
G01 X108.6188 Y11.0510
G01 X108.6269 Y11.0466
G01 X108.6373 Y11.0398
G01 X108.7702 Y10.9433
G01 X108.9203 Y10.8668
G01 X109.0806 Y10.8147
G01 X109.2470 Y10.7883
G01 X109.4155 Y10.7883
G01 X109.5819 Y10.8147
G01 X109.7422 Y10.8668
G01 X109.8923 Y10.9433
G01 X110.0286 Y11.0423
G01 X110.1478 Y11.1615
G01 X110.2468 Y11.2978
G01 X110.3233 Y11.4479
G01 X110.3754 Y11.6082
G01 X110.4017 Y11.7746
G01 X110.4017 Y11.9431
G01 X110.3754 Y12.1095
G01 X110.3233 Y12.2698
G01 X110.2468 Y12.4199
G01 X110.1478 Y12.5562
G01 X110.0286 Y12.6754
G01 X109.8923 Y12.7744
G01 X109.7422 Y12.8509
G01 X109.5819 Y12.9030
G01 X109.4155 Y12.9293
G01 X109.2470 Y12.9293
G01 X109.0806 Y12.9030
G01 X108.9203 Y12.8509
G01 X108.7702 Y12.7744
G01 X108.6373 Y12.6778
G01 X108.6231 Y12.6683
G01 X108.6093 Y12.6609
G01 X108.5947 Y12.6552
G01 X108.5216 Y12.6338
G01 X108.5065 Y12.6307
G01 X108.4911 Y12.6294
G01 X105.5183 Y12.6295
G01 X105.5091 Y12.6303
G01 X105.4999 Y12.6317
G01 X105.4390 Y12.6451
G01 X105.4297 Y12.6479
G01 X105.4207 Y12.6515
G01 X105.4119 Y12.6558
G01 X105.4008 Y12.6625
G01 X105.3879 Y12.6723
G01 X105.3351 Y12.7180
G01 X105.3235 Y12.7293
G01 X105.3154 Y12.7394
G01 X105.3067 Y12.7529
G01 X105.3009 Y12.7645
G01 X105.2964 Y12.7766
G01 X105.2742 Y12.8527
G01 X105.2714 Y12.8679
G01 X105.2705 Y12.8833
G01 X105.2705 Y25.9755
G01 X105.2714 Y25.9909
G01 X105.2735 Y26.0031
G01 X105.2862 Y26.0610
G01 X105.2902 Y26.0733
G01 X105.2969 Y26.0881
G01 X105.3036 Y26.0992
G01 X105.3114 Y26.1097
G01 X105.3592 Y26.1649
G01 X105.3681 Y26.1743
G01 X105.3779 Y26.1827
G01 X105.3885 Y26.1900
G01 X105.3998 Y26.1963
G01 X105.4117 Y26.2015
G01 X105.4208 Y26.2045
G01 X105.4909 Y26.2251
G01 X105.5060 Y26.2282
G01 X105.5183 Y26.2294
G01 X110.1567 Y26.2295
G01 X110.1707 Y26.2291
G01 X110.1800 Y26.2283
G01 X110.1893 Y26.2268
G01 X110.1985 Y26.2246
G01 X110.2075 Y26.2217
G01 X110.2733 Y26.1983
G01 X110.2847 Y26.1936
G01 X110.2930 Y26.1893
G01 X110.3035 Y26.1828
G01 X110.4389 Y26.0844
G01 X110.5891 Y26.0079
G01 X110.7493 Y25.9559
G01 X110.9157 Y25.9295
G01 X111.0843 Y25.9295
G01 X111.2507 Y25.9559
G01 X111.4109 Y26.0079
G01 X111.5611 Y26.0844
G01 X111.6974 Y26.1835
G01 X111.8165 Y26.3026
G01 X111.9156 Y26.4389
G01 X111.9921 Y26.5891
G01 X112.0441 Y26.7493
G01 X112.0705 Y26.9157
G01 X112.0705 Y27.0843
G01 X112.0441 Y27.2507
G01 X111.9921 Y27.4109
G01 X111.9156 Y27.5611
G01 X111.8165 Y27.6974
G01 X111.6974 Y27.8165
G01 X111.5611 Y27.9156
G01 X111.4109 Y27.9921
G01 X111.2507 Y28.0441
G01 X111.0843 Y28.0705
G01 X110.9157 Y28.0705
G01 X110.7493 Y28.0441
G01 X110.5891 Y27.9921
G01 X110.4389 Y27.9156
G01 X110.3060 Y27.8190
G01 X110.2945 Y27.8111
G01 X110.2837 Y27.8048
G01 X110.2723 Y27.7996
G01 X110.2635 Y27.7964
G01 X110.1934 Y27.7758
G01 X110.1813 Y27.7728
G01 X110.1660 Y27.7708
G01 X110.1567 Y27.7705
G01 X106.5245 Y27.7705
G01 X106.5121 Y27.7711
G01 X106.4999 Y27.7728
G01 X106.4422 Y27.7854
G01 X106.4267 Y27.7902
G01 X106.4177 Y27.7940
G01 X106.4091 Y27.7985
G01 X106.3955 Y27.8074
G01 X106.3879 Y27.8135
G01 X106.3303 Y27.8636
G01 X106.3214 Y27.8729
G01 X106.3117 Y27.8858
G01 X106.3051 Y27.8969
G01 X106.2985 Y27.9117
G01 X106.2955 Y27.9208
G01 X106.2749 Y27.9909
G01 X106.2723 Y28.0029
G01 X106.2706 Y28.0183
G01 X106.2705 Y28.0756
G01 X106.2712 Y28.0895
G01 X106.2741 Y28.1159
G01 X106.2755 Y28.1254
G01 X106.2802 Y28.1451
G01 X106.2843 Y28.1575
G01 X106.2882 Y28.1666
G01 X106.2928 Y28.1753
G01 X106.3102 Y28.2028
G01 X106.3258 Y28.2310
G01 X106.3327 Y28.2412
G01 X106.3406 Y28.2508
G01 X106.5985 Y28.5088
G01 X106.6828 Y28.6350
G01 X106.7229 Y28.7316
G01 X106.7297 Y28.7461
G01 X106.7361 Y28.7568
G01 X106.7455 Y28.7693
G01 X106.7987 Y28.8283
G01 X106.8058 Y28.8349
G01 X106.8133 Y28.8410
G01 X106.8268 Y28.8498
G01 X106.8384 Y28.8556
G01 X106.8535 Y28.8612
G01 X106.9240 Y28.8806
G01 X106.9334 Y28.8828
G01 X106.9462 Y28.8846
G01 X106.9591 Y28.8852
G01 X106.9720 Y28.8845
G01 X106.9847 Y28.8825
G01 X106.9972 Y28.8793
G01 X107.0639 Y28.8584
G01 X107.0755 Y28.8541
G01 X107.0839 Y28.8502
G01 X107.0947 Y28.8441
G01 X107.1350 Y28.8172
G01 X107.2753 Y28.7591
G01 X107.4241 Y28.7295
G01 X112.4817 Y28.7294
G01 X112.4909 Y28.7286
G01 X112.5001 Y28.7272
G01 X112.5578 Y28.7146
G01 X112.5733 Y28.7098
G01 X112.5823 Y28.7060
G01 X112.5909 Y28.7015
G01 X112.6019 Y28.6945
G01 X112.6097 Y28.6886
G01 X112.6674 Y28.6386
G01 X112.6786 Y28.6271
G01 X112.6883 Y28.6142
G01 X112.6933 Y28.6059
G01 X112.6977 Y28.5973
G01 X112.7015 Y28.5883
G01 X112.7045 Y28.5792
G01 X112.7258 Y28.5061
G01 X112.7286 Y28.4909
G01 X112.7295 Y28.4755
G01 X112.7295 Y23.9244
G01 X112.7291 Y23.9139
G01 X112.7259 Y23.8841
G01 X112.7239 Y23.8715
G01 X112.7216 Y23.8622
G01 X112.7187 Y23.8531
G01 X112.7137 Y23.8414
G01 X112.6758 Y23.7717
G01 X112.6691 Y23.7613
G01 X112.6614 Y23.7515
G01 X112.6551 Y23.7448
G01 X112.2093 Y23.2990
G01 X112.1250 Y23.1728
G01 X112.0669 Y23.0325
G01 X112.0373 Y22.8837
G01 X112.0373 Y21.4410
G01 X112.0369 Y21.4271
G01 X112.0361 Y21.4177
G01 X112.0339 Y21.4053
G01 X112.0306 Y21.3932
G01 X112.0050 Y21.3216
G01 X111.9986 Y21.3075
G01 X111.9940 Y21.2994
G01 X111.9888 Y21.2917
G01 X111.8922 Y21.1588
G01 X111.8157 Y21.0087
G01 X111.7637 Y20.8484
G01 X111.7373 Y20.6820
G01 X111.7373 Y20.5135
G01 X111.7637 Y20.3471
G01 X111.8157 Y20.1868
G01 X111.8922 Y20.0367
G01 X111.9913 Y19.9004
G01 X112.1104 Y19.7812
G01 X112.2467 Y19.6822
G01 X112.3969 Y19.6057
G01 X112.5571 Y19.5536
G01 X112.7236 Y19.5273
G01 X112.8921 Y19.5273
G01 X113.0585 Y19.5536
G01 X113.2187 Y19.6057
G01 X113.3689 Y19.6822
G01 X113.5052 Y19.7812
G01 X113.6243 Y19.9004
G01 X113.7234 Y20.0367
G01 X113.7999 Y20.1868
G01 X113.8519 Y20.3471
G01 X113.8783 Y20.5135
G01 X113.8783 Y20.6820
G01 X113.8519 Y20.8484
G01 X113.7999 Y21.0087
G01 X113.7234 Y21.1588
G01 X113.6268 Y21.2917
G01 X113.6189 Y21.3032
G01 X113.6141 Y21.3113
G01 X113.6086 Y21.3226
G01 X113.6042 Y21.3343
G01 X113.5836 Y21.4044
G01 X113.5801 Y21.4195
G01 X113.5786 Y21.4318
G01 X113.5783 Y21.4410
G01 X113.5783 Y22.3834
G01 X113.5791 Y22.3973
G01 X113.5827 Y22.4300
G01 X113.5853 Y22.4425
G01 X113.5881 Y22.4517
G01 X113.5915 Y22.4606
G01 X113.5955 Y22.4693
G01 X113.6320 Y22.5361
G01 X113.6406 Y22.5490
G01 X113.6484 Y22.5586
G01 X114.0985 Y23.0088
G01 X114.1828 Y23.1350
G01 X114.2409 Y23.2753
G01 X114.2705 Y23.4241
G01 X114.2705 Y29.5759
G01 X114.2409 Y29.7247
G01 X114.1828 Y29.8650
G01 X114.0985 Y29.9912
G01 X113.9912 Y30.0985
G01 X113.8650 Y30.1828
G01 X113.7247 Y30.2409
G01 X113.5842 Y30.2688
G01 X113.5753 Y30.2710
G01 X113.5467 Y30.2795
G01 X113.5375 Y30.2829
G01 X113.5285 Y30.2871
G01 X113.5227 Y30.2902
G01 X113.5170 Y30.2936
G01 X113.5089 Y30.2992
G01 X113.4516 Y30.3447
G01 X113.4442 Y30.3510
G01 X113.4374 Y30.3578
G01 X113.4310 Y30.3652
G01 X113.4235 Y30.3756
G01 X113.4185 Y30.3839
G01 X113.4142 Y30.3926
G01 X113.4105 Y30.4015
G01 X113.3869 Y30.4707
G01 X113.3841 Y30.4800
G01 X113.3815 Y30.4926
G01 X113.3801 Y30.5055
G01 X113.3800 Y30.5184
G01 X113.3812 Y30.5312
G01 X113.3837 Y30.5439
G01 X113.4005 Y30.6117
G01 X113.4054 Y30.6271
G01 X113.4106 Y30.6389
G01 X113.4169 Y30.6501
G01 X113.4244 Y30.6607
G01 X113.4329 Y30.6704
G01 X113.4882 Y30.7230
G01 X113.5001 Y30.7329
G01 X113.5077 Y30.7381
G01 X113.5157 Y30.7428
G01 X113.5611 Y30.7660
G01 X113.6974 Y30.8650
G01 X113.8165 Y30.9842
G01 X113.9156 Y31.1205
G01 X113.9685 Y31.2244
G01 X113.9729 Y31.2323
G01 X113.9961 Y31.2659
G01 X114.0018 Y31.2735
G01 X114.0897 Y31.4050
G01 X114.1478 Y31.5453
G01 X114.1813 Y31.7135
G01 X114.1832 Y31.7219
G01 X114.1859 Y31.7311
G01 X114.1893 Y31.7400
G01 X114.1934 Y31.7487
G01 X114.2284 Y31.8128
G01 X114.2331 Y31.8208
G01 X114.2403 Y31.8309
G01 X114.2506 Y31.8425
G01 X114.5632 Y32.1551
G01 X114.5736 Y32.1644
G01 X114.5993 Y32.1849
G01 X114.6072 Y32.1903
G01 X114.6155 Y32.1950
G01 X114.6242 Y32.1991
G01 X114.6361 Y32.2036
G01 X114.7122 Y32.2258
G01 X114.7274 Y32.2286
G01 X114.7428 Y32.2295
G01 X118.4407 Y32.2295
G01 X118.4511 Y32.2291
G01 X118.4809 Y32.2259
G01 X118.4904 Y32.2245
G01 X118.5028 Y32.2216
G01 X118.5119 Y32.2187
G01 X118.5265 Y32.2123
G01 X118.5906 Y32.1773
G01 X118.6012 Y32.1708
G01 X118.6111 Y32.1634
G01 X118.6181 Y32.1573
G01 X118.6300 Y32.1453
G01 X118.7727 Y32.0417
G01 X118.9402 Y31.9563
G01 X118.9512 Y31.9500
G01 X118.9590 Y31.9447
G01 X118.9663 Y31.9387
G01 X119.0160 Y31.8955
G01 X119.0266 Y31.8841
G01 X119.0358 Y31.8714
G01 X119.0420 Y31.8606
G01 X119.0483 Y31.8463
G01 X119.0719 Y31.7772
G01 X119.0754 Y31.7648
G01 X119.0777 Y31.7521
G01 X119.0787 Y31.7393
G01 X119.0785 Y31.7264
G01 X119.0775 Y31.7167
G01 X119.0750 Y31.7041
G01 X119.0574 Y31.6331
G01 X119.0522 Y31.6179
G01 X119.0451 Y31.6034
G01 X119.0363 Y31.5898
G01 X119.0259 Y31.5775
G01 X118.9682 Y31.5229
G01 X118.9611 Y31.5170
G01 X118.9536 Y31.5115
G01 X118.9403 Y31.5037
G01 X118.7727 Y31.4183
G01 X118.6300 Y31.3147
G01 X118.5053 Y31.1900
G01 X118.4017 Y31.0473
G01 X118.3216 Y30.8901
G01 X118.2671 Y30.7224
G01 X118.2395 Y30.5482
G01 X118.2395 Y30.3535
G01 X118.2389 Y30.3440
G01 X118.2376 Y30.3343
G01 X118.2363 Y30.3163
G01 X118.2346 Y30.3039
G01 X118.2325 Y30.2948
G01 X118.2297 Y30.2858
G01 X118.2264 Y30.2771
G01 X118.2224 Y30.2686
G01 X118.1859 Y30.2019
G01 X118.1774 Y30.1889
G01 X118.1695 Y30.1794
G01 X116.1315 Y28.1411
G01 X116.1190 Y28.1295
G01 X116.1067 Y28.1201
G01 X116.0933 Y28.1123
G01 X116.0241 Y28.0795
G01 X116.0097 Y28.0740
G01 X116.0007 Y28.0716
G01 X115.9916 Y28.0698
G01 X115.8293 Y28.0441
G01 X115.6691 Y27.9921
G01 X115.5189 Y27.9156
G01 X115.3826 Y27.8165
G01 X115.2635 Y27.6974
G01 X115.1644 Y27.5611
G01 X115.0879 Y27.4109
G01 X115.0359 Y27.2507
G01 X115.0095 Y27.0843
G01 X115.0095 Y26.9157
G01 X115.0359 Y26.7493
G01 X115.0879 Y26.5891
G01 X115.1644 Y26.4389
G01 X115.2635 Y26.3026
G01 X115.3826 Y26.1835
G01 X115.5189 Y26.0844
G01 X115.6691 Y26.0079
G01 X115.8293 Y25.9559
G01 X115.9957 Y25.9295
G01 X116.1643 Y25.9295
G01 X116.3307 Y25.9559
G01 X116.4909 Y26.0079
G01 X116.6411 Y26.0844
G01 X116.7774 Y26.1835
G01 X116.8965 Y26.3026
G01 X116.9956 Y26.4389
G01 X117.0721 Y26.5891
G01 X117.1241 Y26.7493
G01 X117.1498 Y26.9116
G01 X117.1531 Y26.9283
G01 X117.1576 Y26.9434
G01 X117.1640 Y26.9577
G01 X117.2004 Y27.0245
G01 X117.2090 Y27.0374
G01 X117.2189 Y27.0492
G01 X119.4623 Y29.2926
G01 X119.4724 Y29.3022
G01 X119.4845 Y29.3119
G01 X119.4977 Y29.3200
G01 X119.5668 Y29.3530
G01 X119.5753 Y29.3566
G01 X119.5841 Y29.3597
G01 X119.5930 Y29.3621
G01 X119.6224 Y29.3671
G01 X119.7901 Y29.4216
G01 X119.9473 Y29.5017
G01 X120.0900 Y29.6053
G01 X120.1397 Y29.6551
G01 X120.1474 Y29.6622
G01 X120.1707 Y29.6810
G01 X120.1784 Y29.6868
G01 X120.1892 Y29.6935
G01 X120.2036 Y29.7004
G01 X120.2157 Y29.7045
G01 X120.2887 Y29.7258
G01 X120.3039 Y29.7286
G01 X120.3193 Y29.7295
G01 X126.5486 Y29.7295
G01 X126.5620 Y29.7291
G01 X126.5780 Y29.7275
G01 X126.5875 Y29.7257
G01 X126.5968 Y29.7231
G01 X126.6713 Y29.6954
G01 X126.6802 Y29.6915
G01 X126.6914 Y29.6852
G01 X126.6995 Y29.6798
G01 X126.7095 Y29.6717
G01 X126.7187 Y29.6626
G01 X126.7250 Y29.6552
G01 X126.7688 Y29.5967
G01 X126.7762 Y29.5858
G01 X126.7810 Y29.5771
G01 X126.7863 Y29.5650
G01 X126.8215 Y29.4706
G01 X126.8853 Y29.3853
G01 X126.9706 Y29.3215
G01 X127.0726 Y29.2834
G01 X127.1091 Y29.2795
G01 X128.8909 Y29.2795
G01 X128.9274 Y29.2834
G01 X129.0294 Y29.3215
G01 X129.1147 Y29.3853
G01 X129.1785 Y29.4706
G01 X129.2166 Y29.5726
G01 X129.2205 Y29.6091
G01 X129.2205 Y31.3909
G01 X129.2166 Y31.4274
G01 X129.1785 Y31.5294
G01 X129.1147 Y31.6147
G01 X129.0294 Y31.6785
G01 X128.9274 Y31.7166
G01 X128.8909 Y31.7205
G01 X128.8769 Y31.7209
G01 X128.8439 Y31.7245
G01 X128.8313 Y31.7268
G01 X128.8191 Y31.7303
G01 X128.8101 Y31.7337
G01 X128.7987 Y31.7392
G01 X128.7373 Y31.7727
G01 X128.7242 Y31.7809
G01 X128.7145 Y31.7886
G01 X128.7077 Y31.7949
G01 X128.3700 Y32.1326
G01 X128.2845 Y32.1022
G01 X128.1915 Y32.0789
G01 X128.0961 Y32.0647
G01 X128.0000 Y32.0600
G01 X127.9039 Y32.0647
G01 X127.8088 Y32.0788
G01 X127.7155 Y32.1022
G01 X127.6300 Y32.1326
G01 X127.2923 Y31.7949
G01 X127.2819 Y31.7856
G01 X127.2613 Y31.7690
G01 X127.2536 Y31.7632
G01 X127.2456 Y31.7581
G01 X127.2371 Y31.7535
G01 X127.2224 Y31.7474
G01 X127.1463 Y31.7249
G01 X127.1373 Y31.7229
G01 X127.1281 Y31.7214
G01 X127.1189 Y31.7206
G01 X127.1091 Y31.7205
G01 X127.0726 Y31.7166
G01 X126.9706 Y31.6785
G01 X126.8853 Y31.6147
G01 X126.8215 Y31.5294
G01 X126.7848 Y31.4314
G01 X126.7774 Y31.4145
G01 X126.7711 Y31.4033
G01 X126.7617 Y31.3903
G01 X126.7095 Y31.3303
G01 X126.7001 Y31.3214
G01 X126.6872 Y31.3117
G01 X126.6761 Y31.3051
G01 X126.6644 Y31.2997
G01 X126.6522 Y31.2955
G01 X126.5852 Y31.2758
G01 X126.5732 Y31.2728
G01 X126.5640 Y31.2714
G01 X126.5486 Y31.2705
G01 X120.2333 Y31.2705
G01 X120.2194 Y31.2709
G01 X120.2100 Y31.2717
G01 X120.2007 Y31.2732
G01 X120.1915 Y31.2754
G01 X120.1825 Y31.2783
G01 X120.1167 Y31.3017
G01 X120.1081 Y31.3052
G01 X120.0970 Y31.3107
G01 X120.0865 Y31.3172
G01 X119.9473 Y31.4183
G01 X119.7798 Y31.5037
G01 X119.7688 Y31.5100
G01 X119.7561 Y31.5192
G01 X119.7040 Y31.5645
G01 X119.6954 Y31.5736
G01 X119.6877 Y31.5834
G01 X119.6810 Y31.5939
G01 X119.6766 Y31.6022
G01 X119.6707 Y31.6166
G01 X119.6471 Y31.6858
G01 X119.6433 Y31.7015
G01 X119.6419 Y31.7111
G01 X119.6413 Y31.7207
G01 X119.6418 Y31.7369
G01 X119.6443 Y31.7528
G01 X119.6618 Y31.8238
G01 X119.6666 Y31.8391
G01 X119.6734 Y31.8538
G01 X119.6800 Y31.8649
G01 X119.6877 Y31.8752
G01 X119.6964 Y31.8848
G01 X119.7518 Y31.9371
G01 X119.7589 Y31.9431
G01 X119.7664 Y31.9485
G01 X119.7798 Y31.9563
G01 X119.9473 Y32.0417
G01 X120.0900 Y32.1453
G01 X120.2147 Y32.2700
G01 X120.3183 Y32.4127
G01 X120.3984 Y32.5699
G01 X120.4529 Y32.7376
G01 X120.4805 Y32.9118
G01 X120.4805 Y33.0882
G01 X120.4529 Y33.2624
G01 X120.3984 Y33.4301
G01 X120.3183 Y33.5873
G01 X120.2147 Y33.7300
G01 X120.0900 Y33.8547
G01 X119.9419 Y33.9623
G01 X119.9350 Y33.9679
G01 X119.9120 Y33.9890
G01 X119.9007 Y34.0007
G01 X119.8910 Y34.0137
G01 X119.8845 Y34.0250
G01 X119.8526 Y34.0943
G01 X119.8489 Y34.1033
G01 X119.8443 Y34.1188
G01 X119.8419 Y34.1315
G01 X119.8408 Y34.1475
G01 X119.8414 Y34.1604
G01 X119.8532 Y34.2424
G01 X119.8572 Y34.2580
G01 X119.8606 Y34.2671
G01 X119.8646 Y34.2759
G01 X119.8728 Y34.2898
G01 X119.8825 Y34.3026
G01 X119.9304 Y34.3579
G01 X119.9396 Y34.3670
G01 X119.9470 Y34.3732
G01 X119.9549 Y34.3788
G01 X119.9632 Y34.3838
G01 X119.9718 Y34.3882
G01 X119.9807 Y34.3920
G01 X119.9899 Y34.3950
G01 X120.0599 Y34.4156
G01 X120.0720 Y34.4182
G01 X120.0843 Y34.4197
G01 X120.0936 Y34.4200
G01 X120.1509 Y34.4200
G01 X120.1872 Y34.4239
G01 X120.2892 Y34.4619
G01 X120.3743 Y34.5257
G01 X120.4381 Y34.6109
G01 X120.4761 Y34.7128
G01 X120.4800 Y34.7491
G01 X120.4800 Y35.1600
G01 X120.2400 Y35.1600
G01 X120.2400 Y34.7900
G01 X120.2390 Y34.7741
G01 X120.2361 Y34.7584
G01 X120.2324 Y34.7462
G01 X120.2288 Y34.7373
G01 X120.2246 Y34.7287
G01 X120.2181 Y34.7178
G01 X120.2125 Y34.7100
G01 X120.2063 Y34.7027
G01 X120.1973 Y34.6937
G01 X120.1900 Y34.6875
G01 X120.1822 Y34.6819
G01 X120.1741 Y34.6769
G01 X120.1656 Y34.6725
G01 X120.1538 Y34.6676
G01 X120.1447 Y34.6647
G01 X120.1322 Y34.6619
G01 X120.1196 Y34.6604
G01 X120.1100 Y34.6600
G01 X118.6100 Y34.6600
G01 X118.6004 Y34.6604
G01 X118.5909 Y34.6614
G01 X118.5753 Y34.6647
G01 X118.5603 Y34.6699
G01 X118.5516 Y34.6739
G01 X118.5432 Y34.6785
G01 X118.5351 Y34.6837
G01 X118.5275 Y34.6895
G01 X118.5204 Y34.6958
G01 X118.5137 Y34.7027
G01 X118.5075 Y34.7100
G01 X118.5019 Y34.7178
G01 X118.4939 Y34.7316
G01 X118.4876 Y34.7462
G01 X118.4847 Y34.7553
G01 X118.4825 Y34.7646
G01 X118.4806 Y34.7773
G01 X118.4800 Y34.7900
G01 X118.4800 Y35.1600
G01 X118.2400 Y35.1600
G01 X118.2400 Y34.7491
G01 X118.2439 Y34.7128
G01 X118.2819 Y34.6109
G01 X118.3457 Y34.5257
G01 X118.4309 Y34.4619
G01 X118.5328 Y34.4239
G01 X118.5691 Y34.4200
G01 X118.6264 Y34.4200
G01 X118.6353 Y34.4197
G01 X118.6703 Y34.4160
G01 X118.6885 Y34.4123
G01 X118.7008 Y34.4083
G01 X118.7127 Y34.4030
G01 X118.7464 Y34.3842
G01 X118.7775 Y34.3675
G01 X118.7858 Y34.3624
G01 X118.7986 Y34.3526
G01 X118.8097 Y34.3419
G01 X118.8181 Y34.3321
G01 X118.8272 Y34.3187
G01 X118.8653 Y34.2480
G01 X118.8712 Y34.2330
G01 X118.8738 Y34.2237
G01 X118.8757 Y34.2148
G01 X118.8777 Y34.1988
G01 X118.8777 Y34.1827
G01 X118.8747 Y34.1475
G01 X118.8721 Y34.1090
G01 X118.8701 Y34.0963
G01 X118.8667 Y34.0838
G01 X118.8600 Y34.0664
G01 X118.8556 Y34.0578
G01 X118.8505 Y34.0495
G01 X118.8005 Y33.9831
G01 X118.7898 Y33.9719
G01 X118.7792 Y33.9631
G01 X118.6300 Y33.8547
G01 X118.6144 Y33.8390
G01 X118.6067 Y33.8319
G01 X118.5925 Y33.8209
G01 X118.5823 Y33.8137
G01 X118.5685 Y33.8053
G01 X118.5547 Y33.7990
G01 X118.5474 Y33.7947
G01 X118.5388 Y33.7903
G01 X118.5268 Y33.7856
G01 X118.5113 Y33.7814
G01 X118.5017 Y33.7798
G01 X118.4861 Y33.7784
G01 X118.4713 Y33.7742
G01 X118.4592 Y33.7718
G01 X118.4499 Y33.7708
G01 X118.4407 Y33.7705
G01 X114.2426 Y33.7705
G01 X114.0937 Y33.7409
G01 X113.9535 Y33.6828
G01 X113.8273 Y33.5985
G01 X113.0515 Y32.8227
G01 X113.0390 Y32.8111
G01 X113.0267 Y32.8017
G01 X113.0133 Y32.7938
G01 X112.9469 Y32.7623
G01 X112.9355 Y32.7576
G01 X112.9267 Y32.7547
G01 X112.9116 Y32.7514
G01 X112.7493 Y32.7257
G01 X112.5891 Y32.6736
G01 X112.4389 Y32.5971
G01 X112.4161 Y32.5806
G01 X112.4046 Y32.5727
G01 X112.3966 Y32.5679
G01 X112.3882 Y32.5636
G01 X112.3736 Y32.5579
G01 X112.3035 Y32.5373
G01 X112.2914 Y32.5344
G01 X112.2823 Y32.5330
G01 X112.2668 Y32.5320
G01 X110.2622 Y32.5320
G01 X110.2420 Y32.5329
G01 X110.2265 Y32.5354
G01 X110.2144 Y32.5388
G01 X110.1427 Y32.5644
G01 X110.1287 Y32.5708
G01 X110.1206 Y32.5754
G01 X110.1129 Y32.5806
G01 X109.9800 Y32.6771
G01 X109.8299 Y32.7536
G01 X109.6696 Y32.8057
G01 X109.5032 Y32.8320
G01 X109.3347 Y32.8320
G01 X109.1683 Y32.8057
G01 X109.0080 Y32.7536
G01 X108.8579 Y32.6771
G01 X108.7216 Y32.5781
G01 X108.7041 Y32.5606
G01 X108.6919 Y32.5492
G01 X108.6817 Y32.5411
G01 X108.6736 Y32.5357
G01 X108.6597 Y32.5283
G01 X108.5932 Y32.4979
G01 X108.5780 Y32.4925
G01 X108.5654 Y32.4896
G01 X108.5558 Y32.4882
G01 X108.5430 Y32.4875
G01 X108.5333 Y32.4878
G01 X108.5236 Y32.4888
G01 X108.4481 Y32.4998
G01 X108.4325 Y32.5039
G01 X108.4175 Y32.5099
G01 X108.4034 Y32.5176
G01 X108.3928 Y32.5251
G01 X108.3326 Y32.5771
G01 X108.3235 Y32.5862
G01 X108.3173 Y32.5937
G01 X108.3117 Y32.6016
G01 X108.3051 Y32.6127
G01 X108.3009 Y32.6214
G01 X108.2964 Y32.6335
G01 X108.2749 Y32.7066
G01 X108.2718 Y32.7217
G01 X108.2708 Y32.7310
G01 X108.2705 Y32.7402
G01 X108.2705 Y35.0756
G01 X108.2709 Y35.0861
G01 X108.2741 Y35.1159
G01 X108.2768 Y35.1316
G01 X108.2793 Y35.1408
G01 X108.2825 Y35.1499
G01 X108.2892 Y35.1643
G01 X108.3258 Y35.2310
G01 X108.3327 Y35.2412
G01 X108.3427 Y35.2530
G01 X109.0063 Y35.9167
G01 X109.0167 Y35.9260
G01 X109.0373 Y35.9426
G01 X109.0450 Y35.9483
G01 X109.0530 Y35.9535
G01 X109.0615 Y35.9580
G01 X109.0702 Y35.9619
G01 X109.0792 Y35.9652
G01 X109.1553 Y35.9874
G01 X109.1674 Y35.9897
G01 X109.1828 Y35.9910
G01 X112.1567 Y35.9910
G01 X112.1707 Y35.9907
G01 X112.1800 Y35.9898
G01 X112.1893 Y35.9883
G01 X112.2045 Y35.9843
G01 X112.2762 Y35.9587
G01 X112.2903 Y35.9523
G01 X112.2983 Y35.9477
G01 X112.3060 Y35.9425
G01 X112.4389 Y35.8460
G01 X112.5891 Y35.7695
G01 X112.7493 Y35.7174
G01 X112.9157 Y35.6910
G01 X113.0843 Y35.6910
G01 X113.2507 Y35.7174
G01 X113.4109 Y35.7695
G01 X113.5611 Y35.8460
G01 X113.6974 Y35.9450
G01 X113.8165 Y36.0642
G01 X113.9156 Y36.2005
G01 X113.9921 Y36.3506
G01 X114.0441 Y36.5109
G01 X114.0705 Y36.6773
G01 X114.0705 Y36.8458
G01 X114.0441 Y37.0122
G01 X113.9921 Y37.1725
G01 X113.9156 Y37.3226
G01 X113.8190 Y37.4555
G01 X113.8111 Y37.4670
G01 X113.8048 Y37.4778
G01 X113.7996 Y37.4892
G01 X113.7964 Y37.4981
G01 X113.7758 Y37.5682
G01 X113.7723 Y37.5833
G01 X113.7706 Y37.5986
G01 X113.7705 Y45.5759
G01 X113.7409 Y45.7247
G01 X113.6828 Y45.8650
G01 X113.5985 Y45.9912
G01 X113.4912 Y46.0985
G01 X113.3650 Y46.1828
G01 X113.2247 Y46.2409
G01 X113.0759 Y46.2705
G01 X108.0183 Y46.2706
G01 X108.0091 Y46.2714
G01 X107.9999 Y46.2728
G01 X107.9422 Y46.2854
G01 X107.9297 Y46.2891
G01 X107.9148 Y46.2955
G01 X107.9035 Y46.3018
G01 X107.8903 Y46.3114
G01 X107.8351 Y46.3592
G01 X107.8280 Y46.3658
G01 X107.8193 Y46.3754
G01 X107.8100 Y46.3885
G01 X107.8037 Y46.3998
G01 X107.7974 Y46.4147
G01 X107.7742 Y46.4939
G01 X107.7714 Y46.5091
G01 X107.7705 Y46.5245
G01 X107.7705 Y49.4786
G01 X107.7714 Y49.4909
G01 X107.7728 Y49.5001
G01 X107.7854 Y49.5578
G01 X107.7902 Y49.5733
G01 X107.7955 Y49.5852
G01 X107.8036 Y49.5992
G01 X107.8114 Y49.6097
G01 X107.8592 Y49.6649
G01 X107.8705 Y49.6765
G01 X107.8805 Y49.6846
G01 X107.8913 Y49.6917
G01 X107.9027 Y49.6977
G01 X107.9147 Y49.7026
G01 X107.9939 Y49.7258
G01 X108.0091 Y49.7286
G01 X108.0214 Y49.7295
G01 X110.9959 Y49.7295
G01 X111.1447 Y49.7591
G01 X111.2850 Y49.8172
G01 X111.4112 Y49.9015
G01 X113.4485 Y51.9389
G01 X113.4586 Y51.9484
G01 X113.4708 Y51.9581
G01 X113.4786 Y51.9632
G01 X113.4867 Y51.9677
G01 X113.5559 Y52.0005
G01 X113.5703 Y52.0060
G01 X113.5793 Y52.0084
G01 X113.5884 Y52.0102
G01 X113.7507 Y52.0359
G01 X113.9109 Y52.0879
G01 X114.0611 Y52.1644
G01 X114.1974 Y52.2635
G01 X114.3165 Y52.3826
G01 X114.4156 Y52.5189
G01 X114.4921 Y52.6691
G01 X114.5441 Y52.8293
