(G-CODE GENERATED BY FLATCAM v8.994 - www.flatcam.org - Version Date: 2020/11/7)

(Name: qtkiln-B_Cu.gbr_iso_combined_cnc)
(Type: G-code from Geometry)
(Units: MM)

(Created on Wednesday, 30 April 2025 at 17:54)

(This preprocessor is the default preprocessor used by FlatCAM.)
(It is made to work with MACH3 compatible motion controllers.)

(TOOL DIAMETER: 0.1924 mm)
(Feedrate_XY: 120.0 mm/min)
(Feedrate_Z: 60.0 mm/min)
(Feedrate rapids 1500.0 mm/min)

(Z_Cut: -0.08 mm)
(Z_Move: 2.0 mm)
(Z Start: None mm)
(Z End: 15.0 mm)
(X,Y End: None mm)
(Steps per circle: 64)
(Preprocessor Geometry: default)

(X range:    0.0580 ...  132.4420  mm)
(Y range:    0.0580 ...   66.4420  mm)

(Spindle Speed: 0.0 RPM)
G21
G90
G94

G01 F120.00

M5
G00 Z15.0000
G00 X0.0000 Y0.0000
T1
M6    
(MSG, Change to Tool Dia = 0.1924)
M0
G00 Z15.0000

M03
G01 F120.00
G00 X6.8357 Y21.3409
G01 F60.00
G01 Z-0.0800
G01 F120.00
G01 X6.8406 Y21.3312
G01 X6.8455 Y21.3225
G01 X6.8657 Y21.2889
G01 X6.8742 Y21.2758
G01 X6.9070 Y21.2319
G01 X6.9437 Y21.1911
G01 X7.5711 Y20.5637
G01 X7.6079 Y20.5304
G01 X7.6200 Y20.5207
G01 X7.6601 Y20.4913
G01 X7.7025 Y20.4655
G01 X7.7116 Y20.4604
G01 X7.7209 Y20.4557
G01 X7.7659 Y20.4347
G01 X7.8125 Y20.4178
G01 X7.8274 Y20.4131
G01 X7.8806 Y20.3999
G01 X7.9297 Y20.3924
G01 X7.9400 Y20.3911
G01 X7.9504 Y20.3903
G01 X8.0000 Y20.3882
G01 X10.1266 Y20.3882
G01 X22.9474 Y7.5674
G01 X22.9840 Y7.5338
G01 X22.9919 Y7.5270
G01 X23.0000 Y7.5207
G01 X23.0401 Y7.4913
G01 X23.0825 Y7.4655
G01 X23.0916 Y7.4604
G01 X23.1364 Y7.4389
G01 X23.1459 Y7.4347
G01 X23.1556 Y7.4310
G01 X23.2024 Y7.4145
G01 X23.2556 Y7.4010
G01 X23.2709 Y7.3981
G01 X23.3200 Y7.3911
G01 X23.3304 Y7.3903
G01 X23.3800 Y7.3882
G01 X79.4282 Y7.3882
G01 X79.4282 Y6.5616
G01 X79.1796 Y6.5614
G01 X79.1693 Y6.5606
G01 X79.1589 Y6.5593
G01 X79.1436 Y6.5565
G01 X79.1336 Y6.5540
G01 X79.1236 Y6.5510
G01 X79.1090 Y6.5455
G01 X79.0948 Y6.5390
G01 X79.0857 Y6.5341
G01 X79.0768 Y6.5288
G01 X79.0639 Y6.5200
G01 X79.0518 Y6.5103
G01 X79.0441 Y6.5033
G01 X79.0332 Y6.4921
G01 X79.0232 Y6.4802
G01 X79.0140 Y6.4676
G01 X79.0085 Y6.4588
G01 X79.0010 Y6.4452
G01 X78.9945 Y6.4310
G01 X78.9907 Y6.4213
G01 X78.9860 Y6.4064
G01 X78.9824 Y6.3913
G01 X78.9807 Y6.3811
G01 X78.9789 Y6.3656
G01 X78.9784 Y6.3500
G01 X78.9784 Y4.6500
G01 X78.9786 Y4.6396
G01 X78.9800 Y4.6241
G01 X78.9815 Y4.6138
G01 X78.9847 Y4.5986
G01 X78.9890 Y4.5836
G01 X78.9925 Y4.5738
G01 X78.9965 Y4.5642
G01 X79.0010 Y4.5548
G01 X79.0085 Y4.5412
G01 X79.0140 Y4.5324
G01 X79.0232 Y4.5198
G01 X79.0332 Y4.5079
G01 X79.0403 Y4.5003
G01 X79.0518 Y4.4897
G01 X79.0639 Y4.4800
G01 X79.0724 Y4.4740
G01 X79.0857 Y4.4659
G01 X79.0995 Y4.4587
G01 X79.1090 Y4.4545
G01 X79.1236 Y4.4490
G01 X79.1336 Y4.4460
G01 X79.1487 Y4.4424
G01 X79.1641 Y4.4400
G01 X79.1796 Y4.4386
G01 X79.1900 Y4.4384
G01 X80.8900 Y4.4384
G01 X80.9004 Y4.4386
G01 X80.9107 Y4.4394
G01 X80.9211 Y4.4407
G01 X80.9313 Y4.4424
G01 X80.9464 Y4.4460
G01 X80.9564 Y4.4490
G01 X80.9662 Y4.4525
G01 X80.9805 Y4.4587
G01 X80.9943 Y4.4659
G01 X81.0032 Y4.4712
G01 X81.0119 Y4.4770
G01 X81.0243 Y4.4864
G01 X81.0359 Y4.4967
G01 X81.0468 Y4.5079
G01 X81.0536 Y4.5157
G01 X81.0600 Y4.5239
G01 X81.0688 Y4.5368
G01 X81.0766 Y4.5502
G01 X81.0835 Y4.5642
G01 X81.0875 Y4.5738
G01 X81.0910 Y4.5836
G01 X81.0953 Y4.5986
G01 X81.0985 Y4.6138
G01 X81.1006 Y4.6293
G01 X81.1014 Y4.6396
G01 X81.1016 Y4.6500
G01 X81.1016 Y6.3500
G01 X81.1011 Y6.3656
G01 X81.0993 Y6.3811
G01 X81.0965 Y6.3964
G01 X81.0940 Y6.4064
G01 X81.0893 Y6.4213
G01 X81.0835 Y6.4358
G01 X81.0790 Y6.4452
G01 X81.0715 Y6.4588
G01 X81.0630 Y6.4719
G01 X81.0536 Y6.4843
G01 X81.0433 Y6.4959
G01 X81.0321 Y6.5068
G01 X81.0243 Y6.5136
G01 X81.0119 Y6.5230
G01 X80.9988 Y6.5315
G01 X80.9898 Y6.5366
G01 X80.9758 Y6.5435
G01 X80.9662 Y6.5475
G01 X80.9564 Y6.5510
G01 X80.9464 Y6.5540
G01 X80.9364 Y6.5565
G01 X80.9211 Y6.5593
G01 X80.9107 Y6.5606
G01 X80.9004 Y6.5614
G01 X80.6518 Y6.5616
G01 X80.6518 Y7.7866
G01 X84.0876 Y11.2224
G01 X84.1114 Y11.2482
G01 X84.1412 Y11.2470
G01 X108.6566 Y11.2470
G01 X108.6795 Y11.2217
G01 X108.6903 Y11.2106
G01 X108.7489 Y11.1575
G01 X108.7611 Y11.1477
G01 X108.8205 Y11.1038
G01 X108.8335 Y11.0953
G01 X108.9015 Y11.0548
G01 X108.9776 Y11.0186
G01 X108.9921 Y11.0129
G01 X109.0666 Y10.9865
G01 X109.1433 Y10.9670
G01 X109.1534 Y10.9647
G01 X109.1636 Y10.9629
G01 X109.2419 Y10.9516
G01 X109.2522 Y10.9508
G01 X109.3312 Y10.9472
G01 X109.4102 Y10.9508
G01 X109.4206 Y10.9516
G01 X109.4989 Y10.9629
G01 X109.5091 Y10.9647
G01 X109.5192 Y10.9670
G01 X109.5959 Y10.9865
G01 X109.6704 Y11.0129
G01 X109.6801 Y11.0166
G01 X109.6896 Y11.0208
G01 X109.7517 Y11.0502
G01 X109.7610 Y11.0548
G01 X109.7700 Y11.0600
G01 X109.8377 Y11.1008
G01 X109.9014 Y11.1477
G01 X109.9097 Y11.1543
G01 X109.9683 Y11.2070
G01 X109.9759 Y11.2142
G01 X110.0292 Y11.2726
G01 X110.0392 Y11.2846
G01 X110.0833 Y11.3439
G01 X110.0892 Y11.3524
G01 X110.0948 Y11.3611
G01 X110.1352 Y11.4291
G01 X110.1693 Y11.5005
G01 X110.1735 Y11.5100
G01 X110.1772 Y11.5197
G01 X110.2036 Y11.5942
G01 X110.2231 Y11.6708
G01 X110.2254 Y11.6810
G01 X110.2372 Y11.7592
G01 X110.2385 Y11.7695
G01 X110.2393 Y11.7798
G01 X110.2429 Y11.8588
G01 X110.2393 Y11.9378
G01 X110.2385 Y11.9482
G01 X110.2372 Y11.9585
G01 X110.2254 Y12.0367
G01 X110.2064 Y12.1135
G01 X110.2036 Y12.1235
G01 X110.2004 Y12.1333
G01 X110.1735 Y12.2077
G01 X110.1399 Y12.2793
G01 X110.1352 Y12.2886
G01 X110.1301 Y12.2976
G01 X110.0892 Y12.3653
G01 X110.0423 Y12.4290
G01 X110.0359 Y12.4372
G01 X110.0292 Y12.4450
G01 X109.9759 Y12.5035
G01 X109.9174 Y12.5568
G01 X109.9090 Y12.5640
G01 X109.9014 Y12.5699
G01 X109.8377 Y12.6168
G01 X109.7700 Y12.6577
G01 X109.7610 Y12.6628
G01 X109.7517 Y12.6675
G01 X109.6896 Y12.6969
G01 X109.6801 Y12.7011
G01 X109.6704 Y12.7048
G01 X109.5955 Y12.7313
G01 X109.5192 Y12.7507
G01 X109.5091 Y12.7530
G01 X109.4989 Y12.7547
G01 X109.4206 Y12.7661
G01 X109.3416 Y12.7702
G01 X109.3312 Y12.7705
G01 X109.3209 Y12.7702
G01 X109.2419 Y12.7661
G01 X109.1636 Y12.7547
G01 X109.1534 Y12.7530
G01 X109.1433 Y12.7507
G01 X109.0766 Y12.7340
G01 X109.0617 Y12.7297
G01 X108.9921 Y12.7048
G01 X108.9824 Y12.7011
G01 X108.9729 Y12.6969
G01 X108.9015 Y12.6628
G01 X108.8291 Y12.6197
G01 X108.8163 Y12.6109
G01 X108.7611 Y12.5699
G01 X108.7489 Y12.5602
G01 X108.6903 Y12.5071
G01 X108.6795 Y12.4959
G01 X108.6566 Y12.4707
G01 X105.1118 Y12.4707
G01 X105.1118 Y26.3882
G01 X110.3253 Y26.3882
G01 X110.3482 Y26.3629
G01 X110.3591 Y26.3517
G01 X110.4177 Y26.2986
G01 X110.4299 Y26.2889
G01 X110.4892 Y26.2449
G01 X110.5023 Y26.2364
G01 X110.5703 Y26.1960
G01 X110.6464 Y26.1598
G01 X110.6608 Y26.1540
G01 X110.7354 Y26.1276
G01 X110.8120 Y26.1082
G01 X110.8221 Y26.1059
G01 X110.8324 Y26.1041
G01 X110.9106 Y26.0927
G01 X110.9896 Y26.0886
G01 X111.0000 Y26.0884
G01 X111.0104 Y26.0886
G01 X111.0894 Y26.0927
G01 X111.1676 Y26.1041
G01 X111.1779 Y26.1059
G01 X111.1880 Y26.1082
G01 X111.2646 Y26.1276
G01 X111.3392 Y26.1540
G01 X111.3489 Y26.1578
G01 X111.3584 Y26.1620
G01 X111.4297 Y26.1960
G01 X111.4977 Y26.2364
G01 X111.5065 Y26.2420
G01 X111.5705 Y26.2892
G01 X111.5862 Y26.3021
G01 X111.6446 Y26.3554
G01 X111.6518 Y26.3629
G01 X111.7046 Y26.4216
G01 X111.7520 Y26.4850
G01 X111.7580 Y26.4935
G01 X111.7636 Y26.5023
G01 X111.8040 Y26.5703
G01 X111.8380 Y26.6416
G01 X111.8422 Y26.6511
G01 X111.8460 Y26.6608
G01 X111.8724 Y26.7354
G01 X111.8918 Y26.8120
G01 X111.8941 Y26.8221
G01 X111.8959 Y26.8324
G01 X111.9060 Y26.9003
G01 X111.9073 Y26.9106
G01 X111.9080 Y26.9210
G01 X111.9116 Y27.0000
G01 X111.9080 Y27.0790
G01 X111.9073 Y27.0894
G01 X111.9060 Y27.0997
G01 X111.8941 Y27.1779
G01 X111.8918 Y27.1880
G01 X111.8724 Y27.2646
G01 X111.8460 Y27.3392
G01 X111.8422 Y27.3489
G01 X111.8380 Y27.3584
G01 X111.8040 Y27.4297
G01 X111.7636 Y27.4977
G01 X111.7580 Y27.5065
G01 X111.7111 Y27.5701
G01 X111.7047 Y27.5783
G01 X111.6979 Y27.5862
G01 X111.6446 Y27.6446
G01 X111.5862 Y27.6979
G01 X111.5778 Y27.7052
G01 X111.5701 Y27.7111
G01 X111.5150 Y27.7520
G01 X111.5065 Y27.7580
G01 X111.4977 Y27.7636
G01 X111.4297 Y27.8040
G01 X111.3584 Y27.8380
G01 X111.3489 Y27.8422
G01 X111.2745 Y27.8691
G01 X111.2642 Y27.8725
G01 X111.1880 Y27.8918
G01 X111.1727 Y27.8951
G01 X111.0997 Y27.9060
G01 X111.0894 Y27.9073
G01 X111.0790 Y27.9080
G01 X111.0000 Y27.9116
G01 X110.9210 Y27.9080
G01 X110.9106 Y27.9073
G01 X110.9003 Y27.9060
G01 X110.8221 Y27.8941
G01 X110.7454 Y27.8752
G01 X110.7304 Y27.8708
G01 X110.6608 Y27.8460
G01 X110.6511 Y27.8422
G01 X110.6416 Y27.8380
G01 X110.5703 Y27.8040
G01 X110.4979 Y27.7608
G01 X110.4850 Y27.7520
G01 X110.4299 Y27.7111
G01 X110.4177 Y27.7014
G01 X110.3591 Y27.6483
G01 X110.3482 Y27.6371
G01 X110.3253 Y27.6118
G01 X105.9729 Y27.6118
G01 X105.9793 Y27.6200
G01 X106.0087 Y27.6601
G01 X106.0345 Y27.7025
G01 X106.0396 Y27.7116
G01 X106.0443 Y27.7209
G01 X106.0653 Y27.7659
G01 X106.0822 Y27.8125
G01 X106.0869 Y27.8274
G01 X106.0990 Y27.8756
G01 X106.1019 Y27.8909
G01 X106.1089 Y27.9400
G01 X106.1118 Y27.9948
G01 X106.1118 Y28.2466
G01 X106.4363 Y28.5711
G01 X106.4730 Y28.6119
G01 X106.4793 Y28.6200
G01 X106.5087 Y28.6601
G01 X106.5345 Y28.7025
G01 X106.5396 Y28.7116
G01 X106.5443 Y28.7209
G01 X106.5653 Y28.7659
G01 X106.5822 Y28.8125
G01 X106.5855 Y28.8224
G01 X106.5978 Y28.8705
G01 X106.6001 Y28.8806
G01 X106.6019 Y28.8909
G01 X106.6089 Y28.9400
G01 X106.6116 Y28.9896
G01 X106.6118 Y29.0000
G01 X106.6118 Y42.3882
G01 X110.3253 Y42.3882
G01 X110.3482 Y42.3629
G01 X110.3591 Y42.3517
G01 X110.4177 Y42.2986
G01 X110.4299 Y42.2889
G01 X110.4850 Y42.2480
G01 X110.4979 Y42.2392
G01 X110.5703 Y42.1960
G01 X110.6416 Y42.1620
G01 X110.6511 Y42.1578
G01 X110.6608 Y42.1540
G01 X110.7304 Y42.1292
G01 X110.7454 Y42.1248
G01 X110.8221 Y42.1059
G01 X110.9003 Y42.0940
G01 X110.9106 Y42.0927
G01 X110.9210 Y42.0920
G01 X111.0000 Y42.0884
G01 X111.0790 Y42.0920
G01 X111.0894 Y42.0927
G01 X111.0997 Y42.0940
G01 X111.1676 Y42.1041
G01 X111.1779 Y42.1059
G01 X111.1880 Y42.1082
G01 X111.2646 Y42.1276
G01 X111.3392 Y42.1540
G01 X111.3489 Y42.1578
G01 X111.3584 Y42.1620
G01 X111.4297 Y42.1960
G01 X111.4977 Y42.2364
G01 X111.5065 Y42.2420
G01 X111.5701 Y42.2889
G01 X111.5785 Y42.2954
G01 X111.6371 Y42.3482
G01 X111.6446 Y42.3554
G01 X111.6979 Y42.4138
G01 X111.7047 Y42.4217
G01 X111.7111 Y42.4299
G01 X111.7580 Y42.4935
G01 X111.7636 Y42.5023
G01 X111.8040 Y42.5703
G01 X111.8380 Y42.6416
G01 X111.8422 Y42.6511
G01 X111.8460 Y42.6608
G01 X111.8724 Y42.7354
G01 X111.8918 Y42.8120
G01 X111.8941 Y42.8221
G01 X111.8959 Y42.8324
G01 X111.9073 Y42.9106
G01 X111.9080 Y42.9210
G01 X111.9116 Y43.0000
G01 X111.9080 Y43.0790
G01 X111.9073 Y43.0894
G01 X111.8959 Y43.1676
G01 X111.8941 Y43.1779
G01 X111.8918 Y43.1880
G01 X111.8724 Y43.2646
G01 X111.8460 Y43.3392
G01 X111.8422 Y43.3489
G01 X111.8380 Y43.3584
G01 X111.8087 Y43.4205
G01 X111.8040 Y43.4297
G01 X111.7989 Y43.4388
G01 X111.7580 Y43.5065
G01 X111.7520 Y43.5150
G01 X111.7047 Y43.5783
G01 X111.6979 Y43.5862
G01 X111.6446 Y43.6446
G01 X111.5862 Y43.6979
G01 X111.5778 Y43.7052
G01 X111.5701 Y43.7111
G01 X111.5150 Y43.7520
G01 X111.5065 Y43.7580
G01 X111.4977 Y43.7636
G01 X111.4297 Y43.8040
G01 X111.3584 Y43.8380
G01 X111.3489 Y43.8422
G01 X111.2745 Y43.8691
G01 X111.2642 Y43.8725
G01 X111.1880 Y43.8918
G01 X111.1779 Y43.8941
G01 X111.1676 Y43.8959
G01 X111.0894 Y43.9073
G01 X111.0790 Y43.9080
G01 X111.0000 Y43.9116
G01 X110.9210 Y43.9080
G01 X110.9106 Y43.9073
G01 X110.9003 Y43.9060
G01 X110.8221 Y43.8941
G01 X110.7454 Y43.8752
G01 X110.7354 Y43.8724
G01 X110.7255 Y43.8691
G01 X110.6560 Y43.8442
G01 X110.6416 Y43.8380
G01 X110.5703 Y43.8040
G01 X110.5023 Y43.7636
G01 X110.4892 Y43.7551
G01 X110.4299 Y43.7111
G01 X110.4177 Y43.7014
G01 X110.3591 Y43.6483
G01 X110.3482 Y43.6371
G01 X110.3253 Y43.6118
G01 X106.2534 Y43.6118
G01 X105.9289 Y43.9363
G01 X105.8881 Y43.9730
G01 X105.8442 Y44.0058
G01 X105.8311 Y44.0143
G01 X105.7884 Y44.0396
G01 X105.7436 Y44.0611
G01 X105.7341 Y44.0653
G01 X105.7244 Y44.0690
G01 X105.6776 Y44.0855
G01 X105.6295 Y44.0978
G01 X105.6143 Y44.1010
G01 X105.5651 Y44.1083
G01 X105.5496 Y44.1097
G01 X105.5000 Y44.1118
G01 X102.2534 Y44.1118
G01 X100.8526 Y45.5126
G01 X100.8160 Y45.5462
G01 X100.8081 Y45.5530
G01 X100.8000 Y45.5593
G01 X100.7684 Y45.5827
G01 X100.7556 Y45.5916
G01 X100.7084 Y45.6196
G01 X100.6589 Y45.6432
G01 X100.6444 Y45.6490
G01 X100.6075 Y45.6622
G01 X100.5976 Y45.6655
G01 X100.5876 Y45.6683
G01 X100.5394 Y45.6801
G01 X100.4851 Y45.6883
G01 X100.4696 Y45.6897
G01 X100.4200 Y45.6918
G01 X95.8667 Y45.6918
G01 X95.8207 Y45.7535
G01 X95.7579 Y45.8232
G01 X95.7507 Y45.8307
G01 X95.7432 Y45.8379
G01 X95.6775 Y45.8973
G01 X95.6653 Y45.9070
G01 X95.5898 Y45.9627
G01 X95.5095 Y46.0112
G01 X95.4958 Y46.0187
G01 X95.4158 Y46.0566
G01 X95.4063 Y46.0608
G01 X95.3966 Y46.0646
G01 X95.3078 Y46.0960
G01 X95.2173 Y46.1190
G01 X95.2071 Y46.1212
G01 X95.1969 Y46.1230
G01 X95.1041 Y46.1365
G01 X95.0104 Y46.1414
G01 X95.0000 Y46.1416
G01 X94.9896 Y46.1414
G01 X94.8959 Y46.1365
G01 X94.8031 Y46.1230
G01 X94.7929 Y46.1212
G01 X94.7827 Y46.1190
G01 X94.7018 Y46.0987
G01 X94.6918 Y46.0959
G01 X94.6820 Y46.0927
G01 X94.5937 Y46.0608
G01 X94.5088 Y46.0210
G01 X94.4995 Y46.0163
G01 X94.4905 Y46.0112
G01 X94.4102 Y45.9627
G01 X94.3347 Y45.9070
G01 X94.3265 Y45.9007
G01 X94.3186 Y45.8939
G01 X94.2568 Y45.8379
G01 X94.2493 Y45.8307
G01 X94.2421 Y45.8232
G01 X94.1793 Y45.7535
G01 X94.1730 Y45.7453
G01 X94.1173 Y45.6698
G01 X94.0688 Y45.5895
G01 X94.0637 Y45.5805
G01 X94.0234 Y45.4958
G01 X94.0192 Y45.4863
G01 X94.0154 Y45.4766
G01 X93.9870 Y45.3972
G01 X93.9813 Y45.3782
G01 X93.9588 Y45.2871
G01 X93.9447 Y45.1944
G01 X93.9435 Y45.1841
G01 X93.9427 Y45.1737
G01 X93.9384 Y45.0800
G01 X93.9427 Y44.9863
G01 X93.9435 Y44.9759
G01 X93.9447 Y44.9656
G01 X93.9570 Y44.8831
G01 X93.9589 Y44.8724
G01 X93.9610 Y44.8627
G01 X93.9841 Y44.7718
G01 X94.0154 Y44.6834
G01 X94.0192 Y44.6737
G01 X94.0590 Y44.5888
G01 X94.0637 Y44.5795
G01 X94.1117 Y44.4990
G01 X94.1173 Y44.4902
G01 X94.1233 Y44.4817
G01 X94.1793 Y44.4065
G01 X94.1861 Y44.3986
G01 X94.2493 Y44.3293
G01 X94.3186 Y44.2661
G01 X94.3265 Y44.2593
G01 X94.3347 Y44.2530
G01 X94.4102 Y44.1973
G01 X94.4905 Y44.1488
G01 X94.4995 Y44.1437
G01 X94.5842 Y44.1034
G01 X94.5937 Y44.0992
G01 X94.6034 Y44.0954
G01 X94.6918 Y44.0641
G01 X94.7878 Y44.0398
G01 X94.8031 Y44.0370
G01 X94.8856 Y44.0247
G01 X94.8959 Y44.0235
G01 X94.9063 Y44.0227
G01 X95.0000 Y44.0184
G01 X95.0937 Y44.0227
G01 X95.1041 Y44.0235
G01 X95.1979 Y44.0371
G01 X95.2173 Y44.0410
G01 X95.3082 Y44.0641
G01 X95.4014 Y44.0972
G01 X95.4158 Y44.1034
G01 X95.4912 Y44.1390
G01 X95.5005 Y44.1437
G01 X95.5095 Y44.1488
G01 X95.5898 Y44.1973
G01 X95.6694 Y44.2561
G01 X95.6814 Y44.2661
G01 X95.7432 Y44.3221
G01 X95.7543 Y44.3330
G01 X95.8207 Y44.4065
G01 X95.8664 Y44.4677
G01 X100.1666 Y44.4682
G01 X101.5711 Y43.0637
G01 X101.6079 Y43.0304
G01 X101.6200 Y43.0207
G01 X101.6601 Y42.9913
G01 X101.7025 Y42.9655
G01 X101.7162 Y42.9580
G01 X101.7611 Y42.9368
G01 X101.7756 Y42.9310
G01 X101.8174 Y42.9161
G01 X101.8324 Y42.9117
G01 X101.8705 Y42.9022
G01 X101.8806 Y42.8999
G01 X101.8909 Y42.8981
G01 X101.9400 Y42.8911
G01 X101.9504 Y42.8903
G01 X102.0000 Y42.8882
G01 X105.2466 Y42.8882
G01 X105.3882 Y42.7466
G01 X105.3882 Y29.2534
G01 X105.0602 Y28.9251
G01 X105.0270 Y28.8881
G01 X104.9973 Y28.8484
G01 X104.9913 Y28.8399
G01 X104.9857 Y28.8311
G01 X104.9655 Y28.7975
G01 X104.9580 Y28.7838
G01 X104.9347 Y28.7341
G01 X104.9178 Y28.6875
G01 X104.9145 Y28.6776
G01 X104.9117 Y28.6676
G01 X104.8999 Y28.6194
G01 X104.8917 Y28.5651
G01 X104.8903 Y28.5496
G01 X104.8882 Y28.5000
G01 X104.8882 Y28.2534
G01 X104.0674 Y27.4326
G01 X104.0338 Y27.3960
G01 X104.0270 Y27.3881
G01 X104.0207 Y27.3800
G01 X103.9913 Y27.3399
G01 X103.9655 Y27.2975
G01 X103.9604 Y27.2884
G01 X103.9557 Y27.2791
G01 X103.9347 Y27.2341
G01 X103.9178 Y27.1875
G01 X103.9145 Y27.1776
G01 X103.9022 Y27.1295
G01 X103.8990 Y27.1143
G01 X103.8924 Y27.0703
G01 X103.8911 Y27.0600
G01 X103.8903 Y27.0496
G01 X103.8882 Y27.0000
G01 X103.8882 Y12.4707
G01 X84.7614 Y12.4707
G01 X84.7299 Y12.5228
G01 X84.6888 Y12.5786
G01 X84.6791 Y12.5908
G01 X84.6361 Y12.6383
G01 X84.6289 Y12.6458
G01 X84.6214 Y12.6530
G01 X84.5739 Y12.6959
G01 X84.5617 Y12.7057
G01 X84.5144 Y12.7408
G01 X84.5059 Y12.7467
G01 X84.4971 Y12.7523
G01 X84.4376 Y12.7877
G01 X84.3704 Y12.8197
G01 X84.3559 Y12.8255
G01 X84.2906 Y12.8486
G01 X84.2235 Y12.8656
G01 X84.2133 Y12.8679
G01 X84.2031 Y12.8697
G01 X84.1346 Y12.8796
G01 X84.1242 Y12.8804
G01 X84.0550 Y12.8835
G01 X83.2498 Y12.8835
G01 X83.1762 Y12.8797
G01 X83.1059 Y12.8695
G01 X83.0913 Y12.8668
G01 X83.0294 Y12.8513
G01 X83.0194 Y12.8486
G01 X83.0095 Y12.8453
G01 X82.9444 Y12.8217
G01 X82.8817 Y12.7924
G01 X82.8724 Y12.7877
G01 X82.8634 Y12.7826
G01 X82.8041 Y12.7467
G01 X82.7483 Y12.7057
G01 X82.7401 Y12.6993
G01 X82.7322 Y12.6925
G01 X82.6811 Y12.6458
G01 X82.6344 Y12.5946
G01 X82.6276 Y12.5868
G01 X82.6212 Y12.5786
G01 X82.5801 Y12.5228
G01 X82.5443 Y12.4635
G01 X82.5392 Y12.4545
G01 X82.5345 Y12.4452
G01 X82.5051 Y12.3825
G01 X82.4799 Y12.3124
G01 X82.4755 Y12.2975
G01 X82.4590 Y12.2302
G01 X82.4485 Y12.1617
G01 X82.4473 Y12.1514
G01 X82.4465 Y12.1411
G01 X82.4434 Y12.0719
G01 X82.4465 Y12.0027
G01 X82.4473 Y11.9923
G01 X82.4485 Y11.9820
G01 X82.4572 Y11.9238
G01 X82.4600 Y11.9085
G01 X82.4755 Y11.8463
G01 X82.4783 Y11.8363
G01 X82.4816 Y11.8264
G01 X82.5051 Y11.7613
G01 X82.5368 Y11.6939
G01 X82.5443 Y11.6802
G01 X82.5746 Y11.6297
G01 X82.5831 Y11.6167
G01 X82.6243 Y11.5610
G01 X82.6344 Y11.5491
G01 X82.6579 Y11.5232
G01 X79.7466 Y8.6118
G01 X23.6334 Y8.6118
G01 X10.8126 Y21.4326
G01 X10.7721 Y21.4696
G01 X10.7600 Y21.4793
G01 X10.7284 Y21.5027
G01 X10.7199 Y21.5087
G01 X10.7111 Y21.5143
G01 X10.6684 Y21.5396
G01 X10.6591 Y21.5443
G01 X10.6141 Y21.5653
G01 X10.5675 Y21.5822
G01 X10.5576 Y21.5855
G01 X10.5095 Y21.5978
G01 X10.4943 Y21.6010
G01 X10.4503 Y21.6076
G01 X10.4400 Y21.6089
G01 X10.4296 Y21.6097
G01 X10.3800 Y21.6118
G01 X8.2534 Y21.6118
G01 X7.9918 Y21.8734
G01 X7.9918 Y22.9384
G01 X8.2404 Y22.9386
G01 X8.2559 Y22.9400
G01 X8.2662 Y22.9415
G01 X8.2764 Y22.9435
G01 X8.2914 Y22.9475
G01 X8.3013 Y22.9507
G01 X8.3110 Y22.9545
G01 X8.3252 Y22.9610
G01 X8.3343 Y22.9659
G01 X8.3476 Y22.9740
G01 X8.3561 Y22.9800
G01 X8.3682 Y22.9897
G01 X8.3797 Y23.0003
G01 X8.3868 Y23.0079
G01 X8.3968 Y23.0198
G01 X8.4060 Y23.0324
G01 X8.4115 Y23.0412
G01 X8.4166 Y23.0502
G01 X8.4235 Y23.0642
G01 X8.4293 Y23.0787
G01 X8.4340 Y23.0936
G01 X8.4365 Y23.1036
G01 X8.4393 Y23.1189
G01 X8.4411 Y23.1344
G01 X8.4416 Y23.1500
G01 X8.4416 Y24.8500
G01 X8.4411 Y24.8656
G01 X8.4393 Y24.8811
G01 X8.4376 Y24.8913
G01 X8.4340 Y24.9064
G01 X8.4293 Y24.9213
G01 X8.4235 Y24.9358
G01 X8.4166 Y24.9498
G01 X8.4088 Y24.9632
G01 X8.4000 Y24.9761
G01 X8.3903 Y24.9882
G01 X8.3797 Y24.9997
G01 X8.3682 Y25.0103
G01 X8.3602 Y25.0168
G01 X8.3476 Y25.0260
G01 X8.3343 Y25.0341
G01 X8.3205 Y25.0413
G01 X8.3110 Y25.0455
G01 X8.3013 Y25.0493
G01 X8.2914 Y25.0525
G01 X8.2814 Y25.0553
G01 X8.2662 Y25.0585
G01 X8.2559 Y25.0600
G01 X8.2456 Y25.0611
G01 X8.2300 Y25.0616
G01 X7.9918 Y25.0616
G01 X7.9918 Y28.6266
G01 X11.7534 Y32.3882
G01 X32.3584 Y32.3882
G01 X32.3586 Y32.1396
G01 X32.3600 Y32.1241
G01 X32.3624 Y32.1087
G01 X32.3660 Y32.0936
G01 X32.3707 Y32.0787
G01 X32.3745 Y32.0690
G01 X32.3810 Y32.0548
G01 X32.3859 Y32.0457
G01 X32.3940 Y32.0324
G01 X32.4032 Y32.0198
G01 X32.4132 Y32.0079
G01 X32.4203 Y32.0003
G01 X32.4318 Y31.9897
G01 X32.4398 Y31.9832
G01 X32.4524 Y31.9740
G01 X32.4657 Y31.9659
G01 X32.4748 Y31.9610
G01 X32.4842 Y31.9565
G01 X32.4987 Y31.9507
G01 X32.5136 Y31.9460
G01 X32.5236 Y31.9435
G01 X32.5338 Y31.9415
G01 X32.5441 Y31.9400
G01 X32.5596 Y31.9386
G01 X32.5700 Y31.9384
G01 X34.2700 Y31.9384
G01 X34.2856 Y31.9389
G01 X34.2959 Y31.9400
G01 X34.3062 Y31.9415
G01 X34.3164 Y31.9435
G01 X34.3264 Y31.9460
G01 X34.3413 Y31.9507
G01 X34.3510 Y31.9545
G01 X34.3605 Y31.9587
G01 X34.3698 Y31.9634
G01 X34.3788 Y31.9685
G01 X34.3876 Y31.9740
G01 X34.3961 Y31.9800
G01 X34.4082 Y31.9897
G01 X34.4159 Y31.9967
G01 X34.4233 Y32.0041
G01 X34.4303 Y32.0118
G01 X34.4368 Y32.0198
G01 X34.4430 Y32.0281
G01 X34.4488 Y32.0368
G01 X34.4541 Y32.0457
G01 X34.4590 Y32.0548
G01 X34.4635 Y32.0642
G01 X34.4675 Y32.0738
G01 X34.4710 Y32.0836
G01 X34.4740 Y32.0936
G01 X34.4776 Y32.1087
G01 X34.4793 Y32.1189
G01 X34.4806 Y32.1293
G01 X34.4814 Y32.1396
G01 X34.4816 Y32.1500
G01 X34.4816 Y33.8500
G01 X34.4814 Y33.8604
G01 X34.4806 Y33.8707
G01 X34.4793 Y33.8811
G01 X34.4776 Y33.8913
G01 X34.4740 Y33.9064
G01 X34.4693 Y33.9213
G01 X34.4655 Y33.9310
G01 X34.4613 Y33.9405
G01 X34.4566 Y33.9498
G01 X34.4515 Y33.9588
G01 X34.4430 Y33.9719
G01 X34.4368 Y33.9802
G01 X34.4303 Y33.9882
G01 X34.4197 Y33.9997
G01 X34.4082 Y34.0103
G01 X34.4002 Y34.0168
G01 X34.3919 Y34.0230
G01 X34.3788 Y34.0315
G01 X34.3698 Y34.0366
G01 X34.3605 Y34.0413
G01 X34.3510 Y34.0455
G01 X34.3413 Y34.0493
G01 X34.3264 Y34.0540
G01 X34.3113 Y34.0576
G01 X34.3011 Y34.0593
G01 X34.2907 Y34.0606
G01 X34.2804 Y34.0614
G01 X34.2700 Y34.0616
G01 X32.5700 Y34.0616
G01 X32.5544 Y34.0611
G01 X32.5441 Y34.0600
G01 X32.5338 Y34.0585
G01 X32.5236 Y34.0565
G01 X32.5136 Y34.0540
G01 X32.4987 Y34.0493
G01 X32.4842 Y34.0435
G01 X32.4748 Y34.0390
G01 X32.4612 Y34.0315
G01 X32.4524 Y34.0260
G01 X32.4398 Y34.0168
G01 X32.4318 Y34.0103
G01 X32.4203 Y33.9997
G01 X32.4097 Y33.9882
G01 X32.4032 Y33.9802
G01 X32.3940 Y33.9676
G01 X32.3885 Y33.9588
G01 X32.3810 Y33.9452
G01 X32.3765 Y33.9358
G01 X32.3707 Y33.9213
G01 X32.3660 Y33.9064
G01 X32.3624 Y33.8913
G01 X32.3600 Y33.8759
G01 X32.3586 Y33.8604
G01 X32.3584 Y33.6118
G01 X11.5000 Y33.6118
G01 X11.4504 Y33.6097
G01 X11.4400 Y33.6089
G01 X11.4297 Y33.6076
G01 X11.3806 Y33.6001
G01 X11.3324 Y33.5883
G01 X11.3224 Y33.5855
G01 X11.2756 Y33.5690
G01 X11.2659 Y33.5653
G01 X11.2564 Y33.5611
G01 X11.2116 Y33.5396
G01 X11.2025 Y33.5345
G01 X11.1601 Y33.5087
G01 X11.1200 Y33.4793
G01 X11.1119 Y33.4730
G01 X11.1040 Y33.4662
G01 X11.0674 Y33.4326
G01 X6.9474 Y29.3126
G01 X6.9138 Y29.2760
G01 X6.9070 Y29.2681
G01 X6.9007 Y29.2600
G01 X6.8713 Y29.2199
G01 X6.8455 Y29.1775
G01 X6.8404 Y29.1684
G01 X6.8189 Y29.1236
G01 X6.8147 Y29.1141
G01 X6.8110 Y29.1044
G01 X6.7945 Y29.0576
G01 X6.7917 Y29.0476
G01 X6.7799 Y28.9994
G01 X6.7724 Y28.9503
G01 X6.7711 Y28.9400
G01 X6.7703 Y28.9296
G01 X6.7682 Y28.8800
G01 X6.7682 Y25.0616
G01 X6.5196 Y25.0614
G01 X6.5041 Y25.0600
G01 X6.4887 Y25.0576
G01 X6.4736 Y25.0540
G01 X6.4587 Y25.0493
G01 X6.4442 Y25.0435
G01 X6.4348 Y25.0390
G01 X6.4212 Y25.0315
G01 X6.4124 Y25.0260
G01 X6.3998 Y25.0168
G01 X6.3918 Y25.0103
G01 X6.3803 Y24.9997
G01 X6.3732 Y24.9921
G01 X6.3632 Y24.9802
G01 X6.3570 Y24.9719
G01 X6.3512 Y24.9632
G01 X6.3434 Y24.9498
G01 X6.3365 Y24.9358
G01 X6.3307 Y24.9213
G01 X6.3260 Y24.9064
G01 X6.3235 Y24.8964
G01 X6.3215 Y24.8862
G01 X6.3194 Y24.8707
G01 X6.3186 Y24.8604
G01 X6.3184 Y24.8500
G01 X6.3184 Y23.1500
G01 X6.3189 Y23.1344
G01 X6.3207 Y23.1189
G01 X6.3235 Y23.1036
G01 X6.3275 Y23.0886
G01 X6.3325 Y23.0738
G01 X6.3387 Y23.0595
G01 X6.3434 Y23.0502
G01 X6.3512 Y23.0368
G01 X6.3600 Y23.0239
G01 X6.3697 Y23.0118
G01 X6.3803 Y23.0003
G01 X6.3918 Y22.9897
G01 X6.4039 Y22.9800
G01 X6.4124 Y22.9740
G01 X6.4257 Y22.9659
G01 X6.4395 Y22.9587
G01 X6.4490 Y22.9545
G01 X6.4587 Y22.9507
G01 X6.4736 Y22.9460
G01 X6.4836 Y22.9435
G01 X6.4938 Y22.9415
G01 X6.5041 Y22.9400
G01 X6.5144 Y22.9389
G01 X6.5300 Y22.9384
G01 X6.7682 Y22.9384
G01 X6.7682 Y21.6200
G01 X6.7684 Y21.6096
G01 X6.7707 Y21.5652
G01 X6.7724 Y21.5497
G01 X6.7799 Y21.5006
G01 X6.7917 Y21.4524
G01 X6.7961 Y21.4374
G01 X6.8128 Y21.3907
G01 X6.8189 Y21.3764
G01 X6.8357 Y21.3409
G00 Z2.0000
G00 X6.9401 Y21.3902
G01 F60.00
G01 Z-0.0800
G01 F120.00
G01 X6.9445 Y21.3819
G01 X6.9647 Y21.3482
G01 X6.9700 Y21.3404
G01 X6.9963 Y21.3051
G01 X7.0273 Y21.2707
G01 X7.6507 Y20.6473
G01 X7.6815 Y20.6194
G01 X7.6888 Y20.6134
G01 X7.7242 Y20.5873
G01 X7.7619 Y20.5645
G01 X7.7702 Y20.5601
G01 X7.8100 Y20.5414
G01 X7.8582 Y20.5243
G01 X7.9032 Y20.5131
G01 X7.9467 Y20.5066
G01 X7.9561 Y20.5056
G01 X8.0000 Y20.5036
G01 X10.1744 Y20.5036
G01 X23.0290 Y7.6490
G01 X23.0615 Y7.6194
G01 X23.0688 Y7.6134
G01 X23.1042 Y7.5873
G01 X23.1460 Y7.5622
G01 X23.1857 Y7.5433
G01 X23.1944 Y7.5397
G01 X23.2359 Y7.5250
G01 X23.2808 Y7.5136
G01 X23.3313 Y7.5060
G01 X23.3800 Y7.5036
G01 X79.5436 Y7.5036
G01 X79.5436 Y6.4462
G01 X79.1900 Y6.4462
G01 X79.1829 Y6.4459
G01 X79.1736 Y6.4448
G01 X79.1666 Y6.4433
G01 X79.1598 Y6.4413
G01 X79.1510 Y6.4379
G01 X79.1447 Y6.4348
G01 X79.1385 Y6.4313
G01 X79.1308 Y6.4258
G01 X79.1254 Y6.4213
G01 X79.1203 Y6.4163
G01 X79.1156 Y6.4110
G01 X79.1113 Y6.4054
G01 X79.1063 Y6.3974
G01 X79.1030 Y6.3911
G01 X79.1002 Y6.3846
G01 X79.0979 Y6.3779
G01 X79.0961 Y6.3711
G01 X79.0948 Y6.3641
G01 X79.0941 Y6.3571
G01 X79.0938 Y6.3500
G01 X79.0938 Y4.6500
G01 X79.0945 Y4.6382
G01 X79.0961 Y4.6289
G01 X79.0987 Y4.6198
G01 X79.1030 Y4.6089
G01 X79.1063 Y4.6026
G01 X79.1100 Y4.5966
G01 X79.1142 Y4.5908
G01 X79.1187 Y4.5854
G01 X79.1272 Y4.5772
G01 X79.1327 Y4.5727
G01 X79.1385 Y4.5687
G01 X79.1489 Y4.5630
G01 X79.1554 Y4.5602
G01 X79.1621 Y4.5579
G01 X79.1736 Y4.5552
G01 X79.1806 Y4.5543
G01 X79.1876 Y4.5538
G01 X80.8900 Y4.5538
G01 X80.8994 Y4.5543
G01 X80.9088 Y4.5556
G01 X80.9179 Y4.5579
G01 X80.9246 Y4.5602
G01 X80.9333 Y4.5641
G01 X80.9395 Y4.5675
G01 X80.9454 Y4.5713
G01 X80.9528 Y4.5772
G01 X80.9580 Y4.5820
G01 X80.9628 Y4.5872
G01 X80.9687 Y4.5946
G01 X80.9725 Y4.6005
G01 X80.9759 Y4.6067
G01 X80.9789 Y4.6132
G01 X80.9813 Y4.6198
G01 X80.9839 Y4.6289
G01 X80.9855 Y4.6382
G01 X80.9861 Y4.6453
G01 X80.9862 Y6.3500
G01 X80.9855 Y6.3618
G01 X80.9844 Y6.3688
G01 X80.9827 Y6.3757
G01 X80.9806 Y6.3824
G01 X80.9779 Y6.3890
G01 X80.9748 Y6.3953
G01 X80.9700 Y6.4034
G01 X80.9658 Y6.4092
G01 X80.9613 Y6.4146
G01 X80.9546 Y6.4213
G01 X80.9492 Y6.4258
G01 X80.9434 Y6.4300
G01 X80.9374 Y6.4337
G01 X80.9311 Y6.4370
G01 X80.9246 Y6.4398
G01 X80.9179 Y6.4421
G01 X80.9088 Y6.4444
G01 X80.8994 Y6.4457
G01 X80.8900 Y6.4462
G01 X80.5364 Y6.4462
G01 X80.5364 Y7.8344
G01 X84.0060 Y11.3040
G01 X84.0387 Y11.3401
G01 X84.0606 Y11.3694
G01 X84.0925 Y11.3648
G01 X84.1412 Y11.3624
G01 X108.7092 Y11.3624
G01 X108.7189 Y11.3502
G01 X108.7682 Y11.2958
G01 X108.8261 Y11.2434
G01 X108.8889 Y11.1968
G01 X108.9518 Y11.1590
G01 X108.9601 Y11.1545
G01 X109.0222 Y11.1252
G01 X109.0310 Y11.1215
G01 X109.1001 Y11.0969
G01 X109.1713 Y11.0790
G01 X109.1806 Y11.0771
G01 X109.2532 Y11.0665
G01 X109.3312 Y11.0626
G01 X109.4093 Y11.0665
G01 X109.4819 Y11.0771
G01 X109.4912 Y11.0790
G01 X109.5624 Y11.0969
G01 X109.6315 Y11.1215
G01 X109.6402 Y11.1252
G01 X109.7023 Y11.1545
G01 X109.7107 Y11.1590
G01 X109.7736 Y11.1968
G01 X109.8364 Y11.2434
G01 X109.8942 Y11.2958
G01 X109.9482 Y11.3556
G01 X109.9905 Y11.4126
G01 X109.9958 Y11.4205
G01 X110.0334 Y11.4835
G01 X110.0649 Y11.5498
G01 X110.0685 Y11.5585
G01 X110.0932 Y11.6277
G01 X110.1111 Y11.6989
G01 X110.1129 Y11.7082
G01 X110.1236 Y11.7808
G01 X110.1273 Y11.8541
G01 X110.1273 Y11.8636
G01 X110.1236 Y11.9369
G01 X110.1129 Y12.0095
G01 X110.1111 Y12.0188
G01 X110.0932 Y12.0900
G01 X110.0685 Y12.1591
G01 X110.0649 Y12.1678
G01 X110.0334 Y12.2342
G01 X109.9958 Y12.2972
G01 X109.9905 Y12.3050
G01 X109.9467 Y12.3639
G01 X109.8975 Y12.4184
G01 X109.8908 Y12.4251
G01 X109.8361 Y12.4745
G01 X109.7774 Y12.5181
G01 X109.7696 Y12.5234
G01 X109.7066 Y12.5610
G01 X109.6402 Y12.5925
G01 X109.6315 Y12.5961
G01 X109.5622 Y12.6208
G01 X109.4866 Y12.6397
G01 X109.4140 Y12.6506
G01 X109.4046 Y12.6515
G01 X109.3312 Y12.6550
G01 X109.2532 Y12.6512
G01 X109.1806 Y12.6405
G01 X109.1713 Y12.6387
G01 X109.1001 Y12.6208
G01 X109.0310 Y12.5961
G01 X109.0222 Y12.5925
G01 X108.9601 Y12.5631
G01 X108.9518 Y12.5587
G01 X108.8889 Y12.5209
G01 X108.8299 Y12.4772
G01 X108.8226 Y12.4712
G01 X108.7682 Y12.4218
G01 X108.7189 Y12.3675
G01 X108.7092 Y12.3552
G01 X104.9964 Y12.3552
G01 X104.9964 Y26.5036
G01 X110.3779 Y26.5036
G01 X110.3876 Y26.4913
G01 X110.4370 Y26.4370
G01 X110.4949 Y26.3845
G01 X110.5577 Y26.3380
G01 X110.6206 Y26.3001
G01 X110.6289 Y26.2957
G01 X110.6910 Y26.2663
G01 X110.6997 Y26.2627
G01 X110.7689 Y26.2381
G01 X110.8401 Y26.2201
G01 X110.8493 Y26.2183
G01 X110.9220 Y26.2076
G01 X111.0024 Y26.2038
G01 X111.0780 Y26.2076
G01 X111.1507 Y26.2183
G01 X111.1599 Y26.2201
G01 X111.2311 Y26.2381
G01 X111.3003 Y26.2627
G01 X111.3090 Y26.2663
G01 X111.3753 Y26.2978
G01 X111.4423 Y26.3380
G01 X111.5015 Y26.3817
G01 X111.5087 Y26.3876
G01 X111.5630 Y26.4370
G01 X111.6154 Y26.4948
G01 X111.6593 Y26.5538
G01 X111.6645 Y26.5616
G01 X111.7022 Y26.6247
G01 X111.7356 Y26.6953
G01 X111.7619 Y26.7689
G01 X111.7799 Y26.8401
G01 X111.7817 Y26.8493
G01 X111.7918 Y26.9173
G01 X111.7927 Y26.9267
G01 X111.7962 Y27.0000
G01 X111.7927 Y27.0733
G01 X111.7918 Y27.0827
G01 X111.7809 Y27.1553
G01 X111.7619 Y27.2311
G01 X111.7356 Y27.3047
G01 X111.7043 Y27.3711
G01 X111.6999 Y27.3794
G01 X111.6645 Y27.4384
G01 X111.6593 Y27.4462
G01 X111.6155 Y27.5051
G01 X111.5663 Y27.5596
G01 X111.5596 Y27.5663
G01 X111.5048 Y27.6157
G01 X111.4423 Y27.6620
G01 X111.3753 Y27.7022
G01 X111.3090 Y27.7337
G01 X111.3003 Y27.7373
G01 X111.2309 Y27.7620
G01 X111.1599 Y27.7799
G01 X111.1507 Y27.7817
G01 X111.0804 Y27.7921
G01 X111.0000 Y27.7962
G01 X110.9267 Y27.7927
G01 X110.9173 Y27.7918
G01 X110.8447 Y27.7809
G01 X110.7734 Y27.7632
G01 X110.7644 Y27.7604
G01 X110.6953 Y27.7356
G01 X110.6289 Y27.7043
G01 X110.6206 Y27.6999
G01 X110.5577 Y27.6620
G01 X110.4986 Y27.6184
G01 X110.4913 Y27.6124
G01 X110.4370 Y27.5630
G01 X110.3876 Y27.5087
G01 X110.3779 Y27.4964
G01 X105.6984 Y27.4964
G01 X105.8510 Y27.6490
G01 X105.8837 Y27.6851
G01 X105.9127 Y27.7242
G01 X105.9355 Y27.7619
G01 X105.9399 Y27.7702
G01 X105.9595 Y27.8122
G01 X105.9750 Y27.8559
G01 X105.9858 Y27.8986
G01 X105.9877 Y27.9078
G01 X105.9942 Y27.9537
G01 X105.9964 Y28.0000
G01 X105.9964 Y28.2944
G01 X106.3510 Y28.6490
G01 X106.3806 Y28.6815
G01 X106.3866 Y28.6888
G01 X106.4127 Y28.7242
G01 X106.4355 Y28.7619
G01 X106.4399 Y28.7702
G01 X106.4586 Y28.8100
G01 X106.4750 Y28.8559
G01 X106.4858 Y28.8986
G01 X106.4877 Y28.9078
G01 X106.4934 Y28.9467
G01 X106.4944 Y28.9561
G01 X106.4964 Y29.0000
G01 X106.4964 Y42.5036
G01 X110.3779 Y42.5036
G01 X110.3876 Y42.4913
G01 X110.4370 Y42.4370
G01 X110.4913 Y42.3876
G01 X110.4986 Y42.3816
G01 X110.5577 Y42.3380
G01 X110.6206 Y42.3001
G01 X110.6289 Y42.2957
G01 X110.6953 Y42.2644
G01 X110.7644 Y42.2396
G01 X110.7734 Y42.2368
G01 X110.8447 Y42.2191
G01 X110.9173 Y42.2082
G01 X110.9267 Y42.2073
G01 X111.0000 Y42.2038
G01 X111.0804 Y42.2079
G01 X111.1553 Y42.2191
G01 X111.2311 Y42.2381
G01 X111.3047 Y42.2644
G01 X111.3711 Y42.2957
G01 X111.3794 Y42.3001
G01 X111.4423 Y42.3380
G01 X111.5015 Y42.3817
G01 X111.5087 Y42.3876
G01 X111.5630 Y42.4370
G01 X111.6124 Y42.4913
G01 X111.6184 Y42.4986
G01 X111.6593 Y42.5538
G01 X111.6645 Y42.5616
G01 X111.7022 Y42.6247
G01 X111.7356 Y42.6953
G01 X111.7619 Y42.7689
G01 X111.7809 Y42.8447
G01 X111.7924 Y42.9220
G01 X111.7962 Y43.0000
G01 X111.7924 Y43.0780
G01 X111.7809 Y43.1553
G01 X111.7619 Y43.2311
G01 X111.7373 Y43.3003
G01 X111.7337 Y43.3090
G01 X111.7043 Y43.3711
G01 X111.6999 Y43.3794
G01 X111.6620 Y43.4423
G01 X111.6155 Y43.5051
G01 X111.5630 Y43.5630
G01 X111.5087 Y43.6124
G01 X111.5014 Y43.6184
G01 X111.4462 Y43.6593
G01 X111.4384 Y43.6645
G01 X111.3753 Y43.7022
G01 X111.3047 Y43.7356
G01 X111.2309 Y43.7620
G01 X111.1599 Y43.7799
G01 X111.1507 Y43.7817
G01 X111.0780 Y43.7924
G01 X111.0047 Y43.7961
G01 X110.9953 Y43.7961
G01 X110.9220 Y43.7924
G01 X110.8493 Y43.7817
G01 X110.8401 Y43.7799
G01 X110.7689 Y43.7619
G01 X110.6953 Y43.7356
G01 X110.6289 Y43.7043
G01 X110.6206 Y43.6999
G01 X110.5577 Y43.6620
G01 X110.4986 Y43.6184
G01 X110.4913 Y43.6124
G01 X110.4370 Y43.5630
G01 X110.3876 Y43.5087
G01 X110.3779 Y43.4964
G01 X106.2056 Y43.4964
G01 X105.8510 Y43.8510
G01 X105.8185 Y43.8806
G01 X105.8112 Y43.8866
G01 X105.7758 Y43.9127
G01 X105.7381 Y43.9355
G01 X105.7298 Y43.9399
G01 X105.6900 Y43.9586
G01 X105.6486 Y43.9735
G01 X105.6395 Y43.9763
G01 X105.5968 Y43.9869
G01 X105.5510 Y43.9937
G01 X105.5000 Y43.9964
G01 X102.2056 Y43.9964
G01 X100.7676 Y45.4343
G01 X100.7349 Y45.4637
G01 X100.6958 Y45.4927
G01 X100.6540 Y45.5178
G01 X100.6143 Y45.5367
G01 X100.6056 Y45.5403
G01 X100.5686 Y45.5535
G01 X100.5595 Y45.5563
G01 X100.5168 Y45.5669
G01 X100.4710 Y45.5737
G01 X100.4200 Y45.5764
G01 X95.8044 Y45.5764
G01 X95.7854 Y45.6076
G01 X95.7329 Y45.6784
G01 X95.7283 Y45.6838
G01 X95.6674 Y45.7507
G01 X95.6038 Y45.8083
G01 X95.5965 Y45.8143
G01 X95.5257 Y45.8667
G01 X95.4481 Y45.9133
G01 X95.3621 Y45.9542
G01 X95.2788 Y45.9841
G01 X95.2701 Y45.9867
G01 X95.1846 Y46.0080
G01 X95.0974 Y46.0211
G01 X95.0880 Y46.0220
G01 X94.9976 Y46.0262
G01 X94.9073 Y46.0216
G01 X94.8201 Y46.0088
G01 X94.8108 Y46.0070
G01 X94.7299 Y45.9867
G01 X94.7208 Y45.9840
G01 X94.6379 Y45.9542
G01 X94.5540 Y45.9145
G01 X94.4743 Y45.8667
G01 X94.4035 Y45.8143
G01 X94.3962 Y45.8083
G01 X94.3344 Y45.7523
G01 X94.3277 Y45.7456
G01 X94.2686 Y45.6803
G01 X94.2133 Y45.6057
G01 X94.1655 Y45.5260
G01 X94.1277 Y45.4464
G01 X94.1241 Y45.4377
G01 X94.0959 Y45.3588
G01 X94.0933 Y45.3501
G01 X94.0720 Y45.2646
G01 X94.0589 Y45.1774
G01 X94.0580 Y45.1680
G01 X94.0538 Y45.0800
G01 X94.0580 Y44.9920
G01 X94.0589 Y44.9826
G01 X94.0712 Y44.9001
G01 X94.0730 Y44.8908
G01 X94.0945 Y44.8053
G01 X94.1258 Y44.7179
G01 X94.1655 Y44.6340
G01 X94.2107 Y44.5583
G01 X94.2160 Y44.5505
G01 X94.2686 Y44.4797
G01 X94.3309 Y44.4109
G01 X94.3997 Y44.3486
G01 X94.4743 Y44.2933
G01 X94.5540 Y44.2455
G01 X94.6379 Y44.2058
G01 X94.7253 Y44.1745
G01 X94.8131 Y44.1525
G01 X94.9026 Y44.1389
G01 X94.9120 Y44.1380
G01 X95.0000 Y44.1338
G01 X95.0927 Y44.1384
G01 X95.1848 Y44.1520
G01 X95.2701 Y44.1733
G01 X95.2792 Y44.1760
G01 X95.3643 Y44.2068
G01 X95.4460 Y44.2455
G01 X95.5217 Y44.2907
G01 X95.5295 Y44.2960
G01 X95.6021 Y44.3501
G01 X95.6691 Y44.4109
G01 X95.7299 Y44.4779
G01 X95.7854 Y44.5524
G01 X95.8041 Y44.5831
G01 X100.2144 Y44.5836
G01 X101.6507 Y43.1473
G01 X101.6815 Y43.1194
G01 X101.6888 Y43.1134
G01 X101.7242 Y43.0873
G01 X101.7619 Y43.0645
G01 X101.7702 Y43.0601
G01 X101.8100 Y43.0414
G01 X101.8537 Y43.0257
G01 X101.8986 Y43.0142
G01 X101.9078 Y43.0123
G01 X101.9513 Y43.0060
G01 X102.0000 Y43.0036
G01 X105.2944 Y43.0036
G01 X105.5036 Y42.7944
G01 X105.5036 Y29.2056
G01 X105.1473 Y28.8493
G01 X105.1163 Y28.8149
G01 X105.0900 Y28.7796
G01 X105.0847 Y28.7718
G01 X105.0611 Y28.7319
G01 X105.0414 Y28.6900
G01 X105.0250 Y28.6441
G01 X105.0131 Y28.5968
G01 X105.0060 Y28.5487
G01 X105.0036 Y28.5000
G01 X105.0036 Y28.2056
G01 X104.1490 Y27.3510
G01 X104.1178 Y27.3167
G01 X104.0900 Y27.2796
G01 X104.0847 Y27.2718
G01 X104.0622 Y27.2340
G01 X104.0414 Y27.1900
G01 X104.0250 Y27.1441
G01 X104.0142 Y27.1014
G01 X104.0123 Y27.0922
G01 X104.0066 Y27.0533
G01 X104.0056 Y27.0439
G01 X104.0036 Y27.0000
G01 X104.0036 Y12.3552
G01 X84.6903 Y12.3552
G01 X84.6690 Y12.4001
G01 X84.6364 Y12.4547
G01 X84.6312 Y12.4625
G01 X84.5961 Y12.5098
G01 X84.5901 Y12.5171
G01 X84.5473 Y12.5642
G01 X84.4985 Y12.6085
G01 X84.4418 Y12.6507
G01 X84.3832 Y12.6859
G01 X84.3214 Y12.7151
G01 X84.2616 Y12.7366
G01 X84.2525 Y12.7394
G01 X84.1908 Y12.7547
G01 X84.1279 Y12.7641
G01 X84.1185 Y12.7651
G01 X84.0574 Y12.7681
G01 X83.2526 Y12.7681
G01 X83.1871 Y12.7648
G01 X83.1234 Y12.7554
G01 X83.1146 Y12.7537
G01 X83.0575 Y12.7394
G01 X83.0484 Y12.7366
G01 X82.9886 Y12.7151
G01 X82.9268 Y12.6859
G01 X82.8722 Y12.6533
G01 X82.8644 Y12.6480
G01 X82.8133 Y12.6100
G01 X82.7627 Y12.5642
G01 X82.7168 Y12.5135
G01 X82.6788 Y12.4625
G01 X82.6736 Y12.4547
G01 X82.6410 Y12.4001
G01 X82.6137 Y12.3426
G01 X82.6101 Y12.3339
G01 X82.5888 Y12.2740
G01 X82.5732 Y12.2123
G01 X82.5714 Y12.2030
G01 X82.5627 Y12.1448
G01 X82.5618 Y12.1354
G01 X82.5588 Y12.0719
G01 X82.5622 Y12.0036
G01 X82.5714 Y11.9407
G01 X82.5732 Y11.9315
G01 X82.5888 Y11.8698
G01 X82.6101 Y11.8099
G01 X82.6137 Y11.8011
G01 X82.6389 Y11.7479
G01 X82.6433 Y11.7396
G01 X82.6761 Y11.6851
G01 X82.7139 Y11.6339
G01 X82.7199 Y11.6266
G01 X82.7627 Y11.5796
G01 X82.8115 Y11.5352
G01 X82.8238 Y11.5258
G01 X79.7944 Y8.4964
G01 X23.5856 Y8.4964
G01 X10.7310 Y21.3510
G01 X10.6967 Y21.3822
G01 X10.6558 Y21.4127
G01 X10.6181 Y21.4355
G01 X10.6098 Y21.4399
G01 X10.5743 Y21.4567
G01 X10.5656 Y21.4603
G01 X10.5241 Y21.4750
G01 X10.4768 Y21.4869
G01 X10.4287 Y21.4940
G01 X10.3847 Y21.4963
G01 X8.2056 Y21.4964
G01 X7.8764 Y21.8256
G01 X7.8764 Y23.0538
G01 X8.2300 Y23.0538
G01 X8.2371 Y23.0541
G01 X8.2464 Y23.0552
G01 X8.2557 Y23.0573
G01 X8.2624 Y23.0594
G01 X8.2690 Y23.0621
G01 X8.2753 Y23.0652
G01 X8.2815 Y23.0687
G01 X8.2873 Y23.0727
G01 X8.2928 Y23.0772
G01 X8.2997 Y23.0837
G01 X8.3044 Y23.0890
G01 X8.3087 Y23.0946
G01 X8.3125 Y23.1005
G01 X8.3159 Y23.1067
G01 X8.3198 Y23.1154
G01 X8.3221 Y23.1221
G01 X8.3239 Y23.1289
G01 X8.3252 Y23.1359
G01 X8.3259 Y23.1429
G01 X8.3262 Y23.1500
G01 X8.3262 Y24.8500
G01 X8.3259 Y24.8571
G01 X8.3248 Y24.8664
G01 X8.3233 Y24.8734
G01 X8.3206 Y24.8824
G01 X8.3170 Y24.8911
G01 X8.3137 Y24.8974
G01 X8.3100 Y24.9034
G01 X8.3044 Y24.9110
G01 X8.2980 Y24.9180
G01 X8.2928 Y24.9228
G01 X8.2873 Y24.9273
G01 X8.2795 Y24.9325
G01 X8.2733 Y24.9359
G01 X8.2646 Y24.9398
G01 X8.2579 Y24.9421
G01 X8.2511 Y24.9439
G01 X8.2394 Y24.9457
G01 X8.2300 Y24.9462
G01 X7.8764 Y24.9462
G01 X7.8764 Y28.6744
G01 X11.7056 Y32.5036
G01 X32.4738 Y32.5036
G01 X32.4738 Y32.1500
G01 X32.4741 Y32.1429
G01 X32.4752 Y32.1336
G01 X32.4767 Y32.1266
G01 X32.4787 Y32.1198
G01 X32.4811 Y32.1132
G01 X32.4841 Y32.1067
G01 X32.4875 Y32.1005
G01 X32.4913 Y32.0946
G01 X32.4956 Y32.0890
G01 X32.5003 Y32.0837
G01 X32.5054 Y32.0787
G01 X32.5108 Y32.0742
G01 X32.5166 Y32.0700
G01 X32.5226 Y32.0663
G01 X32.5332 Y32.0611
G01 X32.5398 Y32.0587
G01 X32.5466 Y32.0567
G01 X32.5582 Y32.0545
G01 X32.5700 Y32.0538
G01 X34.2700 Y32.0538
G01 X34.2771 Y32.0541
G01 X34.2864 Y32.0552
G01 X34.2957 Y32.0573
G01 X34.3024 Y32.0594
G01 X34.3111 Y32.0630
G01 X34.3195 Y32.0675
G01 X34.3273 Y32.0727
G01 X34.3328 Y32.0772
G01 X34.3397 Y32.0837
G01 X34.3458 Y32.0908
G01 X34.3513 Y32.0985
G01 X34.3559 Y32.1067
G01 X34.3598 Y32.1154
G01 X34.3627 Y32.1243
G01 X34.3648 Y32.1336
G01 X34.3659 Y32.1429
G01 X34.3662 Y32.1500
G01 X34.3661 Y33.8547
G01 X34.3655 Y33.8618
G01 X34.3639 Y33.8711
G01 X34.3613 Y33.8802
G01 X34.3589 Y33.8868
G01 X34.3559 Y33.8933
G01 X34.3513 Y33.9015
G01 X34.3458 Y33.9092
G01 X34.3397 Y33.9163
G01 X34.3328 Y33.9228
G01 X34.3273 Y33.9273
G01 X34.3195 Y33.9325
G01 X34.3111 Y33.9370
G01 X34.3024 Y33.9406
G01 X34.2957 Y33.9427
G01 X34.2864 Y33.9448
G01 X34.2794 Y33.9457
G01 X34.2700 Y33.9462
G01 X32.5700 Y33.9462
G01 X32.5582 Y33.9455
G01 X32.5466 Y33.9433
G01 X32.5398 Y33.9413
G01 X32.5332 Y33.9389
G01 X32.5267 Y33.9359
G01 X32.5205 Y33.9325
G01 X32.5108 Y33.9258
G01 X32.5054 Y33.9213
G01 X32.5003 Y33.9163
G01 X32.4956 Y33.9110
G01 X32.4913 Y33.9054
G01 X32.4875 Y33.8995
G01 X32.4841 Y33.8933
G01 X32.4811 Y33.8868
G01 X32.4787 Y33.8802
G01 X32.4767 Y33.8734
G01 X32.4752 Y33.8664
G01 X32.4741 Y33.8571
G01 X32.4738 Y33.8500
G01 X32.4738 Y33.4964
G01 X11.5000 Y33.4964
G01 X11.4513 Y33.4940
G01 X11.4032 Y33.4869
G01 X11.3559 Y33.4750
G01 X11.3144 Y33.4603
G01 X11.3057 Y33.4567
G01 X11.2660 Y33.4378
G01 X11.2242 Y33.4127
G01 X11.1851 Y33.3837
G01 X11.1490 Y33.3510
G01 X7.0290 Y29.2310
G01 X6.9963 Y29.1949
G01 X6.9673 Y29.1558
G01 X6.9422 Y29.1140
G01 X6.9233 Y29.0743
G01 X6.9197 Y29.0656
G01 X6.9050 Y29.0241
G01 X6.8931 Y28.9768
G01 X6.8860 Y28.9287
G01 X6.8836 Y28.8800
G01 X6.8836 Y24.9462
G01 X6.5300 Y24.9462
G01 X6.5229 Y24.9459
G01 X6.5136 Y24.9448
G01 X6.5066 Y24.9433
G01 X6.4998 Y24.9413
G01 X6.4932 Y24.9389
G01 X6.4867 Y24.9359
G01 X6.4805 Y24.9325
G01 X6.4746 Y24.9287
G01 X6.4690 Y24.9244
G01 X6.4637 Y24.9197
G01 X6.4587 Y24.9146
G01 X6.4542 Y24.9092
G01 X6.4500 Y24.9034
G01 X6.4463 Y24.8974
G01 X6.4430 Y24.8911
G01 X6.4402 Y24.8846
G01 X6.4367 Y24.8734
G01 X6.4345 Y24.8618
G01 X6.4338 Y24.8500
G01 X6.4338 Y23.1500
G01 X6.4341 Y23.1429
G01 X6.4352 Y23.1336
G01 X6.4367 Y23.1266
G01 X6.4394 Y23.1176
G01 X6.4430 Y23.1089
G01 X6.4463 Y23.1026
G01 X6.4513 Y23.0946
G01 X6.4556 Y23.0890
G01 X6.4620 Y23.0820
G01 X6.4672 Y23.0772
G01 X6.4727 Y23.0727
G01 X6.4805 Y23.0675
G01 X6.4889 Y23.0630
G01 X6.4954 Y23.0602
G01 X6.5021 Y23.0579
G01 X6.5089 Y23.0561
G01 X6.5206 Y23.0543
G01 X6.5300 Y23.0538
G01 X6.8836 Y23.0538
G01 X6.8836 Y21.6176
G01 X6.8860 Y21.5713
G01 X6.8923 Y21.5278
G01 X6.8942 Y21.5186
G01 X6.9050 Y21.4759
G01 X6.9197 Y21.4344
G01 X6.9233 Y21.4257
G01 X6.9401 Y21.3902
G00 Z2.0000
G00 X8.7107 Y23.5462
G01 F60.00
G01 Z-0.0800
G01 F120.00
G01 X8.6864 Y23.6144
G01 X8.6801 Y23.6352
G01 X8.6725 Y23.6650
G01 X8.6725 Y23.5369
G01 X8.6882 Y23.5412
G01 X8.7107 Y23.5462
G00 Z2.0000
G00 X8.7628 Y23.7862
G01 F60.00
G01 Z-0.0800
G01 F120.00
G01 X8.7506 Y23.8687
G01 X8.7486 Y23.8846
G01 X8.7474 Y23.9006
G01 X8.7433 Y23.9840
G01 X8.7429 Y24.0000
G01 X8.7433 Y24.0160
G01 X8.7474 Y24.0994
G01 X8.7486 Y24.1154
G01 X8.7506 Y24.1313
G01 X8.7628 Y24.2138
G01 X8.7655 Y24.2296
G01 X8.7691 Y24.2453
G01 X8.7913 Y24.3337
G01 X8.7982 Y24.3557
G01 X8.8267 Y24.4355
G01 X8.8325 Y24.4504
G01 X8.8390 Y24.4651
G01 X8.8747 Y24.5405
G01 X8.8836 Y24.5579
G01 X8.8596 Y24.5548
G01 X8.8433 Y24.5538
G01 X8.8271 Y24.5535
G01 X8.8109 Y24.5541
G01 X8.7947 Y24.5554
G01 X8.7786 Y24.5576
G01 X8.7547 Y24.5623
G01 X8.7390 Y24.5665
G01 X8.7158 Y24.5741
G01 X8.6504 Y24.5985
G01 X8.6279 Y24.6079
G01 X8.6133 Y24.6150
G01 X8.5921 Y24.6271
G01 X8.5719 Y24.6407
G01 X8.5571 Y24.6523
G01 X8.5571 Y23.3419
G01 X8.6062 Y23.3786
G01 X8.6197 Y23.3876
G01 X8.6336 Y23.3960
G01 X8.6479 Y23.4037
G01 X8.6626 Y23.4107
G01 X8.6776 Y23.4169
G01 X8.7006 Y23.4249
G01 X8.7162 Y23.4292
G01 X8.7321 Y23.4328
G01 X8.7481 Y23.4355
G01 X8.7642 Y23.4375
G01 X8.8501 Y23.4436
G01 X8.8664 Y23.4440
G01 X8.8828 Y23.4435
G01 X8.8747 Y23.4595
G01 X8.8390 Y23.5349
G01 X8.8325 Y23.5496
G01 X8.8267 Y23.5645
G01 X8.7986 Y23.6431
G01 X8.7914 Y23.6660
G01 X8.7691 Y23.7547
G01 X8.7657 Y23.7696
G01 X8.7628 Y23.7862
G00 Z2.0000
G00 X8.8770 Y23.8031
G01 F60.00
G01 Z-0.0800
G01 F120.00
G01 X8.8789 Y23.7924
G01 X8.8810 Y23.7827
G01 X8.9041 Y23.6918
G01 X8.9354 Y23.6034
G01 X8.9392 Y23.5937
G01 X8.9790 Y23.5088
G01 X8.9837 Y23.4995
G01 X8.9888 Y23.4905
G01 X9.0373 Y23.4102
G01 X9.0930 Y23.3347
G01 X9.0993 Y23.3265
G01 X9.1061 Y23.3186
G01 X9.1693 Y23.2493
G01 X9.2386 Y23.1861
G01 X9.2465 Y23.1793
G01 X9.2547 Y23.1730
G01 X9.3302 Y23.1173
G01 X9.4105 Y23.0688
G01 X9.4195 Y23.0637
G01 X9.5042 Y23.0234
G01 X9.5137 Y23.0192
G01 X9.5234 Y23.0154
G01 X9.6118 Y22.9841
G01 X9.7027 Y22.9610
G01 X9.7129 Y22.9588
G01 X9.7231 Y22.9570
G01 X9.8159 Y22.9435
G01 X9.8263 Y22.9427
G01 X9.9200 Y22.9384
G01 X10.0137 Y22.9427
G01 X10.0241 Y22.9435
G01 X10.1169 Y22.9570
G01 X10.1276 Y22.9589
G01 X10.2182 Y22.9813
G01 X10.2282 Y22.9841
G01 X10.3166 Y23.0154
G01 X10.3263 Y23.0192
G01 X10.3358 Y23.0234
G01 X10.4205 Y23.0637
G01 X10.4295 Y23.0688
G01 X10.5098 Y23.1173
G01 X10.5853 Y23.1730
G01 X10.5935 Y23.1793
G01 X10.6014 Y23.1861
G01 X10.6707 Y23.2493
G01 X10.7339 Y23.3186
G01 X10.7407 Y23.3265
G01 X10.7470 Y23.3347
G01 X10.8027 Y23.4102
G01 X10.8512 Y23.4905
G01 X10.8563 Y23.4995
G01 X10.8966 Y23.5842
G01 X10.9008 Y23.5937
G01 X10.9046 Y23.6034
G01 X10.9359 Y23.6918
G01 X10.9387 Y23.7018
G01 X10.9611 Y23.7923
G01 X10.9630 Y23.8031
G01 X10.9765 Y23.8959
G01 X10.9773 Y23.9063
G01 X10.9816 Y24.0000
G01 X10.9773 Y24.0937
G01 X10.9765 Y24.1041
G01 X10.9630 Y24.1969
G01 X10.9612 Y24.2071
G01 X10.9590 Y24.2173
G01 X10.9359 Y24.3082
G01 X10.9046 Y24.3966
G01 X10.9008 Y24.4063
G01 X10.8966 Y24.4158
G01 X10.8563 Y24.5005
G01 X10.8512 Y24.5095
G01 X10.8027 Y24.5898
G01 X10.7470 Y24.6653
G01 X10.7407 Y24.6735
G01 X10.7339 Y24.6814
G01 X10.6707 Y24.7507
G01 X10.6014 Y24.8139
G01 X10.5935 Y24.8207
G01 X10.5853 Y24.8270
G01 X10.5098 Y24.8827
G01 X10.4295 Y24.9312
G01 X10.4205 Y24.9363
G01 X10.3358 Y24.9766
G01 X10.3263 Y24.9808
G01 X10.2380 Y25.0127
G01 X10.2278 Y25.0160
G01 X10.1373 Y25.0390
G01 X10.1271 Y25.0412
G01 X10.0344 Y25.0553
G01 X10.0241 Y25.0565
G01 X10.0137 Y25.0573
G01 X9.9200 Y25.0616
G01 X9.8263 Y25.0573
G01 X9.8159 Y25.0565
G01 X9.8056 Y25.0553
G01 X9.7129 Y25.0412
G01 X9.6218 Y25.0187
G01 X9.6118 Y25.0159
G01 X9.5234 Y24.9846
G01 X9.5137 Y24.9808
G01 X9.4288 Y24.9410
G01 X9.4195 Y24.9363
G01 X9.4105 Y24.9312
G01 X9.3302 Y24.8827
G01 X9.2547 Y24.8270
G01 X9.2465 Y24.8207
G01 X9.2386 Y24.8139
G01 X9.1693 Y24.7507
G01 X9.1061 Y24.6814
G01 X9.0993 Y24.6735
G01 X9.0930 Y24.6653
G01 X9.0373 Y24.5898
G01 X8.9888 Y24.5095
G01 X8.9837 Y24.5005
G01 X8.9434 Y24.4158
G01 X8.9392 Y24.4063
G01 X8.9073 Y24.3180
G01 X8.9040 Y24.3078
G01 X8.8810 Y24.2173
G01 X8.8788 Y24.2071
G01 X8.8647 Y24.1144
G01 X8.8635 Y24.1041
G01 X8.8627 Y24.0937
G01 X8.8584 Y24.0000
G01 X8.8627 Y23.9063
G01 X8.8635 Y23.8959
G01 X8.8770 Y23.8031
G00 Z2.0000
G00 X8.9912 Y23.8201
G01 F60.00
G01 Z-0.0800
G01 F120.00
G01 X8.9930 Y23.8108
G01 X9.0145 Y23.7253
G01 X9.0458 Y23.6379
G01 X9.0855 Y23.5540
G01 X9.1333 Y23.4743
G01 X9.1886 Y23.3997
G01 X9.2509 Y23.3309
G01 X9.3197 Y23.2686
G01 X9.3943 Y23.2133
G01 X9.4740 Y23.1655
G01 X9.5579 Y23.1258
G01 X9.6453 Y23.0945
G01 X9.7354 Y23.0720
G01 X9.8273 Y23.0584
G01 X9.9200 Y23.0538
G01 X10.0127 Y23.0584
G01 X10.1048 Y23.0720
G01 X10.1947 Y23.0945
G01 X10.2821 Y23.1258
G01 X10.3660 Y23.1655
G01 X10.4457 Y23.2133
G01 X10.5203 Y23.2686
G01 X10.5891 Y23.3309
G01 X10.6514 Y23.3997
G01 X10.7067 Y23.4743
G01 X10.7545 Y23.5540
G01 X10.7942 Y23.6379
G01 X10.8255 Y23.7253
G01 X10.8480 Y23.8151
G01 X10.8616 Y23.9073
G01 X10.8662 Y24.0000
G01 X10.8616 Y24.0927
G01 X10.8480 Y24.1846
G01 X10.8255 Y24.2747
G01 X10.7942 Y24.3621
G01 X10.7545 Y24.4460
G01 X10.7067 Y24.5257
G01 X10.6514 Y24.6003
G01 X10.5891 Y24.6691
G01 X10.5203 Y24.7314
G01 X10.4457 Y24.7867
G01 X10.3660 Y24.8345
G01 X10.2821 Y24.8742
G01 X10.1945 Y24.9055
G01 X10.1046 Y24.9280
G01 X10.0127 Y24.9416
G01 X9.9200 Y24.9462
G01 X9.8273 Y24.9416
G01 X9.7354 Y24.9280
G01 X9.6453 Y24.9055
G01 X9.5579 Y24.8742
G01 X9.4740 Y24.8345
G01 X9.3943 Y24.7867
G01 X9.3197 Y24.7314
G01 X9.2509 Y24.6691
G01 X9.1886 Y24.6003
G01 X9.1333 Y24.5257
G01 X9.0855 Y24.4460
G01 X9.0458 Y24.3621
G01 X9.0145 Y24.2745
G01 X8.9920 Y24.1846
G01 X8.9784 Y24.0927
G01 X8.9738 Y24.0000
G01 X8.9784 Y23.9073
G01 X8.9912 Y23.8201
G00 Z2.0000
G00 X8.6725 Y24.4671
G01 F60.00
G01 Z-0.0800
G01 F120.00
G01 X8.6725 Y24.3350
G01 X8.6800 Y24.3643
G01 X8.6860 Y24.3843
G01 X8.7109 Y24.4544
G01 X8.6963 Y24.4588
G01 X8.6725 Y24.4671
G00 Z2.0000
G00 X11.0497 Y24.3301
G01 F60.00
G01 Z-0.0800
G01 F120.00
G01 X11.0709 Y24.2453
G01 X11.0745 Y24.2296
G01 X11.0772 Y24.2138
G01 X11.0894 Y24.1313
G01 X11.0914 Y24.1154
G01 X11.0926 Y24.0994
G01 X11.0967 Y24.0160
G01 X11.0971 Y24.0000
G01 X11.0967 Y23.9840
G01 X11.0926 Y23.9006
G01 X11.0914 Y23.8846
G01 X11.0894 Y23.8687
G01 X11.0769 Y23.7844
G01 X11.0743 Y23.7695
G01 X11.0709 Y23.7547
G01 X11.0493 Y23.6684
G01 X11.0872 Y23.6812
G01 X11.1028 Y23.6857
G01 X11.1186 Y23.6894
G01 X11.1346 Y23.6923
G01 X11.1507 Y23.6944
G01 X11.1750 Y23.6960
G01 X11.1913 Y23.6961
G01 X11.2075 Y23.6954
G01 X11.2237 Y23.6939
G01 X11.2398 Y23.6915
G01 X11.2636 Y23.6866
G01 X11.3172 Y23.6733
G01 X11.3270 Y23.6831
G01 X11.3091 Y23.7547
G01 X11.3057 Y23.7696
G01 X11.3030 Y23.7846
G01 X11.2895 Y23.8766
G01 X11.2874 Y23.9006
G01 X11.2833 Y23.9840
G01 X11.2830 Y24.0080
G01 X11.2874 Y24.0994
G01 X11.2886 Y24.1154
G01 X11.2906 Y24.1313
G01 X11.3028 Y24.2138
G01 X11.3055 Y24.2296
G01 X11.3091 Y24.2453
G01 X11.3270 Y24.3169
G01 X11.3171 Y24.3268
G01 X11.2934 Y24.3188
G01 X11.2778 Y24.3143
G01 X11.2620 Y24.3106
G01 X11.2460 Y24.3077
G01 X11.2299 Y24.3056
G01 X11.2137 Y24.3043
G01 X11.1974 Y24.3038
G01 X11.1812 Y24.3042
G01 X11.1569 Y24.3061
G01 X11.1328 Y24.3099
G01 X11.1170 Y24.3134
G01 X11.0497 Y24.3301
G00 Z2.0000
G00 X11.8521 Y25.0975
G01 F60.00
G01 Z-0.0800
G01 F120.00
G01 X12.0826 Y24.8670
G01 X12.1001 Y24.8751
G01 X12.1853 Y24.9055
G01 X12.2754 Y24.9280
G01 X12.3673 Y24.9416
G01 X12.4600 Y24.9462
G01 X12.5527 Y24.9416
G01 X12.6446 Y24.9280
G01 X12.7366 Y24.9048
G01 X12.8199 Y24.8751
G01 X12.8374 Y24.8670
G01 X13.0679 Y25.0975
G01 X12.9413 Y25.1619
G01 X12.7536 Y25.2229
G01 X12.5587 Y25.2538
G01 X12.3613 Y25.2538
G01 X12.1664 Y25.2229
G01 X11.9787 Y25.1619
G01 X11.8521 Y25.0975
G00 Z2.0000
G00 X12.0493 Y25.0635
G01 F60.00
G01 Z-0.0800
G01 F120.00
G01 X12.1112 Y25.0017
G01 X12.1420 Y25.0127
G01 X12.1568 Y25.0174
G01 X12.2427 Y25.0390
G01 X12.2580 Y25.0422
G01 X12.3559 Y25.0565
G01 X12.3663 Y25.0573
G01 X12.4600 Y25.0616
G01 X12.5537 Y25.0573
G01 X12.5641 Y25.0565
G01 X12.6620 Y25.0422
G01 X12.6773 Y25.0390
G01 X12.7630 Y25.0174
G01 X12.7772 Y25.0130
G01 X12.8088 Y25.0017
G01 X12.8707 Y25.0635
G01 X12.7266 Y25.1103
G01 X12.5496 Y25.1384
G01 X12.3704 Y25.1384
G01 X12.1934 Y25.1103
G01 X12.0493 Y25.0635
G00 Z2.0000
G00 X13.5652 Y24.6156
G01 F60.00
G01 Z-0.0800
G01 F120.00
G01 X13.3270 Y24.3774
G01 X13.3351 Y24.3599
G01 X13.3655 Y24.2747
G01 X13.3880 Y24.1846
G01 X13.4016 Y24.0927
G01 X13.4062 Y24.0000
G01 X13.4016 Y23.9073
G01 X13.3880 Y23.8154
G01 X13.3655 Y23.7253
G01 X13.3351 Y23.6401
G01 X13.3270 Y23.6226
G01 X13.5644 Y23.3852
G01 X13.5856 Y23.4096
G01 X13.5920 Y23.4162
G01 X13.6027 Y23.4250
G01 X13.6125 Y23.4311
G01 X13.6251 Y23.4368
G01 X13.6934 Y23.4601
G01 X13.7026 Y23.4628
G01 X13.7096 Y23.4641
G01 X13.7167 Y23.4650
G01 X13.7263 Y23.4653
G01 X13.7358 Y23.4646
G01 X13.7452 Y23.4630
G01 X13.8200 Y23.4444
G01 X13.8268 Y23.4421
G01 X13.8333 Y23.4393
G01 X13.8397 Y23.4360
G01 X13.8458 Y23.4322
G01 X13.8535 Y23.4265
G01 X13.8605 Y23.4201
G01 X13.9101 Y23.3675
G01 X13.9161 Y23.3606
G01 X13.9226 Y23.3512
G01 X13.9272 Y23.3426
G01 X14.0433 Y23.1829
G01 X14.1829 Y23.0433
G01 X14.3426 Y22.9272
G01 X14.5185 Y22.8376
G01 X14.7063 Y22.7766
G01 X14.9013 Y22.7457
G01 X15.0987 Y22.7457
G01 X15.2937 Y22.7766
G01 X15.4815 Y22.8376
G01 X15.6574 Y22.9272
G01 X15.8171 Y23.0433
G01 X15.9567 Y23.1829
G01 X16.0728 Y23.3426
G01 X16.0785 Y23.3528
G01 X16.0839 Y23.3604
G01 X16.1290 Y23.4124
G01 X16.1392 Y23.4217
G01 X16.1507 Y23.4295
G01 X16.1589 Y23.4337
G01 X16.1653 Y23.4363
G01 X16.2382 Y23.4610
G01 X16.2452 Y23.4627
G01 X16.2522 Y23.4639
G01 X16.2618 Y23.4647
G01 X16.2689 Y23.4646
G01 X16.2761 Y23.4641
G01 X16.2855 Y23.4625
G01 X16.3556 Y23.4451
G01 X16.3648 Y23.4424
G01 X16.3758 Y23.4377
G01 X16.3841 Y23.4330
G01 X16.3937 Y23.4259
G01 X16.4008 Y23.4195
G01 X16.4504 Y23.3670
G01 X16.4564 Y23.3601
G01 X16.4617 Y23.3526
G01 X16.4672 Y23.3426
G01 X16.5833 Y23.1829
G01 X16.6730 Y23.0931
G01 X16.6781 Y23.0873
G01 X16.6976 Y23.0629
G01 X16.7015 Y23.0570
G01 X16.7051 Y23.0509
G01 X16.7081 Y23.0445
G01 X16.7107 Y23.0379
G01 X16.7318 Y22.9663
G01 X16.7340 Y22.9574
G01 X16.7353 Y22.9484
G01 X16.7357 Y22.9392
G01 X16.7357 Y21.3808
G01 X16.7666 Y21.2254
G01 X16.8272 Y21.0790
G01 X16.9153 Y20.9473
G01 X18.9873 Y18.8753
G01 X19.1190 Y18.7872
G01 X19.2654 Y18.7266
G01 X19.4208 Y18.6957
G01 X47.5792 Y18.6957
G01 X47.7346 Y18.7266
G01 X47.8810 Y18.7872
G01 X48.0127 Y18.8753
G01 X48.1247 Y18.9873
G01 X48.2128 Y19.1190
G01 X48.2734 Y19.2654
G01 X48.3043 Y19.4208
G01 X48.3043 Y21.5782
G01 X48.3049 Y21.5859
G01 X48.3087 Y21.6193
G01 X48.3115 Y21.6307
G01 X48.3148 Y21.6396
G01 X48.3189 Y21.6481
G01 X48.3535 Y21.7114
G01 X48.3598 Y21.7210
G01 X48.3672 Y21.7297
G01 X55.6205 Y28.9831
G01 X55.6282 Y28.9900
G01 X55.6507 Y29.0081
G01 X55.6565 Y29.0122
G01 X55.6625 Y29.0158
G01 X55.6688 Y29.0190
G01 X55.6754 Y29.0218
G01 X55.6821 Y29.0240
G01 X55.7513 Y29.0443
G01 X55.7626 Y29.0466
G01 X55.7740 Y29.0476
G01 X57.1819 Y29.0476
G01 X57.1940 Y29.0472
G01 X57.2010 Y29.0466
G01 X57.2078 Y29.0455
G01 X57.2191 Y29.0425
G01 X57.2871 Y29.0183
G01 X57.2955 Y29.0148
G01 X57.3075 Y29.0081
G01 X57.3286 Y28.9929
G01 X57.4695 Y28.9212
G01 X57.6198 Y28.8723
G01 X57.7760 Y28.8476
G01 X58.7340 Y28.8476
G01 X58.8902 Y28.8723
G01 X59.0405 Y28.9212
G01 X59.1814 Y28.9929
G01 X59.3093 Y29.0858
G01 X59.4210 Y29.1976
G01 X59.5140 Y29.3255
G01 X59.5857 Y29.4664
G01 X59.6346 Y29.6167
G01 X59.6593 Y29.7728
G01 X59.6593 Y29.9309
G01 X59.6346 Y30.0871
G01 X59.5857 Y30.2374
G01 X59.5140 Y30.3782
G01 X59.4210 Y30.5061
G01 X59.3093 Y30.6179
G01 X59.1814 Y30.7108
G01 X59.0405 Y30.7826
G01 X58.8902 Y30.8315
G01 X58.7340 Y30.8562
G01 X57.7760 Y30.8562
G01 X57.6198 Y30.8315
G01 X57.4695 Y30.7826
G01 X57.3286 Y30.7108
G01 X57.3013 Y30.6914
G01 X57.2953 Y30.6878
G01 X57.2891 Y30.6847
G01 X57.2827 Y30.6820
G01 X57.2761 Y30.6798
G01 X57.2090 Y30.6601
G01 X57.2001 Y30.6579
G01 X57.1933 Y30.6569
G01 X57.1819 Y30.6562
G01 X55.2727 Y30.6562
G01 X55.1173 Y30.6253
G01 X54.9709 Y30.5646
G01 X54.8392 Y30.4766
G01 X46.8753 Y22.5127
G01 X46.7872 Y22.3810
G01 X46.7266 Y22.2346
G01 X46.6957 Y22.0792
G01 X46.6957 Y20.5245
G01 X46.6953 Y20.5154
G01 X46.6944 Y20.5085
G01 X46.6812 Y20.4479
G01 X46.6782 Y20.4387
G01 X46.6732 Y20.4278
G01 X46.6683 Y20.4195
G01 X46.6625 Y20.4118
G01 X46.6104 Y20.3520
G01 X46.6032 Y20.3456
G01 X46.5955 Y20.3399
G01 X46.5873 Y20.3350
G01 X46.5787 Y20.3310
G01 X46.5696 Y20.3279
G01 X46.5026 Y20.3082
G01 X46.4937 Y20.3060
G01 X46.4846 Y20.3047
G01 X46.4755 Y20.3043
G01 X19.9244 Y20.3043
G01 X19.9141 Y20.3049
G01 X19.8807 Y20.3087
G01 X19.8715 Y20.3109
G01 X19.8604 Y20.3148
G01 X19.8519 Y20.3189
G01 X19.7886 Y20.3535
G01 X19.7790 Y20.3598
G01 X19.7703 Y20.3672
G01 X18.4088 Y21.7287
G01 X18.4036 Y21.7343
G01 X18.3853 Y21.7570
G01 X18.3810 Y21.7626
G01 X18.3772 Y21.7686
G01 X18.3729 Y21.7770
G01 X18.3686 Y21.7880
G01 X18.3482 Y21.8573
G01 X18.3453 Y21.8707
G01 X18.3443 Y21.8821
G01 X18.3443 Y22.9392
G01 X18.3449 Y22.9495
G01 X18.3480 Y22.9782
G01 X18.3497 Y22.9875
G01 X18.3515 Y22.9943
G01 X18.3539 Y23.0010
G01 X18.3567 Y23.0075
G01 X18.3924 Y23.0730
G01 X18.3998 Y23.0846
G01 X18.4088 Y23.0949
G01 X18.4967 Y23.1829
G01 X18.6128 Y23.3426
G01 X18.6172 Y23.3508
G01 X18.6224 Y23.3585
G01 X18.6690 Y23.4124
G01 X18.6774 Y23.4203
G01 X18.6848 Y23.4258
G01 X18.6927 Y23.4306
G01 X18.7032 Y23.4355
G01 X18.7782 Y23.4610
G01 X18.7852 Y23.4627
G01 X18.7922 Y23.4639
G01 X18.8042 Y23.4647
G01 X18.8161 Y23.4641
G01 X18.8255 Y23.4625
G01 X18.9002 Y23.4439
G01 X18.9092 Y23.4407
G01 X18.9200 Y23.4354
G01 X18.9280 Y23.4303
G01 X18.9356 Y23.4244
G01 X18.9424 Y23.4178
G01 X18.9904 Y23.3670
G01 X18.9964 Y23.3601
G01 X19.0017 Y23.3526
G01 X19.0072 Y23.3426
G01 X19.1233 Y23.1829
G01 X19.2629 Y23.0433
G01 X19.4226 Y22.9272
G01 X19.5985 Y22.8376
G01 X19.7863 Y22.7766
G01 X19.9813 Y22.7457
G01 X20.1787 Y22.7457
G01 X20.3737 Y22.7766
G01 X20.5615 Y22.8376
G01 X20.7374 Y22.9272
G01 X20.8971 Y23.0433
G01 X20.9869 Y23.1330
G01 X21.0134 Y23.1547
G01 X21.0230 Y23.1615
G01 X21.0334 Y23.1671
G01 X21.0399 Y23.1699
G01 X21.0466 Y23.1721
G01 X21.1159 Y23.1924
G01 X21.1271 Y23.1947
G01 X21.1385 Y23.1957
G01 X46.5792 Y23.1957
G01 X46.7346 Y23.2266
G01 X46.8810 Y23.2872
G01 X47.0127 Y23.3753
G01 X55.1247 Y31.4873
G01 X55.2128 Y31.6190
G01 X55.2734 Y31.7654
G01 X55.3043 Y31.9208
G01 X55.3044 Y36.4520
G01 X55.3060 Y36.4656
G01 X55.3182 Y36.5217
G01 X55.3210 Y36.5309
G01 X55.3257 Y36.5420
G01 X55.3304 Y36.5503
G01 X55.3375 Y36.5601
G01 X55.3880 Y36.6182
G01 X55.3949 Y36.6248
G01 X55.4025 Y36.6306
G01 X55.4127 Y36.6368
G01 X55.4213 Y36.6409
G01 X55.4304 Y36.6440
G01 X55.4974 Y36.6637
G01 X55.5063 Y36.6658
G01 X55.5154 Y36.6671
G01 X55.5245 Y36.6676
G01 X57.1819 Y36.6676
G01 X57.1940 Y36.6672
G01 X57.2010 Y36.6666
G01 X57.2078 Y36.6655
G01 X57.2191 Y36.6625
G01 X57.2871 Y36.6383
G01 X57.2955 Y36.6348
G01 X57.3075 Y36.6281
G01 X57.3286 Y36.6129
G01 X57.4695 Y36.5412
G01 X57.6198 Y36.4923
G01 X57.7760 Y36.4676
G01 X58.7340 Y36.4676
G01 X58.8902 Y36.4923
G01 X59.0405 Y36.5412
G01 X59.1814 Y36.6129
G01 X59.2087 Y36.6324
G01 X59.2147 Y36.6360
G01 X59.2209 Y36.6391
G01 X59.2273 Y36.6418
G01 X59.2339 Y36.6440
G01 X59.3010 Y36.6637
G01 X59.3099 Y36.6658
G01 X59.3190 Y36.6671
G01 X59.3281 Y36.6676
G01 X61.0511 Y36.6676
G01 X61.2065 Y36.6985
G01 X61.2617 Y36.7213
G01 X61.3529 Y36.7591
G01 X61.4846 Y36.8471
G01 X62.1247 Y37.4873
G01 X62.2128 Y37.6190
G01 X62.2721 Y37.7622
G01 X62.2782 Y37.7745
G01 X62.2975 Y37.8069
G01 X62.3030 Y37.8148
G01 X62.3094 Y37.8222
G01 X62.3179 Y37.8300
G01 X62.3254 Y37.8388
G01 X62.3342 Y37.8467
G01 X62.3399 Y37.8510
G01 X62.3459 Y37.8548
G01 X62.3522 Y37.8581
G01 X62.3686 Y37.8657
G01 X62.3855 Y37.8772
G01 X62.3917 Y37.8808
G01 X62.3981 Y37.8839
G01 X62.4048 Y37.8865
G01 X62.4140 Y37.8891
G01 X62.4251 Y37.8911
G01 X62.4383 Y37.8948
G01 X62.4477 Y37.8963
G01 X62.4549 Y37.8968
G01 X62.4620 Y37.8968
G01 X62.4692 Y37.8962
G01 X62.4871 Y37.8936
G01 X62.5099 Y37.8942
G01 X62.5170 Y37.8936
G01 X62.5241 Y37.8926
G01 X62.5357 Y37.8896
G01 X62.5484 Y37.8845
G01 X62.5615 Y37.8805
G01 X62.5702 Y37.8767
G01 X62.5805 Y37.8707
G01 X62.5882 Y37.8650
G01 X62.6019 Y37.8531
G01 X62.6214 Y37.8413
G01 X62.6271 Y37.8369
G01 X62.6325 Y37.8322
G01 X62.6375 Y37.8271
G01 X62.6421 Y37.8216
G01 X62.6485 Y37.8123
G01 X62.6574 Y37.8019
G01 X62.6626 Y37.7939
G01 X62.6660 Y37.7876
G01 X62.6698 Y37.7789
G01 X62.6765 Y37.7570
G01 X62.6856 Y37.7387
G01 X62.6897 Y37.7275
G01 X62.6920 Y37.7182
G01 X62.6931 Y37.7111
G01 X62.6937 Y37.6974
G01 X62.6950 Y37.6893
G01 X62.6957 Y37.6802
G01 X62.6957 Y33.9244
G01 X62.6951 Y33.9141
G01 X62.6913 Y33.8807
G01 X62.6885 Y33.8693
G01 X62.6852 Y33.8604
G01 X62.6811 Y33.8519
G01 X62.6465 Y33.7886
G01 X62.6415 Y33.7809
G01 X62.6359 Y33.7737
G01 X62.1214 Y33.2589
G01 X62.1156 Y33.2538
G01 X62.0892 Y33.2329
G01 X62.0812 Y33.2279
G01 X62.0706 Y33.2229
G01 X62.0617 Y33.2198
G01 X61.9924 Y33.1995
G01 X61.9812 Y33.1972
G01 X61.9698 Y33.1962
G01 X59.3254 Y33.1962
G01 X59.3090 Y33.1971
G01 X59.2999 Y33.1987
G01 X59.2931 Y33.2005
G01 X59.2165 Y33.2280
G01 X59.2104 Y33.2310
G01 X59.2025 Y33.2356
G01 X59.1814 Y33.2508
G01 X59.0405 Y33.3226
G01 X58.8902 Y33.3715
G01 X58.7340 Y33.3962
G01 X57.7760 Y33.3962
G01 X57.6198 Y33.3715
G01 X57.4695 Y33.3226
G01 X57.3286 Y33.2508
G01 X57.2007 Y33.1579
G01 X57.0890 Y33.0461
G01 X56.9960 Y32.9182
G01 X56.9243 Y32.7774
G01 X56.8754 Y32.6271
G01 X56.8507 Y32.4709
G01 X56.8507 Y32.3128
G01 X56.8754 Y32.1567
G01 X56.9243 Y32.0064
G01 X56.9960 Y31.8655
G01 X57.0890 Y31.7376
G01 X57.2007 Y31.6258
G01 X57.3286 Y31.5329
G01 X57.4695 Y31.4612
G01 X57.6198 Y31.4123
G01 X57.7760 Y31.3876
G01 X58.7340 Y31.3876
G01 X58.8902 Y31.4123
G01 X59.0405 Y31.4612
G01 X59.1814 Y31.5329
G01 X59.2087 Y31.5524
G01 X59.2147 Y31.5560
G01 X59.2209 Y31.5591
G01 X59.2273 Y31.5618
G01 X59.2339 Y31.5640
G01 X59.3032 Y31.5843
G01 X59.3122 Y31.5862
G01 X59.3236 Y31.5875
G01 X62.4711 Y31.5876
G01 X62.6265 Y31.6185
G01 X62.6817 Y31.6413
G01 X62.7729 Y31.6791
G01 X62.9046 Y31.7671
G01 X64.1247 Y32.9873
G01 X64.2128 Y33.1190
G01 X64.2734 Y33.2654
G01 X64.3043 Y33.4208
G01 X64.3043 Y61.0792
G01 X64.2734 Y61.2346
G01 X64.2371 Y61.3223
G01 X64.2128 Y61.3810
G01 X64.1247 Y61.5127
G01 X61.8688 Y63.7687
G01 X61.8619 Y63.7763
G01 X61.8410 Y63.8026
G01 X61.8372 Y63.8086
G01 X61.8339 Y63.8148
G01 X61.8310 Y63.8213
G01 X61.8286 Y63.8280
G01 X61.8076 Y63.8995
G01 X61.8053 Y63.9107
G01 X61.8044 Y63.9198
G01 X61.8043 Y64.5792
G01 X61.7734 Y64.7346
G01 X61.7128 Y64.8810
G01 X61.6247 Y65.0127
G01 X61.5127 Y65.1247
G01 X61.3810 Y65.2128
G01 X61.2346 Y65.2734
G01 X61.0792 Y65.3043
G01 X54.4208 Y65.3043
G01 X54.2654 Y65.2734
G01 X54.1190 Y65.2128
G01 X53.9873 Y65.1247
G01 X43.3753 Y54.5127
G01 X43.2872 Y54.3810
G01 X43.2266 Y54.2346
G01 X43.1957 Y54.0792
G01 X43.1957 Y53.4244
G01 X43.1951 Y53.4141
G01 X43.1920 Y53.3854
G01 X43.1908 Y53.3784
G01 X43.1891 Y53.3715
G01 X43.1852 Y53.3604
G01 X43.1811 Y53.3519
G01 X43.1465 Y53.2886
G01 X43.1388 Y53.2772
G01 X43.1312 Y53.2687
G01 X42.9553 Y53.0927
G01 X42.8672 Y52.9610
G01 X42.8066 Y52.8146
G01 X42.7757 Y52.6592
G01 X42.7757 Y34.0608
G01 X42.7751 Y34.0505
G01 X42.7720 Y34.0218
G01 X42.7708 Y34.0148
G01 X42.7685 Y34.0057
G01 X42.7661 Y33.9990
G01 X42.7633 Y33.9925
G01 X42.7276 Y33.9270
G01 X42.7202 Y33.9154
G01 X42.7112 Y33.9051
G01 X42.6233 Y33.8171
G01 X42.5072 Y33.6574
G01 X42.5028 Y33.6493
G01 X42.4976 Y33.6415
G01 X42.4510 Y33.5876
G01 X42.4426 Y33.5797
G01 X42.4332 Y33.5729
G01 X42.4252 Y33.5683
G01 X42.4147 Y33.5637
G01 X42.3395 Y33.5383
G01 X42.3301 Y33.5364
G01 X42.3230 Y33.5356
G01 X42.3135 Y33.5353
G01 X42.3063 Y33.5357
G01 X42.2992 Y33.5366
G01 X42.2922 Y33.5381
G01 X42.2244 Y33.5549
G01 X42.2152 Y33.5576
G01 X42.2064 Y33.5613
G01 X42.1959 Y33.5670
G01 X42.1881 Y33.5726
G01 X42.1809 Y33.5788
G01 X42.1296 Y33.6330
G01 X42.1236 Y33.6399
G01 X42.1184 Y33.6474
G01 X42.1128 Y33.6574
G01 X41.9967 Y33.8171
G01 X41.8571 Y33.9567
G01 X41.6974 Y34.0728
G01 X41.5215 Y34.1624
G01 X41.3337 Y34.2234
G01 X41.1387 Y34.2543
G01 X40.9413 Y34.2543
G01 X40.7463 Y34.2234
G01 X40.5585 Y34.1624
G01 X40.3826 Y34.0728
G01 X40.2229 Y33.9567
G01 X40.0833 Y33.8171
G01 X39.9672 Y33.6574
G01 X39.9625 Y33.6487
G01 X39.9559 Y33.6391
G01 X39.9108 Y33.5870
G01 X39.9005 Y33.5777
G01 X39.8910 Y33.5712
G01 X39.8829 Y33.5668
G01 X39.8744 Y33.5632
G01 X39.8015 Y33.5384
G01 X39.7899 Y33.5359
G01 X39.7804 Y33.5349
G01 X39.7708 Y33.5348
G01 X39.7613 Y33.5357
G01 X39.7519 Y33.5375
G01 X39.6818 Y33.5549
G01 X39.6727 Y33.5579
G01 X39.6640 Y33.5618
G01 X39.6537 Y33.5678
G01 X39.6479 Y33.5720
G01 X39.6424 Y33.5766
G01 X39.6052 Y33.6156
G01 X39.3670 Y33.3774
G01 X39.3751 Y33.3599
G01 X39.4055 Y33.2747
G01 X39.4280 Y33.1846
G01 X39.4416 Y33.0927
G01 X39.4462 Y33.0000
G01 X39.4416 Y32.9073
G01 X39.4280 Y32.8154
G01 X39.4055 Y32.7253
G01 X39.3751 Y32.6401
G01 X39.3670 Y32.6226
G01 X39.6044 Y32.3852
G01 X39.6256 Y32.4096
G01 X39.6320 Y32.4162
G01 X39.6427 Y32.4250
G01 X39.6525 Y32.4311
G01 X39.6651 Y32.4368
G01 X39.7334 Y32.4601
G01 X39.7403 Y32.4622
G01 X39.7496 Y32.4641
G01 X39.7591 Y32.4651
G01 X39.7687 Y32.4652
G01 X39.7782 Y32.4643
G01 X39.7875 Y32.4625
G01 X39.8623 Y32.4437
G01 X39.8690 Y32.4412
G01 X39.8755 Y32.4382
G01 X39.8818 Y32.4348
G01 X39.8878 Y32.4308
G01 X39.8953 Y32.4249
G01 X39.9005 Y32.4201
G01 X39.9501 Y32.3675
G01 X39.9561 Y32.3606
G01 X39.9626 Y32.3512
G01 X39.9672 Y32.3426
G01 X40.0833 Y32.1829
G01 X40.2229 Y32.0433
G01 X40.2347 Y32.0340
G01 X40.2474 Y32.0216
G01 X40.2690 Y31.9955
G01 X40.2748 Y31.9877
G01 X40.2831 Y31.9740
G01 X40.2862 Y31.9676
G01 X40.2888 Y31.9609
G01 X40.2915 Y31.9518
G01 X40.2984 Y31.9229
G01 X40.3080 Y31.8899
G01 X40.3097 Y31.8810
G01 X40.3107 Y31.8696
G01 X40.3105 Y31.0176
G01 X40.3090 Y31.0063
G01 X40.2968 Y30.9502
G01 X40.2932 Y30.9387
G01 X40.2882 Y30.9278
G01 X40.2833 Y30.9195
G01 X40.2775 Y30.9118
G01 X40.2302 Y30.8572
G01 X40.2254 Y30.8520
G01 X40.2201 Y30.8471
G01 X40.2125 Y30.8412
G01 X40.2044 Y30.8362
G01 X40.1959 Y30.8319
G01 X40.1892 Y30.8293
G01 X40.1154 Y30.8076
G01 X40.1042 Y30.8053
G01 X40.0928 Y30.8043
G01 X37.9608 Y30.8043
G01 X37.8054 Y30.7734
G01 X37.6590 Y30.7128
G01 X37.5273 Y30.6247
G01 X36.7676 Y29.8653
G01 X36.7374 Y29.8410
G01 X36.7293 Y29.8361
G01 X36.7187 Y29.8310
G01 X36.7098 Y29.8279
G01 X36.6405 Y29.8076
G01 X36.6293 Y29.8053
G01 X36.6202 Y29.8044
G01 X16.9208 Y29.8043
G01 X16.7654 Y29.7734
G01 X16.6190 Y29.7128
G01 X16.4873 Y29.6247
G01 X14.3753 Y27.5127
G01 X14.2872 Y27.3810
G01 X14.2266 Y27.2346
G01 X14.1957 Y27.0792
G01 X14.1957 Y25.0608
G01 X14.1951 Y25.0505
G01 X14.1920 Y25.0218
G01 X14.1908 Y25.0148
G01 X14.1878 Y25.0026
G01 X14.1842 Y24.9911
G01 X14.1791 Y24.9801
G01 X14.1607 Y24.9509
G01 X14.1453 Y24.9230
G01 X14.1388 Y24.9136
G01 X14.1312 Y24.9051
G01 X14.0433 Y24.8171
G01 X13.9272 Y24.6574
G01 X13.9225 Y24.6487
G01 X13.9159 Y24.6391
G01 X13.8708 Y24.5870
G01 X13.8623 Y24.5792
G01 X13.8510 Y24.5712
G01 X13.8429 Y24.5668
G01 X13.8344 Y24.5632
G01 X13.7615 Y24.5384
G01 X13.7522 Y24.5363
G01 X13.7427 Y24.5350
G01 X13.7332 Y24.5347
G01 X13.7213 Y24.5357
G01 X13.7119 Y24.5375
G01 X13.6418 Y24.5549
G01 X13.6327 Y24.5579
G01 X13.6240 Y24.5618
G01 X13.6137 Y24.5678
G01 X13.6079 Y24.5720
G01 X13.6024 Y24.5766
G01 X13.5652 Y24.6156
G00 Z2.0000
G00 X13.5717 Y24.4588
G01 F60.00
G01 Z-0.0800
G01 F120.00
G01 X13.4617 Y24.3488
G01 X13.4727 Y24.3180
G01 X13.4774 Y24.3032
G01 X13.4990 Y24.2173
G01 X13.5022 Y24.2020
G01 X13.5165 Y24.1041
G01 X13.5173 Y24.0937
G01 X13.5216 Y24.0000
G01 X13.5173 Y23.9063
G01 X13.5165 Y23.8959
G01 X13.5022 Y23.7980
G01 X13.4990 Y23.7827
G01 X13.4774 Y23.6968
G01 X13.4727 Y23.6820
G01 X13.4617 Y23.6512
G01 X13.5727 Y23.5401
G01 X13.5900 Y23.5469
G01 X13.6562 Y23.5694
G01 X13.6713 Y23.5739
G01 X13.6815 Y23.5763
G01 X13.6970 Y23.5790
G01 X13.7127 Y23.5804
G01 X13.7285 Y23.5807
G01 X13.7442 Y23.5798
G01 X13.7547 Y23.5786
G01 X13.7650 Y23.5768
G01 X13.8482 Y23.5564
G01 X13.8632 Y23.5517
G01 X13.8779 Y23.5458
G01 X13.8921 Y23.5389
G01 X13.9057 Y23.5310
G01 X13.9144 Y23.5251
G01 X13.9228 Y23.5188
G01 X13.9309 Y23.5121
G01 X13.9387 Y23.5051
G01 X13.9941 Y23.4468
G01 X14.0041 Y23.4355
G01 X14.0160 Y23.4193
G01 X14.0255 Y23.4038
G01 X14.1313 Y23.2581
G01 X14.2581 Y23.1313
G01 X14.4031 Y23.0260
G01 X14.5628 Y22.9446
G01 X14.7333 Y22.8892
G01 X14.9104 Y22.8611
G01 X15.0896 Y22.8611
G01 X15.2667 Y22.8892
G01 X15.4372 Y22.9446
G01 X15.5969 Y23.0260
G01 X15.7419 Y23.1313
G01 X15.8687 Y23.2581
G01 X15.9746 Y23.4039
G01 X15.9812 Y23.4150
G01 X15.9900 Y23.4276
G01 X15.9996 Y23.4395
G01 X16.0420 Y23.4884
G01 X16.0564 Y23.5028
G01 X16.0721 Y23.5157
G01 X16.0889 Y23.5270
G01 X16.1022 Y23.5345
G01 X16.1160 Y23.5409
G01 X16.1255 Y23.5446
G01 X16.1964 Y23.5689
G01 X16.2115 Y23.5734
G01 X16.2269 Y23.5768
G01 X16.2425 Y23.5790
G01 X16.2583 Y23.5801
G01 X16.2688 Y23.5801
G01 X16.2793 Y23.5797
G01 X16.2949 Y23.5780
G01 X16.3053 Y23.5762
G01 X16.3156 Y23.5740
G01 X16.3885 Y23.5558
G01 X16.3985 Y23.5528
G01 X16.4084 Y23.5493
G01 X16.4182 Y23.5453
G01 X16.4277 Y23.5408
G01 X16.4369 Y23.5358
G01 X16.4459 Y23.5304
G01 X16.4547 Y23.5246
G01 X16.4631 Y23.5183
G01 X16.4712 Y23.5116
G01 X16.4790 Y23.5045
G01 X16.5343 Y23.4463
G01 X16.5475 Y23.4310
G01 X16.5563 Y23.4187
G01 X16.5654 Y23.4039
G01 X16.6713 Y23.2581
G01 X16.7568 Y23.1725
G01 X16.7680 Y23.1597
G01 X16.7878 Y23.1350
G01 X16.7939 Y23.1266
G01 X16.8023 Y23.1135
G01 X16.8073 Y23.1044
G01 X16.8141 Y23.0903
G01 X16.8179 Y23.0807
G01 X16.8229 Y23.0659
G01 X16.8426 Y22.9989
G01 X16.8473 Y22.9793
G01 X16.8502 Y22.9594
G01 X16.8511 Y22.9392
G01 X16.8511 Y21.3922
G01 X16.8776 Y21.2591
G01 X16.9295 Y21.1337
G01 X17.0049 Y21.0209
G01 X19.0609 Y18.9649
G01 X19.1737 Y18.8895
G01 X19.2991 Y18.8376
G01 X19.4322 Y18.8111
G01 X47.5679 Y18.8111
G01 X47.7009 Y18.8376
G01 X47.8263 Y18.8895
G01 X47.9391 Y18.9649
G01 X48.0351 Y19.0609
G01 X48.1105 Y19.1737
G01 X48.1624 Y19.2991
G01 X48.1889 Y19.4321
G01 X48.1889 Y21.5756
G01 X48.1892 Y21.5870
G01 X48.1929 Y21.6246
G01 X48.1943 Y21.6349
G01 X48.1961 Y21.6451
G01 X48.1985 Y21.6553
G01 X48.2014 Y21.6652
G01 X48.2047 Y21.6751
G01 X48.2085 Y21.6847
G01 X48.2128 Y21.6942
G01 X48.2176 Y21.7034
G01 X48.2561 Y21.7735
G01 X48.2644 Y21.7861
G01 X48.2705 Y21.7941
G01 X48.2769 Y21.8019
G01 X48.2872 Y21.8130
G01 X55.5389 Y29.0647
G01 X55.5514 Y29.0762
G01 X55.5764 Y29.0965
G01 X55.5889 Y29.1058
G01 X55.5976 Y29.1115
G01 X55.6065 Y29.1168
G01 X55.6157 Y29.1216
G01 X55.6252 Y29.1259
G01 X55.6397 Y29.1316
G01 X55.6496 Y29.1348
G01 X55.7263 Y29.1571
G01 X55.7461 Y29.1609
G01 X55.7662 Y29.1628
G01 X57.1879 Y29.1629
G01 X57.2001 Y29.1625
G01 X57.2154 Y29.1612
G01 X57.2305 Y29.1587
G01 X57.2454 Y29.1551
G01 X57.2601 Y29.1505
G01 X57.3353 Y29.1234
G01 X57.3490 Y29.1172
G01 X57.3623 Y29.1100
G01 X57.3750 Y29.1018
G01 X57.3891 Y29.0917
G01 X57.5138 Y29.0281
G01 X57.6469 Y28.9849
G01 X57.7850 Y28.9630
G01 X58.7250 Y28.9630
G01 X58.8631 Y28.9849
G01 X58.9962 Y29.0281
G01 X59.1209 Y29.0917
G01 X59.2341 Y29.1739
G01 X59.3330 Y29.2728
G01 X59.4152 Y29.3860
G01 X59.4787 Y29.5107
G01 X59.5220 Y29.6437
G01 X59.5439 Y29.7819
G01 X59.5439 Y29.9218
G01 X59.5220 Y30.0600
G01 X59.4787 Y30.1931
G01 X59.4152 Y30.3177
G01 X59.3330 Y30.4309
G01 X59.2341 Y30.5299
G01 X59.1209 Y30.6121
G01 X58.9962 Y30.6756
G01 X58.8631 Y30.7189
G01 X58.7250 Y30.7407
G01 X57.7850 Y30.7407
G01 X57.6469 Y30.7189
G01 X57.5138 Y30.6756
G01 X57.3891 Y30.6121
G01 X57.3742 Y30.6013
G01 X57.3598 Y30.5918
G01 X57.3465 Y30.5843
G01 X57.3326 Y30.5777
G01 X57.3135 Y30.5705
G01 X57.2415 Y30.5493
G01 X57.2268 Y30.5456
G01 X57.2070 Y30.5422
G01 X57.1919 Y30.5410
G01 X57.1819 Y30.5407
G01 X55.2840 Y30.5407
G01 X55.1509 Y30.5143
G01 X55.0256 Y30.4623
G01 X54.9128 Y30.3870
G01 X46.9649 Y22.4391
G01 X46.8895 Y22.3263
G01 X46.8376 Y22.2009
G01 X46.8111 Y22.0678
G01 X46.8111 Y20.5245
G01 X46.8102 Y20.5044
G01 X46.8073 Y20.4844
G01 X46.7951 Y20.4280
G01 X46.7911 Y20.4126
G01 X46.7879 Y20.4026
G01 X46.7841 Y20.3927
G01 X46.7799 Y20.3830
G01 X46.7751 Y20.3736
G01 X46.7699 Y20.3643
G01 X46.7643 Y20.3554
G01 X46.7582 Y20.3468
G01 X46.7517 Y20.3384
G01 X46.7025 Y20.2816
G01 X46.6917 Y20.2701
G01 X46.6841 Y20.2628
G01 X46.6761 Y20.2560
G01 X46.6678 Y20.2496
G01 X46.6592 Y20.2436
G01 X46.6457 Y20.2354
G01 X46.6364 Y20.2305
G01 X46.6269 Y20.2261
G01 X46.6122 Y20.2203
G01 X46.6022 Y20.2171
G01 X46.5351 Y20.1974
G01 X46.5156 Y20.1927
G01 X46.4956 Y20.1898
G01 X46.4755 Y20.1889
G01 X19.9244 Y20.1889
G01 X19.9130 Y20.1892
G01 X19.9017 Y20.1901
G01 X19.8702 Y20.1935
G01 X19.8600 Y20.1951
G01 X19.8498 Y20.1973
G01 X19.8397 Y20.1999
G01 X19.8298 Y20.2030
G01 X19.8201 Y20.2066
G01 X19.8105 Y20.2106
G01 X19.7966 Y20.2176
G01 X19.7265 Y20.2561
G01 X19.7139 Y20.2644
G01 X19.7059 Y20.2705
G01 X19.6906 Y20.2836
G01 X18.3272 Y21.6470
G01 X18.3156 Y21.6595
G01 X18.2922 Y21.6886
G01 X18.2861 Y21.6970
G01 X18.2777 Y21.7101
G01 X18.2727 Y21.7192
G01 X18.2681 Y21.7285
G01 X18.2639 Y21.7381
G01 X18.2603 Y21.7478
G01 X18.2374 Y21.8247
G01 X18.2337 Y21.8394
G01 X18.2310 Y21.8542
G01 X18.2298 Y21.8642
G01 X18.2289 Y21.8793
G01 X18.2289 Y22.9392
G01 X18.2295 Y22.9562
G01 X18.2335 Y22.9934
G01 X18.2361 Y23.0087
G01 X18.2399 Y23.0239
G01 X18.2447 Y23.0387
G01 X18.2506 Y23.0531
G01 X18.2576 Y23.0670
G01 X18.2911 Y23.1284
G01 X18.2988 Y23.1413
G01 X18.3044 Y23.1497
G01 X18.3136 Y23.1617
G01 X18.3236 Y23.1730
G01 X18.4087 Y23.2581
G01 X18.5146 Y23.4039
G01 X18.5212 Y23.4150
G01 X18.5300 Y23.4276
G01 X18.5396 Y23.4395
G01 X18.5854 Y23.4921
G01 X18.5926 Y23.4993
G01 X18.6041 Y23.5094
G01 X18.6203 Y23.5216
G01 X18.6333 Y23.5296
G01 X18.6422 Y23.5345
G01 X18.6608 Y23.5428
G01 X18.7364 Y23.5689
G01 X18.7515 Y23.5734
G01 X18.7618 Y23.5758
G01 X18.7773 Y23.5784
G01 X18.7878 Y23.5795
G01 X18.8035 Y23.5802
G01 X18.8140 Y23.5800
G01 X18.8245 Y23.5792
G01 X18.8349 Y23.5780
G01 X18.8453 Y23.5762
G01 X18.9234 Y23.5572
G01 X18.9385 Y23.5528
G01 X18.9484 Y23.5493
G01 X18.9582 Y23.5453
G01 X18.9677 Y23.5408
G01 X18.9769 Y23.5358
G01 X18.9859 Y23.5304
G01 X18.9947 Y23.5246
G01 X19.0072 Y23.5150
G01 X19.0151 Y23.5081
G01 X19.0264 Y23.4971
G01 X19.0743 Y23.4463
G01 X19.0875 Y23.4310
G01 X19.0963 Y23.4187
G01 X19.1054 Y23.4039
G01 X19.2113 Y23.2581
G01 X19.3381 Y23.1313
G01 X19.4831 Y23.0260
G01 X19.6428 Y22.9446
G01 X19.8133 Y22.8892
G01 X19.9904 Y22.8611
G01 X20.1696 Y22.8611
G01 X20.3467 Y22.8892
G01 X20.5172 Y22.9446
G01 X20.6769 Y23.0260
G01 X20.8219 Y23.1313
G01 X20.9034 Y23.2128
G01 X20.9117 Y23.2206
G01 X20.9450 Y23.2478
G01 X20.9534 Y23.2539
G01 X20.9665 Y23.2623
G01 X20.9756 Y23.2673
G01 X20.9849 Y23.2719
G01 X20.9945 Y23.2761
G01 X21.0042 Y23.2797
G01 X21.0811 Y23.3026
G01 X21.0958 Y23.3063
G01 X21.1057 Y23.3082
G01 X21.1206 Y23.3102
G01 X21.1357 Y23.3111
G01 X46.5679 Y23.3111
G01 X46.7009 Y23.3376
G01 X46.8263 Y23.3895
G01 X46.9391 Y23.4649
G01 X55.0351 Y31.5609
G01 X55.1105 Y31.6737
G01 X55.1624 Y31.7991
G01 X55.1889 Y31.9321
G01 X55.1889 Y36.4474
G01 X55.1894 Y36.4625
G01 X55.1904 Y36.4725
G01 X55.1927 Y36.4874
G01 X55.2061 Y36.5490
G01 X55.2089 Y36.5592
G01 X55.2121 Y36.5693
G01 X55.2159 Y36.5792
G01 X55.2201 Y36.5889
G01 X55.2249 Y36.5983
G01 X55.2329 Y36.6120
G01 X55.2387 Y36.6208
G01 X55.2450 Y36.6293
G01 X55.3010 Y36.6942
G01 X55.3083 Y36.7018
G01 X55.3159 Y36.7090
G01 X55.3239 Y36.7159
G01 X55.3322 Y36.7223
G01 X55.3408 Y36.7283
G01 X55.3497 Y36.7339
G01 X55.3589 Y36.7390
G01 X55.3683 Y36.7437
G01 X55.3829 Y36.7498
G01 X55.3978 Y36.7548
G01 X55.4649 Y36.7744
G01 X55.4844 Y36.7792
G01 X55.5044 Y36.7821
G01 X55.5245 Y36.7830
G01 X57.1819 Y36.7830
G01 X57.2001 Y36.7825
G01 X57.2154 Y36.7812
G01 X57.2255 Y36.7796
G01 X57.2355 Y36.7776
G01 X57.2503 Y36.7737
G01 X57.3259 Y36.7470
G01 X57.3399 Y36.7414
G01 X57.3535 Y36.7349
G01 X57.3623 Y36.7300
G01 X57.3750 Y36.7218
G01 X57.3891 Y36.7117
G01 X57.5138 Y36.6481
G01 X57.6469 Y36.6049
G01 X57.7850 Y36.5830
G01 X58.7250 Y36.5830
G01 X58.8631 Y36.6049
G01 X58.9962 Y36.6481
G01 X59.1209 Y36.7117
G01 X59.1358 Y36.7224
G01 X59.1502 Y36.7320
G01 X59.1635 Y36.7395
G01 X59.1774 Y36.7461
G01 X59.1965 Y36.7532
G01 X59.2734 Y36.7758
G01 X59.2930 Y36.7801
G01 X59.3080 Y36.7821
G01 X59.3281 Y36.7830
G01 X61.0397 Y36.7830
G01 X61.1728 Y36.8095
G01 X61.2175 Y36.8280
G01 X61.2982 Y36.8614
G01 X61.4110 Y36.9368
G01 X62.0351 Y37.5609
G01 X62.1105 Y37.6737
G01 X62.1695 Y37.8156
G01 X62.1764 Y37.8290
G01 X62.1997 Y37.8683
G01 X62.2056 Y37.8772
G01 X62.2119 Y37.8857
G01 X62.2187 Y37.8940
G01 X62.2259 Y37.9019
G01 X62.2502 Y37.9266
G01 X62.2580 Y37.9336
G01 X62.2704 Y37.9432
G01 X62.2790 Y37.9491
G01 X62.2879 Y37.9546
G01 X62.2970 Y37.9596
G01 X62.3112 Y37.9664
G01 X62.3244 Y37.9752
G01 X62.3335 Y37.9805
G01 X62.3475 Y37.9877
G01 X62.3572 Y37.9918
G01 X62.3670 Y37.9955
G01 X62.3770 Y37.9987
G01 X62.4097 Y38.0067
G01 X62.4251 Y38.0098
G01 X62.4356 Y38.0111
G01 X62.4460 Y38.0120
G01 X62.4565 Y38.0123
G01 X62.4670 Y38.0121
G01 X62.4775 Y38.0114
G01 X62.4933 Y38.0094
G01 X62.5091 Y38.0097
G01 X62.5196 Y38.0093
G01 X62.5353 Y38.0077
G01 X62.5508 Y38.0049
G01 X62.5610 Y38.0025
G01 X62.5711 Y37.9995
G01 X62.6077 Y37.9864
G01 X62.6173 Y37.9821
G01 X62.6267 Y37.9774
G01 X62.6358 Y37.9722
G01 X62.6447 Y37.9666
G01 X62.6575 Y37.9573
G01 X62.6696 Y37.9472
G01 X62.6832 Y37.9388
G01 X62.6918 Y37.9328
G01 X62.7001 Y37.9264
G01 X62.7119 Y37.9160
G01 X62.7229 Y37.9047
G01 X62.7331 Y37.8926
G01 X62.7399 Y37.8833
G01 X62.7504 Y37.8702
G01 X62.7564 Y37.8616
G01 X62.7620 Y37.8527
G01 X62.7695 Y37.8388
G01 X62.7760 Y37.8244
G01 X62.7797 Y37.8146
G01 X62.7844 Y37.7995
G01 X62.7933 Y37.7803
G01 X62.7971 Y37.7705
G01 X62.8003 Y37.7605
G01 X62.8043 Y37.7452
G01 X62.8071 Y37.7297
G01 X62.8083 Y37.7193
G01 X62.8109 Y37.6880
G01 X62.8111 Y33.9244
G01 X62.8105 Y33.9074
G01 X62.8071 Y33.8754
G01 X62.8049 Y33.8600
G01 X62.8027 Y33.8498
G01 X62.8001 Y33.8397
G01 X62.7970 Y33.8298
G01 X62.7934 Y33.8201
G01 X62.7894 Y33.8105
G01 X62.7849 Y33.8012
G01 X62.7465 Y33.7309
G01 X62.7356 Y33.7139
G01 X62.7264 Y33.7019
G01 X62.7128 Y33.6870
G01 X62.2049 Y33.1790
G01 X62.1924 Y33.1675
G01 X62.1591 Y33.1410
G01 X62.1506 Y33.1350
G01 X62.1372 Y33.1270
G01 X62.1280 Y33.1222
G01 X62.1186 Y33.1178
G01 X62.1090 Y33.1139
G01 X62.0992 Y33.1105
G01 X62.0174 Y33.0867
G01 X61.9976 Y33.0829
G01 X61.9826 Y33.0813
G01 X61.9726 Y33.0808
G01 X59.3221 Y33.0808
G01 X59.3099 Y33.0812
G01 X59.2946 Y33.0826
G01 X59.2795 Y33.0851
G01 X59.2646 Y33.0886
G01 X59.2499 Y33.0933
G01 X59.1747 Y33.1203
G01 X59.1610 Y33.1266
G01 X59.1477 Y33.1338
G01 X59.1350 Y33.1419
G01 X59.1209 Y33.1521
G01 X58.9962 Y33.2156
G01 X58.8631 Y33.2589
G01 X58.7250 Y33.2807
G01 X57.7850 Y33.2807
G01 X57.6469 Y33.2589
G01 X57.5138 Y33.2156
G01 X57.3891 Y33.1521
G01 X57.2759 Y33.0699
G01 X57.1770 Y32.9709
G01 X57.0948 Y32.8577
G01 X57.0313 Y32.7331
G01 X56.9880 Y32.6000
G01 X56.9661 Y32.4618
G01 X56.9661 Y32.3219
G01 X56.9880 Y32.1837
G01 X57.0313 Y32.0507
G01 X57.0948 Y31.9260
G01 X57.1770 Y31.8128
G01 X57.2759 Y31.7139
G01 X57.3891 Y31.6317
G01 X57.5138 Y31.5681
G01 X57.6469 Y31.5249
G01 X57.7850 Y31.5030
G01 X58.7250 Y31.5030
G01 X58.8631 Y31.5249
G01 X58.9962 Y31.5681
G01 X59.1209 Y31.6317
G01 X59.1358 Y31.6424
G01 X59.1502 Y31.6520
G01 X59.1635 Y31.6595
G01 X59.1774 Y31.6661
G01 X59.1965 Y31.6732
G01 X59.2734 Y31.6958
G01 X59.2930 Y31.7001
G01 X59.3030 Y31.7015
G01 X59.3181 Y31.7028
G01 X62.4597 Y31.7030
G01 X62.5928 Y31.7295
G01 X62.6375 Y31.7480
G01 X62.7182 Y31.7814
G01 X62.8310 Y31.8568
G01 X64.0351 Y33.0609
G01 X64.1105 Y33.1737
G01 X64.1624 Y33.2991
G01 X64.1889 Y33.4321
G01 X64.1889 Y61.0679
G01 X64.1624 Y61.2009
G01 X64.1304 Y61.2781
G01 X64.1105 Y61.3263
G01 X64.0351 Y61.4391
G01 X61.7872 Y63.6870
G01 X61.7794 Y63.6953
G01 X61.7720 Y63.7039
G01 X61.7522 Y63.7286
G01 X61.7461 Y63.7370
G01 X61.7377 Y63.7501
G01 X61.7303 Y63.7639
G01 X61.7239 Y63.7781
G01 X61.7186 Y63.7927
G01 X61.6948 Y63.8745
G01 X61.6918 Y63.8893
G01 X61.6894 Y63.9093
G01 X61.6889 Y63.9244
G01 X61.6889 Y64.5679
G01 X61.6624 Y64.7009
G01 X61.6105 Y64.8263
G01 X61.5351 Y64.9391
G01 X61.4391 Y65.0351
G01 X61.3263 Y65.1105
G01 X61.2009 Y65.1624
G01 X61.0678 Y65.1889
G01 X54.4321 Y65.1889
G01 X54.2991 Y65.1624
G01 X54.1737 Y65.1105
G01 X54.0609 Y65.0351
G01 X43.4649 Y54.4391
G01 X43.3895 Y54.3263
G01 X43.3376 Y54.2009
G01 X43.3111 Y54.0678
G01 X43.3111 Y53.4187
G01 X43.3099 Y53.4017
G01 X43.3065 Y53.3702
G01 X43.3039 Y53.3549
G01 X43.3001 Y53.3397
G01 X43.2970 Y53.3298
G01 X43.2934 Y53.3201
G01 X43.2894 Y53.3105
G01 X43.2849 Y53.3012
G01 X43.2465 Y53.2309
G01 X43.2385 Y53.2181
G01 X43.2326 Y53.2099
G01 X43.2231 Y53.1981
G01 X43.2128 Y53.1870
G01 X43.0449 Y53.0191
G01 X42.9695 Y52.9063
G01 X42.9176 Y52.7809
G01 X42.8911 Y52.6478
G01 X42.8911 Y34.0608
G01 X42.8905 Y34.0438
G01 X42.8865 Y34.0066
G01 X42.8839 Y33.9913
G01 X42.8801 Y33.9761
G01 X42.8753 Y33.9613
G01 X42.8694 Y33.9469
G01 X42.8624 Y33.9330
G01 X42.8289 Y33.8716
G01 X42.8212 Y33.8587
G01 X42.8156 Y33.8503
G01 X42.8064 Y33.8383
G01 X42.7964 Y33.8270
G01 X42.7113 Y33.7419
G01 X42.6054 Y33.5961
G01 X42.5989 Y33.5851
G01 X42.5901 Y33.5725
G01 X42.5804 Y33.5605
G01 X42.5414 Y33.5154
G01 X42.5310 Y33.5043
G01 X42.5160 Y33.4906
G01 X42.5038 Y33.4813
G01 X42.4954 Y33.4757
G01 X42.4867 Y33.4704
G01 X42.4732 Y33.4633
G01 X42.4545 Y33.4554
G01 X42.3836 Y33.4311
G01 X42.3736 Y33.4280
G01 X42.3634 Y33.4254
G01 X42.3479 Y33.4223
G01 X42.3375 Y33.4210
G01 X42.3218 Y33.4199
G01 X42.3060 Y33.4200
G01 X42.2955 Y33.4208
G01 X42.2851 Y33.4220
G01 X42.2696 Y33.4248
G01 X42.1966 Y33.4428
G01 X42.1815 Y33.4472
G01 X42.1716 Y33.4507
G01 X42.1619 Y33.4547
G01 X42.1477 Y33.4616
G01 X42.1385 Y33.4668
G01 X42.1297 Y33.4724
G01 X42.1169 Y33.4817
G01 X42.1049 Y33.4919
G01 X42.0973 Y33.4992
G01 X42.0457 Y33.5537
G01 X42.0357 Y33.5651
G01 X42.0237 Y33.5812
G01 X42.0146 Y33.5961
G01 X41.9087 Y33.7419
G01 X41.7819 Y33.8687
G01 X41.6369 Y33.9740
G01 X41.4772 Y34.0554
G01 X41.3067 Y34.1108
G01 X41.1296 Y34.1389
G01 X40.9504 Y34.1389
G01 X40.7733 Y34.1108
G01 X40.6028 Y34.0554
G01 X40.4431 Y33.9740
G01 X40.2981 Y33.8687
G01 X40.1713 Y33.7419
G01 X40.0655 Y33.5962
G01 X40.0558 Y33.5803
G01 X40.0435 Y33.5638
G01 X40.0011 Y33.5149
G01 X39.9907 Y33.5037
G01 X39.9834 Y33.4967
G01 X39.9717 Y33.4869
G01 X39.9594 Y33.4779
G01 X39.9508 Y33.4724
G01 X39.9330 Y33.4628
G01 X39.9190 Y33.4566
G01 X39.8383 Y33.4290
G01 X39.8231 Y33.4248
G01 X39.8128 Y33.4227
G01 X39.7972 Y33.4204
G01 X39.7815 Y33.4194
G01 X39.7657 Y33.4195
G01 X39.7552 Y33.4202
G01 X39.7396 Y33.4223
G01 X39.7293 Y33.4243
G01 X39.6462 Y33.4450
G01 X39.6362 Y33.4483
G01 X39.6264 Y33.4521
G01 X39.6117 Y33.4588
G01 X39.5017 Y33.3488
G01 X39.5127 Y33.3180
G01 X39.5174 Y33.3032
G01 X39.5390 Y33.2173
G01 X39.5422 Y33.2020
G01 X39.5565 Y33.1041
G01 X39.5573 Y33.0937
G01 X39.5616 Y33.0000
G01 X39.5573 Y32.9063
G01 X39.5565 Y32.8959
G01 X39.5422 Y32.7980
G01 X39.5390 Y32.7827
G01 X39.5174 Y32.6968
G01 X39.5127 Y32.6820
G01 X39.5017 Y32.6512
G01 X39.6127 Y32.5401
G01 X39.6300 Y32.5469
G01 X39.6962 Y32.5694
G01 X39.7113 Y32.5739
G01 X39.7267 Y32.5773
G01 X39.7423 Y32.5796
G01 X39.7580 Y32.5806
G01 X39.7738 Y32.5805
G01 X39.7895 Y32.5792
G01 X39.7999 Y32.5777
G01 X39.8102 Y32.5757
G01 X39.8831 Y32.5577
G01 X39.8983 Y32.5534
G01 X39.9131 Y32.5479
G01 X39.9274 Y32.5413
G01 X39.9367 Y32.5364
G01 X39.9457 Y32.5310
G01 X39.9587 Y32.5220
G01 X39.9709 Y32.5121
G01 X39.9825 Y32.5014
G01 X40.0341 Y32.4468
G01 X40.0441 Y32.4355
G01 X40.0560 Y32.4193
G01 X40.0655 Y32.4038
G01 X40.1713 Y32.2581
G01 X40.2984 Y32.1310
G01 X40.3122 Y32.1196
G01 X40.3259 Y32.1064
G01 X40.3394 Y32.0916
G01 X40.3647 Y32.0606
G01 X40.3708 Y32.0518
G01 X40.3801 Y32.0370
G01 X40.3852 Y32.0278
G01 X40.3920 Y32.0136
G01 X40.3959 Y32.0039
G01 X40.4010 Y31.9890
G01 X40.4100 Y31.9527
G01 X40.4189 Y31.9220
G01 X40.4213 Y31.9123
G01 X40.4246 Y31.8924
G01 X40.4261 Y31.8723
G01 X40.4261 Y31.0245
G01 X40.4252 Y31.0044
G01 X40.4223 Y30.9844
G01 X40.4076 Y30.9177
G01 X40.4029 Y30.9026
G01 X40.3991 Y30.8927
G01 X40.3949 Y30.8830
G01 X40.3901 Y30.8736
G01 X40.3849 Y30.8643
G01 X40.3793 Y30.8554
G01 X40.3732 Y30.8468
G01 X40.3667 Y30.8384
G01 X40.3140 Y30.7777
G01 X40.3030 Y30.7664
G01 X40.2951 Y30.7594
G01 X40.2870 Y30.7527
G01 X40.2785 Y30.7465
G01 X40.2697 Y30.7407
G01 X40.2607 Y30.7354
G01 X40.2467 Y30.7282
G01 X40.2370 Y30.7240
G01 X40.2272 Y30.7203
G01 X40.2172 Y30.7171
G01 X40.1404 Y30.6948
G01 X40.1206 Y30.6910
G01 X40.1006 Y30.6891
G01 X37.9721 Y30.6889
G01 X37.8391 Y30.6624
G01 X37.7137 Y30.6105
G01 X37.6009 Y30.5351
G01 X36.8530 Y29.7872
G01 X36.8405 Y29.7756
G01 X36.8155 Y29.7554
G01 X36.8072 Y29.7491
G01 X36.7987 Y29.7432
G01 X36.7853 Y29.7351
G01 X36.7715 Y29.7281
G01 X36.7619 Y29.7239
G01 X36.7522 Y29.7203
G01 X36.7423 Y29.7171
G01 X36.6655 Y29.6948
G01 X36.6458 Y29.6910
G01 X36.6257 Y29.6891
G01 X16.9321 Y29.6889
G01 X16.7991 Y29.6624
G01 X16.6737 Y29.6105
G01 X16.5609 Y29.5351
G01 X14.4649 Y27.4391
G01 X14.3895 Y27.3263
G01 X14.3376 Y27.2009
G01 X14.3111 Y27.0678
G01 X14.3111 Y25.0608
G01 X14.3105 Y25.0438
G01 X14.3065 Y25.0066
G01 X14.3039 Y24.9913
G01 X14.2985 Y24.9696
G01 X14.2954 Y24.9594
G01 X14.2898 Y24.9444
G01 X14.2855 Y24.9347
G01 X14.2807 Y24.9252
G01 X14.2753 Y24.9159
G01 X14.2600 Y24.8919
G01 X14.2439 Y24.8629
G01 X14.2326 Y24.8462
G01 X14.2231 Y24.8345
G01 X14.2164 Y24.8270
G01 X14.1313 Y24.7419
G01 X14.0255 Y24.5962
G01 X14.0158 Y24.5803
G01 X14.0067 Y24.5678
G01 X13.9543 Y24.5074
G01 X13.9396 Y24.4933
G01 X13.9236 Y24.4808
G01 X13.9108 Y24.4724
G01 X13.8975 Y24.4650
G01 X13.8837 Y24.4586
G01 X13.8695 Y24.4531
G01 X13.7933 Y24.4274
G01 X13.7780 Y24.4237
G01 X13.7676 Y24.4218
G01 X13.7572 Y24.4204
G01 X13.7467 Y24.4196
G01 X13.7310 Y24.4193
G01 X13.7205 Y24.4198
G01 X13.7048 Y24.4214
G01 X13.6893 Y24.4243
G01 X13.6062 Y24.4450
G01 X13.5962 Y24.4483
G01 X13.5864 Y24.4521
G01 X13.5717 Y24.4588
G00 Z2.0000
G00 X13.8428 Y23.7862
G01 F60.00
G01 Z-0.0800
G01 F120.00
G01 X13.8295 Y23.8766
G01 X13.8274 Y23.9006
G01 X13.8233 Y23.9840
G01 X13.8229 Y24.0000
G01 X13.8233 Y24.0160
G01 X13.8274 Y24.0994
G01 X13.8286 Y24.1154
G01 X13.8306 Y24.1313
G01 X13.8428 Y24.2138
G01 X13.8455 Y24.2296
G01 X13.8491 Y24.2453
G01 X13.8707 Y24.3316
G01 X13.8329 Y24.3188
G01 X13.8172 Y24.3143
G01 X13.8014 Y24.3106
G01 X13.7774 Y24.3066
G01 X13.7612 Y24.3049
G01 X13.7450 Y24.3040
G01 X13.7288 Y24.3039
G01 X13.7125 Y24.3046
G01 X13.6964 Y24.3061
G01 X13.6803 Y24.3084
G01 X13.6564 Y24.3134
G01 X13.6028 Y24.3267
G01 X13.5930 Y24.3169
G01 X13.6109 Y24.2453
G01 X13.6145 Y24.2296
G01 X13.6172 Y24.2138
G01 X13.6305 Y24.1234
G01 X13.6326 Y24.0994
G01 X13.6367 Y24.0160
G01 X13.6370 Y23.9920
G01 X13.6326 Y23.9006
G01 X13.6314 Y23.8846
G01 X13.6294 Y23.8687
G01 X13.6172 Y23.7862
G01 X13.6145 Y23.7704
G01 X13.6109 Y23.7547
G01 X13.5930 Y23.6831
G01 X13.6029 Y23.6732
G01 X13.6266 Y23.6812
G01 X13.6423 Y23.6857
G01 X13.6581 Y23.6894
G01 X13.6741 Y23.6923
G01 X13.6902 Y23.6944
G01 X13.7064 Y23.6957
G01 X13.7226 Y23.6962
G01 X13.7389 Y23.6959
G01 X13.7631 Y23.6939
G01 X13.7872 Y23.6901
G01 X13.8031 Y23.6866
G01 X13.8703 Y23.6699
G01 X13.8473 Y23.7621
G01 X13.8428 Y23.7862
G00 Z2.0000
G00 X13.9570 Y23.8031
G01 F60.00
G01 Z-0.0800
G01 F120.00
G01 X13.9589 Y23.7924
G01 X13.9610 Y23.7827
G01 X13.9813 Y23.7018
G01 X13.9841 Y23.6918
G01 X13.9873 Y23.6820
G01 X14.0192 Y23.5937
G01 X14.0590 Y23.5088
G01 X14.0637 Y23.4995
G01 X14.0688 Y23.4905
G01 X14.1173 Y23.4102
G01 X14.1730 Y23.3347
G01 X14.1793 Y23.3265
G01 X14.1861 Y23.3186
G01 X14.2493 Y23.2493
G01 X14.3186 Y23.1861
G01 X14.3265 Y23.1793
G01 X14.3347 Y23.1730
G01 X14.4102 Y23.1173
G01 X14.4905 Y23.0688
G01 X14.4995 Y23.0637
G01 X14.5842 Y23.0234
G01 X14.5937 Y23.0192
G01 X14.6034 Y23.0154
G01 X14.6918 Y22.9841
G01 X14.7827 Y22.9610
G01 X14.7929 Y22.9588
G01 X14.8856 Y22.9447
G01 X14.8959 Y22.9435
G01 X14.9063 Y22.9427
G01 X15.0000 Y22.9384
G01 X15.0937 Y22.9427
G01 X15.1041 Y22.9435
G01 X15.1979 Y22.9571
G01 X15.2173 Y22.9610
G01 X15.3082 Y22.9841
G01 X15.3966 Y23.0154
G01 X15.4063 Y23.0192
G01 X15.4912 Y23.0590
G01 X15.5005 Y23.0637
G01 X15.5095 Y23.0688
G01 X15.5898 Y23.1173
G01 X15.6653 Y23.1730
G01 X15.6735 Y23.1793
G01 X15.7432 Y23.2421
G01 X15.7507 Y23.2493
G01 X15.7579 Y23.2568
G01 X15.8207 Y23.3265
G01 X15.8798 Y23.4059
G01 X15.8883 Y23.4190
G01 X15.9363 Y23.4995
G01 X15.9766 Y23.5842
G01 X15.9808 Y23.5937
G01 X15.9846 Y23.6034
G01 X16.0127 Y23.6820
G01 X16.0159 Y23.6918
G01 X16.0187 Y23.7018
G01 X16.0412 Y23.7929
G01 X16.0430 Y23.8031
G01 X16.0565 Y23.8959
G01 X16.0573 Y23.9063
G01 X16.0616 Y24.0000
G01 X16.0570 Y24.0989
G01 X16.0553 Y24.1144
G01 X16.0412 Y24.2071
G01 X16.0390 Y24.2173
G01 X16.0159 Y24.3082
G01 X15.9846 Y24.3966
G01 X15.9808 Y24.4063
G01 X15.9410 Y24.4912
G01 X15.9338 Y24.5050
G01 X15.8827 Y24.5898
G01 X15.8270 Y24.6653
G01 X15.8207 Y24.6735
G01 X15.8139 Y24.6814
G01 X15.7579 Y24.7432
G01 X15.7507 Y24.7507
G01 X15.7432 Y24.7579
G01 X15.6735 Y24.8207
G01 X15.6123 Y24.8664
G01 X15.6119 Y26.7466
G01 X17.2534 Y28.3882
G01 X37.0452 Y28.3882
G01 X37.1000 Y28.3911
G01 X37.1103 Y28.3924
G01 X37.1594 Y28.3999
G01 X37.2076 Y28.4117
G01 X37.2176 Y28.4145
G01 X37.2644 Y28.4310
G01 X37.2789 Y28.4368
G01 X37.3191 Y28.4557
G01 X37.3288 Y28.4606
G01 X37.3375 Y28.4655
G01 X37.3799 Y28.4913
G01 X37.4200 Y28.5207
G01 X37.4281 Y28.5270
G01 X37.4360 Y28.5338
G01 X37.4726 Y28.5674
G01 X38.2934 Y29.3882
G01 X49.0000 Y29.3882
G01 X49.0496 Y29.3903
G01 X49.0600 Y29.3911
G01 X49.0703 Y29.3924
G01 X49.1194 Y29.3999
G01 X49.1676 Y29.4117
G01 X49.1776 Y29.4145
G01 X49.2244 Y29.4310
G01 X49.2389 Y29.4368
G01 X49.2845 Y29.4583
G01 X49.2975 Y29.4655
G01 X49.3356 Y29.4884
G01 X49.3484 Y29.4973
G01 X49.3881 Y29.5270
G01 X49.4289 Y29.5637
G01 X51.4644 Y31.5992
G01 X51.5011 Y31.6400
G01 X51.5309 Y31.6797
G01 X51.5368 Y31.6882
G01 X51.5424 Y31.6970
G01 X51.5677 Y31.7397
G01 X51.5892 Y31.7845
G01 X51.5934 Y31.7940
G01 X51.5971 Y31.8037
G01 X51.6136 Y31.8505
G01 X51.6259 Y31.8986
G01 X51.6282 Y31.9088
G01 X51.6300 Y31.9190
G01 X51.6370 Y31.9681
G01 X51.6378 Y31.9785
G01 X51.6400 Y32.0281
G01 X51.6400 Y39.4000
G01 X57.3225 Y39.4000
G01 X57.3361 Y39.3878
G01 X57.3442 Y39.3812
G01 X57.3956 Y39.3430
G01 X57.4084 Y39.3342
G01 X57.4724 Y39.2961
G01 X57.5396 Y39.2641
G01 X57.5541 Y39.2583
G01 X57.6095 Y39.2384
G01 X57.6194 Y39.2352
G01 X57.6294 Y39.2324
G01 X57.6967 Y39.2158
G01 X57.7651 Y39.2054
G01 X57.7754 Y39.2041
G01 X57.7858 Y39.2034
G01 X57.8550 Y39.2002
G01 X58.6550 Y39.2002
G01 X58.7242 Y39.2034
G01 X58.7397 Y39.2047
G01 X58.8133 Y39.2158
G01 X58.8806 Y39.2324
G01 X58.8906 Y39.2352
G01 X58.9005 Y39.2384
G01 X58.9656 Y39.2620
G01 X59.0283 Y39.2914
G01 X59.0422 Y39.2986
G01 X59.0971 Y39.3315
G01 X59.1058 Y39.3370
G01 X59.1144 Y39.3430
G01 X59.1699 Y39.3845
G01 X59.2214 Y39.4308
G01 X59.2289 Y39.4380
G01 X59.2361 Y39.4455
G01 X59.2824 Y39.4970
G01 X59.3239 Y39.5525
G01 X59.3296 Y39.5606
G01 X59.3354 Y39.5697
G01 X59.3683 Y39.6247
G01 X59.3755 Y39.6386
G01 X59.4049 Y39.7013
G01 X59.4284 Y39.7664
G01 X59.4317 Y39.7763
G01 X59.4345 Y39.7863
G01 X59.4510 Y39.8535
G01 X59.4615 Y39.9220
G01 X59.4627 Y39.9323
G01 X59.4635 Y39.9427
G01 X59.4666 Y40.0119
G01 X59.4635 Y40.0811
G01 X59.4628 Y40.0907
G01 X59.4615 Y40.1017
G01 X59.4527 Y40.1610
G01 X59.4488 Y40.1804
G01 X59.4317 Y40.2475
G01 X59.4086 Y40.3128
G01 X59.4028 Y40.3273
G01 X59.3755 Y40.3852
G01 X59.3708 Y40.3945
G01 X59.3657 Y40.4035
G01 X59.3299 Y40.4628
G01 X59.3239 Y40.4713
G01 X59.2824 Y40.5268
G01 X59.2361 Y40.5783
G01 X59.2289 Y40.5858
G01 X59.2214 Y40.5930
G01 X59.1699 Y40.6393
G01 X59.1144 Y40.6808
G01 X59.1059 Y40.6867
G01 X59.0466 Y40.7226
G01 X59.0376 Y40.7277
G01 X59.0283 Y40.7324
G01 X58.9656 Y40.7617
G01 X58.9005 Y40.7853
G01 X58.8906 Y40.7886
G01 X58.8235 Y40.8056
G01 X58.8133 Y40.8079
G01 X58.8031 Y40.8097
G01 X58.7346 Y40.8196
G01 X58.6602 Y40.8235
G01 X57.8498 Y40.8235
G01 X57.7762 Y40.8197
G01 X57.7069 Y40.8097
G01 X57.6962 Y40.8078
G01 X57.6865 Y40.8056
G01 X57.6294 Y40.7913
G01 X57.6144 Y40.7870
G01 X57.5444 Y40.7617
G01 X57.4817 Y40.7324
G01 X57.4724 Y40.7277
G01 X57.4634 Y40.7226
G01 X57.4041 Y40.6867
G01 X57.3442 Y40.6425
G01 X57.3361 Y40.6359
G01 X57.3225 Y40.6237
G01 X51.0281 Y40.6237
G01 X51.0177 Y40.6235
G01 X50.9681 Y40.6208
G01 X50.9578 Y40.6195
G01 X50.9088 Y40.6120
G01 X50.8605 Y40.6001
G01 X50.8505 Y40.5974
G01 X50.8406 Y40.5941
G01 X50.7940 Y40.5771
G01 X50.7490 Y40.5561
G01 X50.7397 Y40.5515
G01 X50.7307 Y40.5464
G01 X50.6882 Y40.5206
G01 X50.6482 Y40.4912
G01 X50.6400 Y40.4848
G01 X50.6030 Y40.4517
G01 X50.5919 Y40.4408
G01 X50.5585 Y40.4040
G01 X50.5488 Y40.3918
G01 X50.5223 Y40.3561
G01 X50.5138 Y40.3430
G01 X50.4885 Y40.3003
G01 X50.4649 Y40.2508
G01 X50.4591 Y40.2363
G01 X50.4426 Y40.1895
G01 X50.4399 Y40.1795
G01 X50.4280 Y40.1312
G01 X50.4205 Y40.0822
G01 X50.4192 Y40.0719
G01 X50.4163 Y40.0171
G01 X50.4163 Y32.2816
G01 X48.7466 Y30.6118
G01 X41.5768 Y30.6118
G01 X41.5768 Y32.0852
G01 X41.6210 Y32.1117
G01 X41.6341 Y32.1202
G01 X41.7053 Y32.1730
G01 X41.7175 Y32.1827
G01 X41.7907 Y32.2493
G01 X41.8573 Y32.3225
G01 X41.8670 Y32.3347
G01 X41.9167 Y32.4017
G01 X41.9227 Y32.4102
G01 X41.9283 Y32.4190
G01 X41.9763 Y32.4995
G01 X42.0188 Y32.5890
G01 X42.0246 Y32.6034
G01 X42.0527 Y32.6820
G01 X42.0559 Y32.6918
G01 X42.0587 Y32.7018
G01 X42.0812 Y32.7929
G01 X42.0830 Y32.8031
G01 X42.0965 Y32.8959
G01 X42.1014 Y32.9896
G01 X42.1016 Y33.0000
G01 X42.1014 Y33.0104
G01 X42.0965 Y33.1041
G01 X42.0830 Y33.1969
G01 X42.0812 Y33.2071
G01 X42.0790 Y33.2173
G01 X42.0559 Y33.3082
G01 X42.0246 Y33.3966
G01 X42.0208 Y33.4063
G01 X42.0166 Y33.4158
G01 X41.9810 Y33.4912
G01 X41.9763 Y33.5005
G01 X41.9712 Y33.5095
G01 X41.9227 Y33.5898
G01 X41.8670 Y33.6653
G01 X41.8607 Y33.6735
G01 X41.8539 Y33.6814
G01 X41.7907 Y33.7507
G01 X41.7214 Y33.8139
G01 X41.7135 Y33.8207
G01 X41.7053 Y33.8270
G01 X41.6298 Y33.8827
G01 X41.5495 Y33.9312
G01 X41.5405 Y33.9363
G01 X41.4558 Y33.9766
G01 X41.4463 Y33.9808
G01 X41.3572 Y34.0130
G01 X41.3382 Y34.0187
G01 X41.2573 Y34.0390
G01 X41.2471 Y34.0412
G01 X41.2369 Y34.0430
G01 X41.1441 Y34.0565
G01 X41.0504 Y34.0614
G01 X41.0348 Y34.0616
G01 X40.9359 Y34.0565
G01 X40.9256 Y34.0553
G01 X40.8329 Y34.0412
G01 X40.7418 Y34.0187
G01 X40.7318 Y34.0159
G01 X40.6434 Y33.9846
G01 X40.6337 Y33.9808
G01 X40.6242 Y33.9766
G01 X40.5488 Y33.9410
G01 X40.5395 Y33.9363
G01 X40.5305 Y33.9312
G01 X40.4502 Y33.8827
G01 X40.3747 Y33.8270
G01 X40.3665 Y33.8207
G01 X40.3586 Y33.8139
G01 X40.2893 Y33.7507
G01 X40.2261 Y33.6814
G01 X40.2193 Y33.6735
G01 X40.2130 Y33.6653
G01 X40.1573 Y33.5898
G01 X40.1088 Y33.5095
G01 X40.1037 Y33.5005
G01 X40.0990 Y33.4912
G01 X40.0634 Y33.4158
G01 X40.0592 Y33.4063
G01 X40.0554 Y33.3966
G01 X40.0240 Y33.3078
G01 X40.0010 Y33.2173
G01 X39.9988 Y33.2071
G01 X39.9970 Y33.1969
G01 X39.9835 Y33.1041
G01 X39.9786 Y33.0104
G01 X39.9784 Y33.0000
G01 X39.9786 Y32.9896
G01 X39.9835 Y32.8959
G01 X39.9970 Y32.8031
G01 X39.9989 Y32.7924
G01 X40.0213 Y32.7018
G01 X40.0241 Y32.6918
G01 X40.0273 Y32.6820
G01 X40.0554 Y32.6034
G01 X40.0612 Y32.5890
G01 X40.1037 Y32.4995
G01 X40.1517 Y32.4190
G01 X40.1573 Y32.4102
G01 X40.1633 Y32.4017
G01 X40.2130 Y32.3347
G01 X40.2227 Y32.3225
G01 X40.2893 Y32.2493
G01 X40.3625 Y32.1827
G01 X40.3747 Y32.1730
G01 X40.4459 Y32.1202
G01 X40.4590 Y32.1117
G01 X40.5031 Y32.0853
G01 X40.5032 Y30.6118
G01 X38.0400 Y30.6118
G01 X37.9904 Y30.6097
G01 X37.9800 Y30.6089
G01 X37.9697 Y30.6076
G01 X37.9206 Y30.6001
G01 X37.8674 Y30.5869
G01 X37.8525 Y30.5822
G01 X37.8059 Y30.5653
G01 X37.7609 Y30.5443
G01 X37.7516 Y30.5396
G01 X37.7425 Y30.5345
G01 X37.7001 Y30.5087
G01 X37.6600 Y30.4793
G01 X37.6519 Y30.4730
G01 X37.6440 Y30.4662
G01 X37.6074 Y30.4326
G01 X36.7866 Y29.6118
G01 X17.0000 Y29.6118
G01 X16.9504 Y29.6097
G01 X16.9400 Y29.6089
G01 X16.9297 Y29.6076
G01 X16.8806 Y29.6001
G01 X16.8324 Y29.5883
G01 X16.8224 Y29.5855
G01 X16.8125 Y29.5822
G01 X16.7659 Y29.5653
G01 X16.7209 Y29.5443
G01 X16.7116 Y29.5396
G01 X16.6689 Y29.5143
G01 X16.6601 Y29.5087
G01 X16.6516 Y29.5027
G01 X16.6119 Y29.4730
G01 X16.5711 Y29.4363
G01 X14.5674 Y27.4326
G01 X14.5338 Y27.3960
G01 X14.5270 Y27.3881
G01 X14.4973 Y27.3484
G01 X14.4913 Y27.3399
G01 X14.4857 Y27.3311
G01 X14.4655 Y27.2975
G01 X14.4580 Y27.2838
G01 X14.4368 Y27.2389
G01 X14.4310 Y27.2244
G01 X14.4145 Y27.1776
G01 X14.4022 Y27.1295
G01 X14.3990 Y27.1143
G01 X14.3917 Y27.0651
G01 X14.3903 Y27.0496
G01 X14.3882 Y27.0052
G01 X14.3882 Y24.8667
G01 X14.3265 Y24.8207
G01 X14.2568 Y24.7579
G01 X14.2493 Y24.7507
G01 X14.2421 Y24.7432
G01 X14.1793 Y24.6735
G01 X14.1730 Y24.6653
G01 X14.1173 Y24.5898
G01 X14.0688 Y24.5095
G01 X14.0637 Y24.5005
G01 X14.0590 Y24.4912
G01 X14.0192 Y24.4063
G01 X13.9870 Y24.3172
G01 X13.9813 Y24.2982
G01 X13.9588 Y24.2071
G01 X13.9447 Y24.1144
G01 X13.9435 Y24.1041
G01 X13.9386 Y24.0104
G01 X13.9384 Y24.0000
G01 X13.9386 Y23.9896
G01 X13.9435 Y23.8959
G01 X13.9570 Y23.8031
G00 Z2.0000
G00 X14.0712 Y23.8201
G01 F60.00
G01 Z-0.0800
G01 F120.00
G01 X14.0730 Y23.8108
G01 X14.0933 Y23.7299
G01 X14.0960 Y23.7208
G01 X14.1258 Y23.6379
G01 X14.1655 Y23.5540
G01 X14.2133 Y23.4743
G01 X14.2657 Y23.4035
G01 X14.2717 Y23.3962
G01 X14.3309 Y23.3309
G01 X14.3962 Y23.2717
G01 X14.4035 Y23.2657
G01 X14.4743 Y23.2133
G01 X14.5540 Y23.1655
G01 X14.6336 Y23.1277
G01 X14.6423 Y23.1241
G01 X14.7253 Y23.0945
G01 X14.8154 Y23.0720
G01 X14.9026 Y23.0589
G01 X14.9120 Y23.0580
G01 X15.0000 Y23.0538
G01 X15.0927 Y23.0584
G01 X15.1804 Y23.0712
G01 X15.1892 Y23.0730
G01 X15.2747 Y23.0945
G01 X15.3621 Y23.1258
G01 X15.4418 Y23.1634
G01 X15.4501 Y23.1679
G01 X15.5257 Y23.2133
G01 X15.6003 Y23.2686
G01 X15.6691 Y23.3309
G01 X15.7283 Y23.3962
G01 X15.7343 Y23.4035
G01 X15.7867 Y23.4743
G01 X15.8345 Y23.5540
G01 X15.8742 Y23.6379
G01 X15.9055 Y23.7253
G01 X15.9270 Y23.8108
G01 X15.9288 Y23.8201
G01 X15.9411 Y23.9026
G01 X15.9420 Y23.9120
G01 X15.9462 Y24.0000
G01 X15.9416 Y24.0927
G01 X15.9280 Y24.1846
G01 X15.9067 Y24.2701
G01 X15.9040 Y24.2792
G01 X15.8742 Y24.3621
G01 X15.8366 Y24.4418
G01 X15.8321 Y24.4501
G01 X15.7880 Y24.5237
G01 X15.7314 Y24.6003
G01 X15.6674 Y24.6707
G01 X15.5984 Y24.7329
G01 X15.5276 Y24.7854
G01 X15.4969 Y24.8041
G01 X15.4964 Y26.7944
G01 X17.2056 Y28.5036
G01 X37.0424 Y28.5036
G01 X37.0887 Y28.5060
G01 X37.1368 Y28.5131
G01 X37.1841 Y28.5250
G01 X37.2256 Y28.5397
G01 X37.2343 Y28.5433
G01 X37.2698 Y28.5601
G01 X37.2781 Y28.5645
G01 X37.3158 Y28.5873
G01 X37.3549 Y28.6163
G01 X37.3910 Y28.6490
G01 X38.2456 Y29.5036
G01 X49.0000 Y29.5036
G01 X49.0487 Y29.5060
G01 X49.0968 Y29.5131
G01 X49.1441 Y29.5250
G01 X49.1856 Y29.5397
G01 X49.1943 Y29.5433
G01 X49.2342 Y29.5623
G01 X49.2758 Y29.5873
G01 X49.3149 Y29.6163
G01 X49.3493 Y29.6473
G01 X51.3808 Y31.6788
G01 X51.4118 Y31.7132
G01 X51.4381 Y31.7485
G01 X51.4434 Y31.7563
G01 X51.4659 Y31.7941
G01 X51.4848 Y31.8338
G01 X51.4884 Y31.8426
G01 X51.5031 Y31.8840
G01 X51.5145 Y31.9290
G01 X51.5221 Y31.9795
G01 X51.5245 Y32.0281
G01 X51.5245 Y39.5155
G01 X57.3671 Y39.5155
G01 X57.4133 Y39.4737
G01 X57.4682 Y39.4330
G01 X57.5268 Y39.3979
G01 X57.5843 Y39.3706
G01 X57.5930 Y39.3670
G01 X57.6484 Y39.3471
G01 X57.6575 Y39.3444
G01 X57.7192 Y39.3291
G01 X57.7821 Y39.3196
G01 X57.7915 Y39.3187
G01 X57.8550 Y39.3157
G01 X58.6550 Y39.3157
G01 X58.7232 Y39.3190
G01 X58.7908 Y39.3291
G01 X58.8525 Y39.3444
G01 X58.8616 Y39.3471
G01 X58.9214 Y39.3687
G01 X58.9790 Y39.3958
G01 X58.9873 Y39.4002
G01 X59.0378 Y39.4305
G01 X59.0456 Y39.4357
