(G-CODE GENERATED BY FLATCAM v8.994 - www.flatcam.org - Version Date: 2020/11/7)

(Name: qtkiln-PTH.drl_cnc)
(Type: G-code from Geometry)
(Units: MM)

(Created on Monday, 28 April 2025 at 16:24)

(This preprocessor is the default preprocessor used by FlatCAM.)
(It is made to work with MACH3 compatible motion controllers.)


(TOOLS DIAMETER: )
(Tool: 1 -> Dia: 0.7)
(Tool: 2 -> Dia: 0.8)
(Tool: 3 -> Dia: 1.0)

(FEEDRATE Z: )
(Tool: 1 -> Feedrate: 60.0)
(Tool: 2 -> Feedrate: 60.0)
(Tool: 3 -> Feedrate: 60.0)

(FEEDRATE RAPIDS: )
(Tool: 1 -> Feedrate Rapids: 1500)
(Tool: 2 -> Feedrate Rapids: 1500)
(Tool: 3 -> Feedrate Rapids: 1500)

(Z_CUT: )
(Tool: 1 -> Z_Cut: -2.4)
(Tool: 2 -> Z_Cut: -2.4)
(Tool: 3 -> Z_Cut: -2.4)

(Tools Offset: )
(Tool: 1 -> Offset Z: 0.0)
(Tool: 2 -> Offset Z: 0.0)
(Tool: 3 -> Offset Z: 0.0)

(Z_MOVE: )
(Tool: 1 -> Z_Move: 2)
(Tool: 2 -> Z_Move: 2)
(Tool: 3 -> Z_Move: 2)

(Z Toolchange: 15 mm)
(X,Y Toolchange: 0.0000, 0.0000 mm)
(Z Start: None mm)
(Z End: 0.5 mm)
(X,Y End: None mm)
(Steps per circle: 64)
(Preprocessor Excellon: default)

(X range:    6.8800 ...  128.5000  mm)
(Y range:    5.0000 ...   58.1920  mm)

(Spindle Speed: 0 RPM)
G21
G90
G94

G01 F60.00

M5
G00 Z15.0000
T1
G00 X0.0000 Y0.0000                
M6
(MSG, Change to Tool Dia = 0.7000 ||| Total drills for tool T1 = 93)
M0
G00 Z15.0000

G01 F60.00
M03
G00 X116.0800 Y43.0000
G01 Z-2.4000
G01 Z0
G00 Z2.0000
G00 X111.0000 Y43.0000
G01 Z-2.4000
G01 Z0
G00 Z2.0000
G00 X109.5000 Y48.0000
G01 Z-2.4000
G01 Z0
G00 Z2.0000
G00 X113.5000 Y48.0000
G01 Z-2.4000
G01 Z0
G00 Z2.0000
G00 X113.5000 Y53.0800
G01 Z-2.4000
G01 Z0
G00 Z2.0000
G00 X120.0000 Y52.0400
G01 Z-2.4000
G01 Z0
G00 Z2.0000
G00 X120.0000 Y49.5000
G01 Z-2.4000
G01 Z0
G00 Z2.0000
G00 X120.0000 Y46.9600
G01 Z-2.4000
G01 Z0
G00 Z2.0000
G00 X128.0000 Y50.0000
G01 Z-2.4000
G01 Z0
G00 Z2.0000
G00 X128.0000 Y47.4600
G01 Z-2.4000
G01 Z0
G00 Z2.0000
G00 X128.0000 Y33.0400
G01 Z-2.4000
G01 Z0
G00 Z2.0000
G00 X128.0000 Y30.5000
G01 Z-2.4000
G01 Z0
G00 Z2.0000
G00 X128.0000 Y16.8990
G01 Z-2.4000
G01 Z0
G00 Z2.0000
G00 X128.0000 Y14.3590
G01 Z-2.4000
G01 Z0
G00 Z2.0000
G00 X119.3600 Y13.9600
G01 Z-2.4000
G01 Z0
G00 Z2.0000
G00 X119.3600 Y16.5000
G01 Z-2.4000
G01 Z0
G00 Z2.0000
G00 X119.3600 Y19.0400
G01 Z-2.4000
G01 Z0
G00 Z2.0000
G00 X112.8080 Y20.5980
G01 Z-2.4000
G01 Z0
G00 Z2.0000
G00 X112.8080 Y15.5180
G01 Z-2.4000
G01 Z0
G00 Z2.0000
G00 X114.4110 Y11.8590
G01 Z-2.4000
G01 Z0
G00 Z2.0000
G00 X109.3310 Y11.8590
G01 Z-2.4000
G01 Z0
G00 Z2.0000
G00 X107.9180 Y15.5000
G01 Z-2.4000
G01 Z0
G00 Z2.0000
G00 X102.8380 Y15.5000
G01 Z-2.4000
G01 Z0
G00 Z2.0000
G00 X83.6550 Y29.8520
G01 Z-2.4000
G01 Z0
G00 Z2.0000
G00 X83.6550 Y27.3120
G01 Z-2.4000
G01 Z0
G00 Z2.0000
G00 X83.6550 Y24.7720
G01 Z-2.4000
G01 Z0
G00 Z2.0000
G00 X83.6550 Y22.2320
G01 Z-2.4000
G01 Z0
G00 Z2.0000
G00 X83.6550 Y19.6920
G01 Z-2.4000
G01 Z0
G00 Z2.0000
G00 X83.6550 Y17.1520
G01 Z-2.4000
G01 Z0
G00 Z2.0000
G00 X83.6550 Y14.6120
G01 Z-2.4000
G01 Z0
G00 Z2.0000
G00 X83.6550 Y12.0720
G01 Z-2.4000
G01 Z0
G00 Z2.0000
G00 X80.0400 Y5.5000
G01 Z-2.4000
G01 Z0
G00 Z2.0000
G00 X77.5000 Y5.5000
G01 Z-2.4000
G01 Z0
G00 Z2.0000
G00 X58.2590 Y12.0750
G01 Z-2.4000
G01 Z0
G00 Z2.0000
G00 X58.2590 Y14.6150
G01 Z-2.4000
G01 Z0
G00 Z2.0000
G00 X58.2550 Y17.1520
G01 Z-2.4000
G01 Z0
G00 Z2.0000
G00 X58.2550 Y19.6920
G01 Z-2.4000
G01 Z0
G00 Z2.0000
G00 X58.2550 Y22.2320
G01 Z-2.4000
G01 Z0
G00 Z2.0000
G00 X58.2550 Y24.7720
G01 Z-2.4000
G01 Z0
G00 Z2.0000
G00 X58.2550 Y27.3120
G01 Z-2.4000
G01 Z0
G00 Z2.0000
G00 X58.2550 Y29.8520
G01 Z-2.4000
G01 Z0
G00 Z2.0000
G00 X20.0800 Y24.0000
G01 Z-2.4000
G01 Z0
G00 Z2.0000
G00 X17.5400 Y24.0000
G01 Z-2.4000
G01 Z0
G00 Z2.0000
G00 X15.0000 Y24.0000
G01 Z-2.4000
G01 Z0
G00 Z2.0000
G00 X12.4600 Y24.0000
G01 Z-2.4000
G01 Z0
G00 Z2.0000
G00 X9.9200 Y24.0000
G01 Z-2.4000
G01 Z0
G00 Z2.0000
G00 X7.3800 Y24.0000
G01 Z-2.4000
G01 Z0
G00 Z2.0000
G00 X33.4200 Y33.0000
G01 Z-2.4000
G01 Z0
G00 Z2.0000
G00 X35.9600 Y33.0000
G01 Z-2.4000
G01 Z0
G00 Z2.0000
G00 X38.5000 Y33.0000
G01 Z-2.4000
G01 Z0
G00 Z2.0000
G00 X41.0400 Y33.0000
G01 Z-2.4000
G01 Z0
G00 Z2.0000
G00 X43.5800 Y33.0000
G01 Z-2.4000
G01 Z0
G00 Z2.0000
G00 X46.1200 Y33.0000
G01 Z-2.4000
G01 Z0
G00 Z2.0000
G00 X58.2550 Y32.3920
G01 Z-2.4000
G01 Z0
G00 Z2.0000
G00 X58.2550 Y34.9320
G01 Z-2.4000
G01 Z0
G00 Z2.0000
G00 X58.2550 Y37.4720
G01 Z-2.4000
G01 Z0
G00 Z2.0000
G00 X58.2550 Y40.0120
G01 Z-2.4000
G01 Z0
G00 Z2.0000
G00 X58.2550 Y42.5520
G01 Z-2.4000
G01 Z0
G00 Z2.0000
G00 X58.2550 Y45.0920
G01 Z-2.4000
G01 Z0
G00 Z2.0000
G00 X58.2550 Y47.6320
G01 Z-2.4000
G01 Z0
G00 Z2.0000
G00 X58.2550 Y50.1720
G01 Z-2.4000
G01 Z0
G00 Z2.0000
G00 X58.2550 Y52.7120
G01 Z-2.4000
G01 Z0
G00 Z2.0000
G00 X58.2550 Y55.2520
G01 Z-2.4000
G01 Z0
G00 Z2.0000
G00 X58.2550 Y57.7920
G01 Z-2.4000
G01 Z0
G00 Z2.0000
G00 X83.6550 Y32.3920
G01 Z-2.4000
G01 Z0
G00 Z2.0000
G00 X83.6550 Y34.9320
G01 Z-2.4000
G01 Z0
G00 Z2.0000
G00 X83.6550 Y37.4720
G01 Z-2.4000
G01 Z0
G00 Z2.0000
G00 X83.6550 Y40.0120
G01 Z-2.4000
G01 Z0
G00 Z2.0000
G00 X83.6550 Y42.5520
G01 Z-2.4000
G01 Z0
G00 Z2.0000
G00 X83.6550 Y45.0920
G01 Z-2.4000
G01 Z0
G00 Z2.0000
G00 X83.6550 Y47.6320
G01 Z-2.4000
G01 Z0
G00 Z2.0000
G00 X83.6550 Y50.1720
G01 Z-2.4000
G01 Z0
G00 Z2.0000
G00 X83.6550 Y52.7120
G01 Z-2.4000
G01 Z0
G00 Z2.0000
G00 X83.6550 Y55.2520
G01 Z-2.4000
G01 Z0
G00 Z2.0000
G00 X83.6550 Y57.7920
G01 Z-2.4000
G01 Z0
G00 Z2.0000
G00 X91.5000 Y56.5000
G01 Z-2.4000
G01 Z0
G00 Z2.0000
G00 X96.5800 Y56.5000
G01 Z-2.4000
G01 Z0
G00 Z2.0000
G00 X101.8300 Y56.9750
G01 Z-2.4000
G01 Z0
G00 Z2.0000
G00 X104.3700 Y56.9750
G01 Z-2.4000
G01 Z0
G00 Z2.0000
G00 X104.4200 Y48.0000
G01 Z-2.4000
G01 Z0
G00 Z2.0000
G00 X95.0000 Y47.6200
G01 Z-2.4000
G01 Z0
G00 Z2.0000
G00 X95.0000 Y45.0800
G01 Z-2.4000
G01 Z0
G00 Z2.0000
G00 X95.0000 Y42.5400
G01 Z-2.4000
G01 Z0
G00 Z2.0000
G00 X95.0000 Y40.0000
G01 Z-2.4000
G01 Z0
G00 Z2.0000
G00 X104.3390 Y31.7620
G01 Z-2.4000
G01 Z0
G00 Z2.0000
G00 X109.4190 Y31.7620
G01 Z-2.4000
G01 Z0
G00 Z2.0000
G00 X113.0000 Y31.6820
G01 Z-2.4000
G01 Z0
G00 Z2.0000
G00 X111.0000 Y27.0000
G01 Z-2.4000
G01 Z0
G00 Z2.0000
G00 X116.0800 Y27.0000
G01 Z-2.4000
G01 Z0
G00 Z2.0000
G00 X119.3600 Y30.4600
G01 Z-2.4000
G01 Z0
G00 Z2.0000
G00 X119.3600 Y33.0000
G01 Z-2.4000
G01 Z0
G00 Z2.0000
G00 X119.3600 Y35.5400
G01 Z-2.4000
G01 Z0
G00 Z2.0000
G00 X113.0000 Y36.7620
G01 Z-2.4000
G01 Z0
G00 Z2.0000
M05
G00 Z0.50

M30
