(G-CODE GENERATED BY FLATCAM v8.994 - www.flatcam.org - Version Date: 2020/11/7)

(Name: qtkiln-F_Cu.gbr_iso_combined_cnc)
(Type: G-code from Geometry)
(Units: MM)

(Created on Wednesday, 30 April 2025 at 17:55)

(This preprocessor is the default preprocessor used by FlatCAM.)
(It is made to work with MACH3 compatible motion controllers.)

(TOOL DIAMETER: 0.1924 mm)
(Feedrate_XY: 120.0 mm/min)
(Feedrate_Z: 60.0 mm/min)
(Feedrate rapids 1500.0 mm/min)

(Z_Cut: -0.08 mm)
(Z_Move: 2.0 mm)
(Z Start: None mm)
(Z End: 15.0 mm)
(X,Y End: None mm)
(Steps per circle: 64)
(Preprocessor Geometry: default)

(X range:    0.0580 ...  132.4420  mm)
(Y range:    0.0580 ...   66.4420  mm)

(Spindle Speed: 0.0 RPM)
G21
G90
G94

G01 F120.00

M5
G00 Z15.0000
G00 X0.0000 Y0.0000
T1
M6    
(MSG, Change to Tool Dia = 0.1924)
M0
G00 Z15.0000

M03
G01 F120.00
G00 X5.4462 Y13.5088
G01 F60.00
G01 Z-0.0800
G01 F120.00
G01 X5.4462 Y15.2112
G01 X5.4455 Y15.2206
G01 X5.4439 Y15.2299
G01 X5.4413 Y15.2390
G01 X5.4379 Y15.2478
G01 X5.4337 Y15.2563
G01 X5.4287 Y15.2642
G01 X5.4228 Y15.2717
G01 X5.4163 Y15.2785
G01 X5.4110 Y15.2832
G01 X5.4034 Y15.2888
G01 X5.3953 Y15.2937
G01 X5.3868 Y15.2977
G01 X5.3779 Y15.3009
G01 X5.3688 Y15.3032
G01 X5.3618 Y15.3043
G01 X5.3524 Y15.3050
G01 X3.6500 Y15.3050
G01 X3.6406 Y15.3046
G01 X3.6312 Y15.3032
G01 X3.6221 Y15.3009
G01 X3.6110 Y15.2968
G01 X3.6026 Y15.2925
G01 X3.5946 Y15.2875
G01 X3.5872 Y15.2817
G01 X3.5803 Y15.2752
G01 X3.5756 Y15.2699
G01 X3.5700 Y15.2623
G01 X3.5652 Y15.2542
G01 X3.5611 Y15.2457
G01 X3.5587 Y15.2390
G01 X3.5561 Y15.2299
G01 X3.5545 Y15.2206
G01 X3.5538 Y15.2112
G01 X3.5538 Y13.5088
G01 X3.5543 Y13.4994
G01 X3.5561 Y13.4878
G01 X3.5587 Y13.4787
G01 X3.5621 Y13.4699
G01 X3.5663 Y13.4614
G01 X3.5713 Y13.4534
G01 X3.5772 Y13.4460
G01 X3.5837 Y13.4392
G01 X3.5908 Y13.4330
G01 X3.5985 Y13.4276
G01 X3.6047 Y13.4240
G01 X3.6132 Y13.4200
G01 X3.6221 Y13.4168
G01 X3.6312 Y13.4145
G01 X3.6382 Y13.4134
G01 X3.6476 Y13.4127
G01 X5.3547 Y13.4128
G01 X5.3641 Y13.4137
G01 X5.3734 Y13.4155
G01 X5.3824 Y13.4183
G01 X5.3890 Y13.4209
G01 X5.3974 Y13.4251
G01 X5.4054 Y13.4302
G01 X5.4128 Y13.4360
G01 X5.4197 Y13.4425
G01 X5.4258 Y13.4497
G01 X5.4313 Y13.4574
G01 X5.4359 Y13.4656
G01 X5.4398 Y13.4742
G01 X5.4427 Y13.4832
G01 X5.4448 Y13.4924
G01 X5.4459 Y13.5018
G01 X5.4462 Y13.5088
G00 Z2.0000
G00 X5.5616 Y13.5088
G01 F60.00
G01 Z-0.0800
G01 F120.00
G01 X5.5616 Y15.2088
G01 X5.5614 Y15.2192
G01 X5.5606 Y15.2296
G01 X5.5593 Y15.2399
G01 X5.5576 Y15.2501
G01 X5.5553 Y15.2603
G01 X5.5525 Y15.2703
G01 X5.5493 Y15.2801
G01 X5.5455 Y15.2898
G01 X5.5413 Y15.2993
G01 X5.5366 Y15.3086
G01 X5.5315 Y15.3176
G01 X5.5260 Y15.3264
G01 X5.5200 Y15.3349
G01 X5.5136 Y15.3431
G01 X5.5068 Y15.3510
G01 X5.4997 Y15.3585
G01 X5.4921 Y15.3657
G01 X5.4843 Y15.3724
G01 X5.4761 Y15.3788
G01 X5.4632 Y15.3876
G01 X5.4498 Y15.3955
G01 X5.4405 Y15.4002
G01 X5.4310 Y15.4044
G01 X5.4213 Y15.4081
G01 X5.4114 Y15.4114
G01 X5.4014 Y15.4141
G01 X5.3913 Y15.4164
G01 X5.3759 Y15.4189
G01 X5.3656 Y15.4199
G01 X5.3552 Y15.4204
G01 X3.6500 Y15.4205
G01 X3.6396 Y15.4202
G01 X3.6293 Y15.4195
G01 X3.6189 Y15.4182
G01 X3.6087 Y15.4164
G01 X3.5986 Y15.4141
G01 X3.5886 Y15.4114
G01 X3.5738 Y15.4063
G01 X3.5642 Y15.4023
G01 X3.5548 Y15.3979
G01 X3.5457 Y15.3930
G01 X3.5368 Y15.3876
G01 X3.5281 Y15.3819
G01 X3.5157 Y15.3724
G01 X3.5079 Y15.3657
G01 X3.5003 Y15.3585
G01 X3.4932 Y15.3510
G01 X3.4864 Y15.3431
G01 X3.4800 Y15.3349
G01 X3.4712 Y15.3221
G01 X3.4659 Y15.3132
G01 X3.4610 Y15.3040
G01 X3.4565 Y15.2946
G01 X3.4525 Y15.2850
G01 X3.4475 Y15.2703
G01 X3.4447 Y15.2603
G01 X3.4424 Y15.2501
G01 X3.4400 Y15.2347
G01 X3.4389 Y15.2244
G01 X3.4384 Y15.2140
G01 X3.4384 Y13.5088
G01 X3.4389 Y13.4933
G01 X3.4400 Y13.4829
G01 X3.4415 Y13.4727
G01 X3.4435 Y13.4625
G01 X3.4460 Y13.4524
G01 X3.4490 Y13.4424
G01 X3.4525 Y13.4327
G01 X3.4565 Y13.4231
G01 X3.4610 Y13.4137
G01 X3.4659 Y13.4045
G01 X3.4712 Y13.3956
G01 X3.4770 Y13.3870
G01 X3.4864 Y13.3746
G01 X3.4932 Y13.3667
G01 X3.5003 Y13.3592
G01 X3.5079 Y13.3520
G01 X3.5157 Y13.3452
G01 X3.5239 Y13.3388
G01 X3.5368 Y13.3300
G01 X3.5502 Y13.3222
G01 X3.5595 Y13.3175
G01 X3.5690 Y13.3133
G01 X3.5787 Y13.3096
G01 X3.5886 Y13.3063
G01 X3.5986 Y13.3035
G01 X3.6087 Y13.3013
G01 X3.6241 Y13.2988
G01 X3.6344 Y13.2978
G01 X3.6448 Y13.2973
G01 X5.3500 Y13.2972
G01 X5.3656 Y13.2978
G01 X5.3759 Y13.2988
G01 X5.3862 Y13.3003
G01 X5.3964 Y13.3023
G01 X5.4064 Y13.3049
G01 X5.4213 Y13.3096
G01 X5.4310 Y13.3133
G01 X5.4405 Y13.3175
G01 X5.4498 Y13.3222
G01 X5.4588 Y13.3273
G01 X5.4676 Y13.3329
G01 X5.4761 Y13.3388
G01 X5.4843 Y13.3452
G01 X5.4921 Y13.3520
G01 X5.4997 Y13.3592
G01 X5.5068 Y13.3667
G01 X5.5136 Y13.3746
G01 X5.5200 Y13.3828
G01 X5.5288 Y13.3956
G01 X5.5341 Y13.4045
G01 X5.5390 Y13.4137
G01 X5.5435 Y13.4231
G01 X5.5475 Y13.4327
G01 X5.5525 Y13.4474
G01 X5.5553 Y13.4574
G01 X5.5576 Y13.4675
G01 X5.5593 Y13.4778
G01 X5.5606 Y13.4881
G01 X5.5614 Y13.4985
G01 X5.5616 Y13.5088
G00 Z2.0000
G00 X3.9532 Y15.5359
G01 F60.00
G01 Z-0.0800
G01 F120.00
G01 X5.0468 Y15.5359
G01 X4.8169 Y15.7658
G01 X4.7453 Y15.7479
G01 X4.7296 Y15.7444
G01 X4.7138 Y15.7416
G01 X4.6313 Y15.7294
G01 X4.6154 Y15.7274
G01 X4.5994 Y15.7262
G01 X4.5160 Y15.7222
G01 X4.5000 Y15.7218
G01 X4.4840 Y15.7222
G01 X4.4006 Y15.7262
G01 X4.3846 Y15.7274
G01 X4.3687 Y15.7294
G01 X4.2846 Y15.7419
G01 X4.2696 Y15.7445
G01 X4.2547 Y15.7479
G01 X4.1831 Y15.7658
G01 X3.9532 Y15.5359
G00 Z2.0000
G00 X3.3611 Y15.2454
G01 F60.00
G01 Z-0.0800
G01 F120.00
G01 X3.3611 Y13.4723
G01 X3.3635 Y13.4504
G01 X3.3939 Y13.3690
G01 X3.4436 Y13.3025
G01 X3.5101 Y13.2527
G01 X3.5916 Y13.2223
G01 X3.6135 Y13.2200
G01 X5.3865 Y13.2200
G01 X5.4084 Y13.2223
G01 X5.4899 Y13.2527
G01 X5.5564 Y13.3025
G01 X5.6061 Y13.3690
G01 X5.6365 Y13.4504
G01 X5.6389 Y13.4723
G01 X5.6389 Y15.2454
G01 X5.6365 Y15.2673
G01 X5.6061 Y15.3487
G01 X5.5564 Y15.4152
G01 X5.4899 Y15.4650
G01 X5.4084 Y15.4953
G01 X5.3864 Y15.4977
G01 X5.3722 Y15.4982
G01 X5.3622 Y15.4992
G01 X5.3423 Y15.5025
G01 X5.3277 Y15.5063
G01 X5.2557 Y15.5275
G01 X5.2410 Y15.5328
G01 X5.2268 Y15.5391
G01 X5.2131 Y15.5465
G01 X5.2000 Y15.5549
G01 X5.1916 Y15.5610
G01 X5.1668 Y15.5809
G01 X5.1582 Y15.5882
G01 X5.1500 Y15.5960
G01 X4.8488 Y15.8972
G01 X4.8180 Y15.8862
G01 X4.8032 Y15.8815
G01 X4.7173 Y15.8599
G01 X4.7020 Y15.8566
G01 X4.6041 Y15.8423
G01 X4.5937 Y15.8415
G01 X4.5000 Y15.8372
G01 X4.4063 Y15.8415
G01 X4.3959 Y15.8423
G01 X4.2972 Y15.8568
G01 X4.2827 Y15.8599
G01 X4.1968 Y15.8815
G01 X4.1820 Y15.8862
G01 X4.1512 Y15.8972
G01 X3.8500 Y15.5960
G01 X3.8351 Y15.5825
G01 X3.8190 Y15.5704
G01 X3.8018 Y15.5599
G01 X3.7359 Y15.5240
G01 X3.7218 Y15.5174
G01 X3.7072 Y15.5118
G01 X3.6973 Y15.5087
G01 X3.6873 Y15.5061
G01 X3.6771 Y15.5040
G01 X3.6668 Y15.5024
G01 X3.6297 Y15.4984
G01 X3.6136 Y15.4977
G01 X3.5916 Y15.4953
G01 X3.5101 Y15.4650
G01 X3.4436 Y15.4152
G01 X3.3939 Y15.3487
G01 X3.3635 Y15.2673
G01 X3.3611 Y15.2454
G00 Z2.0000
G00 X3.2457 Y15.2515
G01 F60.00
G01 Z-0.0800
G01 F120.00
G01 X3.2457 Y13.4661
G01 X3.2503 Y13.4236
G01 X3.2915 Y13.3131
G01 X3.3612 Y13.2200
G01 X3.4542 Y13.1503
G01 X3.5648 Y13.1091
G01 X3.6073 Y13.1045
G01 X5.3927 Y13.1045
G01 X5.4352 Y13.1091
G01 X5.5458 Y13.1503
G01 X5.6388 Y13.2200
G01 X5.7085 Y13.3131
G01 X5.7497 Y13.4237
G01 X5.7543 Y13.4661
G01 X5.7543 Y15.2516
G01 X5.7497 Y15.2940
G01 X5.7085 Y15.4046
G01 X5.6388 Y15.4977
G01 X5.5458 Y15.5673
G01 X5.4352 Y15.6086
G01 X5.3927 Y15.6131
G01 X5.3782 Y15.6136
G01 X5.3646 Y15.6158
G01 X5.2887 Y15.6382
G01 X5.2821 Y15.6407
G01 X5.2757 Y15.6438
G01 X5.2656 Y15.6499
G01 X5.2393 Y15.6707
G01 X5.2316 Y15.6776
G01 X4.8774 Y16.0318
G01 X4.8599 Y16.0238
G01 X4.7747 Y15.9934
G01 X4.6846 Y15.9708
G01 X4.5927 Y15.9572
G01 X4.5000 Y15.9526
G01 X4.4073 Y15.9572
G01 X4.3152 Y15.9709
G01 X4.2253 Y15.9934
G01 X4.1401 Y16.0238
G01 X4.1226 Y16.0318
G01 X3.7684 Y15.6776
G01 X3.7616 Y15.6715
G01 X3.7562 Y15.6673
G01 X3.7465 Y15.6612
G01 X3.6852 Y15.6277
G01 X3.6788 Y15.6246
G01 X3.6700 Y15.6211
G01 X3.6587 Y15.6180
G01 X3.6493 Y15.6165
G01 X3.6204 Y15.6134
G01 X3.6073 Y15.6131
G01 X3.5648 Y15.6086
G01 X3.4542 Y15.5673
G01 X3.3612 Y15.4977
G01 X3.2915 Y15.4046
G01 X3.2503 Y15.2940
G01 X3.2457 Y15.2515
G00 Z2.0000
G00 X3.3897 Y17.1654
G01 F60.00
G01 Z-0.0800
G01 F120.00
G01 X3.3616 Y16.9884
G01 X3.3616 Y16.8092
G01 X3.3897 Y16.6323
G01 X3.4365 Y16.4882
G01 X3.4983 Y16.5500
G01 X3.4873 Y16.5808
G01 X3.4826 Y16.5956
G01 X3.4610 Y16.6816
G01 X3.4578 Y16.6968
G01 X3.4435 Y16.7948
G01 X3.4427 Y16.8051
G01 X3.4384 Y16.8988
G01 X3.4427 Y16.9925
G01 X3.4435 Y17.0029
G01 X3.4579 Y17.1016
G01 X3.4610 Y17.1161
G01 X3.4826 Y17.2020
G01 X3.4873 Y17.2169
G01 X3.4983 Y17.2476
G01 X3.4365 Y17.3095
G01 X3.3897 Y17.1654
G00 Z2.0000
G00 X3.2771 Y17.1924
G01 F60.00
G01 Z-0.0800
G01 F120.00
G01 X3.2462 Y16.9975
G01 X3.2462 Y16.8002
G01 X3.2771 Y16.6052
G01 X3.3381 Y16.4175
G01 X3.4025 Y16.2910
G01 X3.6330 Y16.5214
G01 X3.6249 Y16.5389
G01 X3.5945 Y16.6242
G01 X3.5720 Y16.7142
G01 X3.5584 Y16.8061
G01 X3.5538 Y16.8988
G01 X3.5584 Y16.9916
G01 X3.5720 Y17.0837
G01 X3.5945 Y17.1735
G01 X3.6249 Y17.2587
G01 X3.6330 Y17.2763
G01 X3.4025 Y17.5067
G01 X3.3381 Y17.3801
G01 X3.2771 Y17.1924
G00 Z2.0000
G00 X3.8921 Y17.9963
G01 F60.00
G01 Z-0.0800
G01 F120.00
G01 X4.1226 Y17.7659
G01 X4.1401 Y17.7739
G01 X4.2234 Y17.8037
G01 X4.3154 Y17.8269
G01 X4.4073 Y17.8405
G01 X4.5000 Y17.8450
G01 X4.5927 Y17.8405
G01 X4.6846 Y17.8269
G01 X4.7747 Y17.8043
G01 X4.8599 Y17.7739
G01 X4.8774 Y17.7659
G01 X5.1079 Y17.9963
G01 X4.9813 Y18.0608
G01 X4.7936 Y18.1218
G01 X4.5987 Y18.1526
G01 X4.4013 Y18.1526
G01 X4.2064 Y18.1218
G01 X4.0187 Y18.0608
G01 X3.8921 Y17.9963
G00 Z2.0000
G00 X4.0893 Y17.9623
G01 F60.00
G01 Z-0.0800
G01 F120.00
G01 X4.1512 Y17.9005
G01 X4.1828 Y17.9118
G01 X4.1970 Y17.9163
G01 X4.2827 Y17.9378
G01 X4.2980 Y17.9410
G01 X4.3959 Y17.9554
G01 X4.4063 Y17.9561
G01 X4.5000 Y17.9605
G01 X4.5937 Y17.9561
G01 X4.6041 Y17.9554
G01 X4.7020 Y17.9410
G01 X4.7173 Y17.9378
G01 X4.8032 Y17.9162
G01 X4.8180 Y17.9115
G01 X4.8488 Y17.9005
G01 X4.9107 Y17.9623
G01 X4.7666 Y18.0092
G01 X4.5896 Y18.0372
G01 X4.4104 Y18.0372
G01 X4.2334 Y18.0092
G01 X4.0893 Y17.9623
G00 Z2.0000
G00 X5.3670 Y17.2763
G01 F60.00
G01 Z-0.0800
G01 F120.00
G01 X5.3751 Y17.2587
G01 X5.4048 Y17.1755
G01 X5.4280 Y17.0834
G01 X5.4416 Y16.9916
G01 X5.4462 Y16.8988
G01 X5.4416 Y16.8061
G01 X5.4280 Y16.7140
G01 X5.4055 Y16.6242
G01 X5.3751 Y16.5389
G01 X5.3670 Y16.5214
G01 X5.5975 Y16.2910
G01 X5.6619 Y16.4175
G01 X5.7229 Y16.6052
G01 X5.7538 Y16.8002
G01 X5.7538 Y16.9975
G01 X5.7229 Y17.1924
G01 X5.6619 Y17.3801
G01 X5.5975 Y17.5067
G01 X5.3670 Y17.2763
G00 Z2.0000
G00 X5.5017 Y17.2476
G01 F60.00
G01 Z-0.0800
G01 F120.00
G01 X5.5130 Y17.2161
G01 X5.5174 Y17.2018
G01 X5.5390 Y17.1161
G01 X5.5422 Y17.1008
G01 X5.5565 Y17.0029
G01 X5.5573 Y16.9925
G01 X5.5616 Y16.8988
G01 X5.5573 Y16.8051
G01 X5.5565 Y16.7948
G01 X5.5421 Y16.6961
G01 X5.5390 Y16.6816
G01 X5.5174 Y16.5956
G01 X5.5127 Y16.5808
G01 X5.5017 Y16.5500
G01 X5.5635 Y16.4882
G01 X5.6103 Y16.6323
G01 X5.6384 Y16.8092
G01 X5.6384 Y16.9884
G01 X5.6103 Y17.1654
G01 X5.5635 Y17.3095
G01 X5.5017 Y17.2476
G00 Z2.0000
G00 X11.9857 Y16.5909
G01 F60.00
G01 Z-0.0800
G01 F120.00
G01 X11.9857 Y16.4091
G01 X12.0141 Y16.2297
G01 X12.0703 Y16.0569
G01 X12.1528 Y15.8950
G01 X12.2595 Y15.7480
G01 X12.3880 Y15.6195
G01 X12.5350 Y15.5128
G01 X12.7049 Y15.4262
G01 X12.7148 Y15.4204
G01 X12.7256 Y15.4120
G01 X12.7798 Y15.3608
G01 X12.7877 Y15.3519
G01 X12.7945 Y15.3420
G01 X12.7990 Y15.3336
G01 X12.8034 Y15.3225
G01 X12.8227 Y15.2455
G01 X12.8243 Y15.2361
G01 X12.8250 Y15.2265
G01 X12.8249 Y15.2194
G01 X12.8242 Y15.2122
G01 X12.8230 Y15.2052
G01 X12.8213 Y15.1982
G01 X12.7957 Y15.1232
G01 X12.7919 Y15.1148
G01 X12.7861 Y15.1048
G01 X12.7791 Y15.0957
G01 X12.7710 Y15.0874
G01 X12.7224 Y15.0453
G01 X12.7169 Y15.0410
G01 X12.7110 Y15.0372
G01 X12.5350 Y14.9472
G01 X12.3880 Y14.8405
G01 X12.2596 Y14.7120
G01 X12.1528 Y14.5650
G01 X12.0703 Y14.4031
G01 X12.0141 Y14.2303
G01 X11.9857 Y14.0509
G01 X11.9857 Y13.8691
G01 X12.0141 Y13.6897
G01 X12.0703 Y13.5169
G01 X12.1528 Y13.3550
G01 X12.2595 Y13.2080
G01 X12.3880 Y13.0795
G01 X12.5350 Y12.9728
G01 X12.6969 Y12.8903
G01 X12.8697 Y12.8341
G01 X13.0491 Y12.8057
G01 X13.2309 Y12.8057
G01 X13.4103 Y12.8341
G01 X13.5831 Y12.8903
G01 X13.7450 Y12.9728
G01 X13.8920 Y13.0795
G01 X14.0205 Y13.2080
G01 X14.1272 Y13.3550
G01 X14.2097 Y13.5169
G01 X14.2659 Y13.6897
G01 X14.2943 Y13.8691
G01 X14.2943 Y14.0509
G01 X14.2659 Y14.2303
G01 X14.2097 Y14.4031
G01 X14.1272 Y14.5650
G01 X14.0205 Y14.7120
G01 X13.8920 Y14.8405
G01 X13.7450 Y14.9472
G01 X13.5751 Y15.0338
G01 X13.5652 Y15.0396
G01 X13.5544 Y15.0480
G01 X13.5002 Y15.0992
G01 X13.4923 Y15.1081
G01 X13.4855 Y15.1180
G01 X13.4800 Y15.1286
G01 X13.4766 Y15.1375
G01 X13.4573 Y15.2145
G01 X13.4557 Y15.2239
G01 X13.4550 Y15.2358
G01 X13.4558 Y15.2478
G01 X13.4570 Y15.2548
G01 X13.4587 Y15.2618
G01 X13.4843 Y15.3368
G01 X13.4892 Y15.3473
G01 X13.4939 Y15.3552
G01 X13.5009 Y15.3643
G01 X13.5090 Y15.3726
G01 X13.5576 Y15.4147
G01 X13.5631 Y15.4190
G01 X13.5690 Y15.4228
G01 X13.7450 Y15.5128
G01 X13.8920 Y15.6195
G01 X14.0205 Y15.7480
G01 X14.1272 Y15.8950
G01 X14.2097 Y16.0569
G01 X14.2659 Y16.2297
G01 X14.2943 Y16.4091
G01 X14.2943 Y16.5909
G01 X14.2659 Y16.7703
G01 X14.2097 Y16.9431
G01 X14.1272 Y17.1050
G01 X14.0205 Y17.2520
G01 X13.8920 Y17.3805
G01 X13.7441 Y17.4879
G01 X13.7353 Y17.4951
G01 X13.7259 Y17.5051
G01 X13.6804 Y17.5642
G01 X13.6740 Y17.5742
G01 X13.6697 Y17.5828
G01 X13.6664 Y17.5917
G01 X13.6635 Y17.6033
G01 X13.6622 Y17.6128
G01 X13.6562 Y17.6824
G01 X13.6559 Y17.6919
G01 X13.6565 Y17.7015
G01 X13.6580 Y17.7109
G01 X13.6605 Y17.7201
G01 X13.6629 Y17.7269
G01 X13.6670 Y17.7355
G01 X13.6996 Y17.7973
G01 X13.7058 Y17.8075
G01 X13.7132 Y17.8169
G01 X13.7217 Y17.8252
G01 X13.7312 Y17.8324
G01 X13.8003 Y17.8717
G01 X13.8112 Y17.8767
G01 X13.8204 Y17.8796
G01 X13.8321 Y17.8820
G01 X13.8670 Y17.8860
G01 X13.9327 Y17.8862
G01 X13.9751 Y17.8908
G01 X14.0855 Y17.9319
G01 X14.1785 Y18.0015
G01 X14.2480 Y18.0945
G01 X14.2892 Y18.2049
G01 X14.2938 Y18.2473
G01 X14.2938 Y18.6938
G01 X13.9862 Y18.6938
G01 X13.9862 Y18.2900
G01 X13.9859 Y18.2829
G01 X13.9852 Y18.2759
G01 X13.9839 Y18.2689
G01 X13.9821 Y18.2621
G01 X13.9798 Y18.2554
G01 X13.9770 Y18.2489
G01 X13.9737 Y18.2426
G01 X13.9700 Y18.2366
G01 X13.9658 Y18.2308
G01 X13.9613 Y18.2254
G01 X13.9563 Y18.2203
G01 X13.9510 Y18.2156
G01 X13.9454 Y18.2113
G01 X13.9395 Y18.2075
G01 X13.9333 Y18.2041
G01 X13.9268 Y18.2011
G01 X13.9202 Y18.1987
G01 X13.9134 Y18.1967
G01 X13.9018 Y18.1945
G01 X13.8900 Y18.1938
G01 X12.3900 Y18.1938
G01 X12.3806 Y18.1943
G01 X12.3736 Y18.1952
G01 X12.3643 Y18.1973
G01 X12.3576 Y18.1994
G01 X12.3510 Y18.2021
G01 X12.3426 Y18.2063
G01 X12.3346 Y18.2113
G01 X12.3290 Y18.2156
G01 X12.3220 Y18.2220
G01 X12.3172 Y18.2272
G01 X12.3127 Y18.2327
G01 X12.3075 Y18.2405
G01 X12.3041 Y18.2467
G01 X12.3002 Y18.2554
G01 X12.2973 Y18.2643
G01 X12.2956 Y18.2712
G01 X12.2943 Y18.2806
G01 X12.2938 Y18.2900
G01 X12.2938 Y18.6938
G01 X11.9862 Y18.6938
G01 X11.9862 Y18.2473
G01 X11.9908 Y18.2049
G01 X12.0319 Y18.0945
G01 X12.1015 Y18.0015
G01 X12.1945 Y17.9320
G01 X12.3049 Y17.8908
G01 X12.3473 Y17.8862
G01 X12.4087 Y17.8862
G01 X12.4178 Y17.8855
G01 X12.4246 Y17.8845
G01 X12.4335 Y17.8823
G01 X12.5051 Y17.8612
G01 X12.5118 Y17.8586
G01 X12.5182 Y17.8555
G01 X12.5245 Y17.8519
G01 X12.5304 Y17.8479
G01 X12.5378 Y17.8418
G01 X12.5446 Y17.8351
G01 X12.5919 Y17.7805
G01 X12.5992 Y17.7710
G01 X12.6029 Y17.7649
G01 X12.6062 Y17.7586
G01 X12.6106 Y17.7475
G01 X12.6126 Y17.7406
G01 X12.6141 Y17.7336
G01 X12.6244 Y17.6620
G01 X12.6251 Y17.6549
G01 X12.6254 Y17.6478
G01 X12.6248 Y17.6382
G01 X12.6233 Y17.6288
G01 X12.6209 Y17.6195
G01 X12.6176 Y17.6106
G01 X12.5855 Y17.5405
G01 X12.5793 Y17.5302
G01 X12.5719 Y17.5208
G01 X12.5652 Y17.5139
G01 X12.5444 Y17.4948
G01 X12.5376 Y17.4892
G01 X12.3880 Y17.3805
G01 X12.2596 Y17.2520
G01 X12.1528 Y17.1050
G01 X12.0703 Y16.9431
G01 X12.0141 Y16.7703
G01 X11.9857 Y16.5909
G00 Z2.0000
G00 X12.1011 Y16.5818
G01 F60.00
G01 Z-0.0800
G01 F120.00
G01 X12.1011 Y16.4182
G01 X12.1267 Y16.2567
G01 X12.1773 Y16.1012
G01 X12.2515 Y15.9555
G01 X12.3476 Y15.8232
G01 X12.4632 Y15.7076
G01 X12.5955 Y15.6115
G01 X12.7573 Y15.5291
G01 X12.7705 Y15.5217
G01 X12.7790 Y15.5163
G01 X12.7912 Y15.5075
G01 X12.8028 Y15.4978
G01 X12.8648 Y15.4390
G01 X12.8719 Y15.4312
G01 X12.8786 Y15.4231
G01 X12.8848 Y15.4147
G01 X12.8907 Y15.4059
G01 X12.8961 Y15.3969
G01 X12.9011 Y15.3877
G01 X12.9076 Y15.3733
G01 X12.9114 Y15.3635
G01 X12.9147 Y15.3535
G01 X12.9174 Y15.3434
G01 X12.9354 Y15.2704
G01 X12.9375 Y15.2601
G01 X12.9390 Y15.2497
G01 X12.9399 Y15.2393
G01 X12.9404 Y15.2288
G01 X12.9401 Y15.2130
G01 X12.9387 Y15.1973
G01 X12.9370 Y15.1869
G01 X12.9337 Y15.1715
G01 X12.9291 Y15.1564
G01 X12.9049 Y15.0855
G01 X12.8970 Y15.0668
G01 X12.8873 Y15.0489
G01 X12.8759 Y15.0321
G01 X12.8664 Y15.0202
G01 X12.8560 Y15.0090
G01 X12.8449 Y14.9986
G01 X12.7959 Y14.9563
G01 X12.7794 Y14.9440
G01 X12.7708 Y14.9384
G01 X12.7573 Y14.9309
G01 X12.5955 Y14.8485
G01 X12.4632 Y14.7524
G01 X12.3476 Y14.6368
G01 X12.2515 Y14.5045
G01 X12.1773 Y14.3588
G01 X12.1267 Y14.2033
G01 X12.1011 Y14.0418
G01 X12.1011 Y13.8782
G01 X12.1267 Y13.7167
G01 X12.1773 Y13.5612
G01 X12.2515 Y13.4155
G01 X12.3476 Y13.2832
G01 X12.4632 Y13.1676
G01 X12.5955 Y13.0715
G01 X12.7412 Y12.9973
G01 X12.8967 Y12.9467
G01 X13.0582 Y12.9211
G01 X13.2218 Y12.9211
G01 X13.3833 Y12.9467
G01 X13.5388 Y12.9973
G01 X13.6845 Y13.0715
G01 X13.8168 Y13.1676
G01 X13.9324 Y13.2832
G01 X14.0285 Y13.4155
G01 X14.1027 Y13.5612
G01 X14.1533 Y13.7167
G01 X14.1789 Y13.8782
G01 X14.1789 Y14.0418
G01 X14.1533 Y14.2033
G01 X14.1028 Y14.3588
G01 X14.0285 Y14.5045
G01 X13.9324 Y14.6368
G01 X13.8168 Y14.7524
G01 X13.6845 Y14.8485
G01 X13.5226 Y14.9310
G01 X13.5138 Y14.9358
G01 X13.5010 Y14.9437
G01 X13.4887 Y14.9526
G01 X13.4772 Y14.9622
G01 X13.4152 Y15.0210
G01 X13.4081 Y15.0288
G01 X13.4014 Y15.0369
G01 X13.3952 Y15.0453
G01 X13.3893 Y15.0541
G01 X13.3839 Y15.0631
G01 X13.3766 Y15.0771
G01 X13.3724 Y15.0867
G01 X13.3686 Y15.0965
G01 X13.3653 Y15.1065
G01 X13.3626 Y15.1166
G01 X13.3435 Y15.1947
G01 X13.3417 Y15.2051
G01 X13.3405 Y15.2155
G01 X13.3398 Y15.2260
G01 X13.3396 Y15.2365
G01 X13.3399 Y15.2470
G01 X13.3413 Y15.2627
G01 X13.3430 Y15.2731
G01 X13.3463 Y15.2885
G01 X13.3509 Y15.3036
G01 X13.3769 Y15.3793
G01 X13.3853 Y15.3978
G01 X13.3954 Y15.4154
G01 X13.4071 Y15.4320
G01 X13.4170 Y15.4436
G01 X13.4240 Y15.4510
G01 X13.4351 Y15.4614
G01 X13.4841 Y15.5037
G01 X13.4964 Y15.5131
G01 X13.5049 Y15.5189
G01 X13.5227 Y15.5291
G01 X13.6845 Y15.6115
G01 X13.8168 Y15.7076
G01 X13.9324 Y15.8232
G01 X14.0285 Y15.9555
G01 X14.1027 Y16.1012
G01 X14.1533 Y16.2567
G01 X14.1789 Y16.4182
G01 X14.1789 Y16.5818
G01 X14.1533 Y16.7433
G01 X14.1028 Y16.8988
G01 X14.0285 Y17.0445
G01 X13.9324 Y17.1768
G01 X13.8168 Y17.2924
G01 X13.6763 Y17.3945
G01 X13.6644 Y17.4038
G01 X13.6568 Y17.4104
G01 X13.6461 Y17.4211
G01 X13.6362 Y17.4325
G01 X13.5842 Y17.5003
G01 X13.5784 Y17.5090
G01 X13.5731 Y17.5181
G01 X13.5660 Y17.5321
G01 X13.5618 Y17.5418
G01 X13.5581 Y17.5516
G01 X13.5549 Y17.5616
G01 X13.5522 Y17.5718
G01 X13.5491 Y17.5873
G01 X13.5472 Y17.6029
G01 X13.5412 Y17.6725
G01 X13.5405 Y17.6830
G01 X13.5404 Y17.6935
G01 X13.5408 Y17.7040
G01 X13.5418 Y17.7145
G01 X13.5441 Y17.7301
G01 X13.5463 Y17.7404
G01 X13.5506 Y17.7555
G01 X13.5541 Y17.7654
G01 X13.5580 Y17.7752
G01 X13.5649 Y17.7894
G01 X13.6000 Y17.8558
G01 X13.6053 Y17.8648
G01 X13.6111 Y17.8736
G01 X13.6206 Y17.8862
G01 X13.6311 Y17.8980
G01 X13.6385 Y17.9055
G01 X13.6463 Y17.9125
G01 X13.6586 Y17.9224
G01 X13.6672 Y17.9284
G01 X13.6760 Y17.9341
G01 X13.7461 Y17.9736
G01 X13.7555 Y17.9783
G01 X13.7652 Y17.9826
G01 X13.7751 Y17.9864
G01 X13.7851 Y17.9896
G01 X13.7954 Y17.9924
G01 X13.8109 Y17.9956
G01 X13.8543 Y18.0008
G01 X13.8687 Y18.0016
G01 X13.9265 Y18.0016
G01 X13.9483 Y18.0040
G01 X14.0296 Y18.0343
G01 X14.0960 Y18.0840
G01 X14.1457 Y18.1504
G01 X14.1760 Y18.2317
G01 X14.1784 Y18.2535
G01 X14.1784 Y18.5784
G01 X14.1016 Y18.5784
G01 X14.1014 Y18.2796
G01 X14.1006 Y18.2693
G01 X14.0993 Y18.2589
G01 X14.0976 Y18.2487
G01 X14.0953 Y18.2386
G01 X14.0925 Y18.2286
G01 X14.0893 Y18.2187
G01 X14.0855 Y18.2090
G01 X14.0813 Y18.1995
G01 X14.0766 Y18.1902
G01 X14.0715 Y18.1812
G01 X14.0660 Y18.1724
G01 X14.0568 Y18.1598
G01 X14.0468 Y18.1479
G01 X14.0397 Y18.1403
G01 X14.0321 Y18.1332
G01 X14.0243 Y18.1264
G01 X14.0161 Y18.1200
G01 X14.0032 Y18.1112
G01 X13.9943 Y18.1059
G01 X13.9852 Y18.1010
G01 X13.9758 Y18.0965
G01 X13.9662 Y18.0925
G01 X13.9564 Y18.0890
G01 X13.9464 Y18.0860
G01 X13.9313 Y18.0824
G01 X13.9159 Y18.0800
G01 X13.9004 Y18.0786
G01 X13.8900 Y18.0784
G01 X12.3900 Y18.0784
G01 X12.3744 Y18.0789
G01 X12.3589 Y18.0807
G01 X12.3436 Y18.0835
G01 X12.3336 Y18.0860
G01 X12.3187 Y18.0907
G01 X12.3090 Y18.0945
G01 X12.2948 Y18.1010
G01 X12.2812 Y18.1085
G01 X12.2681 Y18.1170
G01 X12.2557 Y18.1264
G01 X12.2441 Y18.1367
G01 X12.2367 Y18.1441
G01 X12.2297 Y18.1518
G01 X12.2200 Y18.1639
G01 X12.2112 Y18.1768
G01 X12.2059 Y18.1857
G01 X12.1987 Y18.1995
G01 X12.1945 Y18.2090
G01 X12.1907 Y18.2187
G01 X12.1875 Y18.2286
G01 X12.1847 Y18.2386
G01 X12.1824 Y18.2487
G01 X12.1807 Y18.2589
G01 X12.1789 Y18.2744
G01 X12.1784 Y18.2900
G01 X12.1784 Y18.5784
G01 X12.1016 Y18.5784
G01 X12.1016 Y18.2535
G01 X12.1040 Y18.2317
G01 X12.1343 Y18.1504
G01 X12.1840 Y18.0840
G01 X12.2504 Y18.0343
G01 X12.3317 Y18.0040
G01 X12.3535 Y18.0016
G01 X12.4064 Y18.0016
G01 X12.4215 Y18.0011
G01 X12.4415 Y17.9987
G01 X12.4612 Y17.9944
G01 X12.5331 Y17.9734
G01 X12.5431 Y17.9702
G01 X12.5529 Y17.9665
G01 X12.5673 Y17.9600
G01 X12.5812 Y17.9525
G01 X12.5944 Y17.9440
G01 X12.6070 Y17.9345
G01 X12.6189 Y17.9241
G01 X12.6299 Y17.9128
G01 X12.6826 Y17.8521
G01 X12.6921 Y17.8396
G01 X12.6980 Y17.8308
G01 X12.7034 Y17.8218
G01 X12.7106 Y17.8078
G01 X12.7149 Y17.7982
G01 X12.7203 Y17.7834
G01 X12.7234 Y17.7733
G01 X12.7269 Y17.7580
G01 X12.7393 Y17.6733
G01 X12.7403 Y17.6628
G01 X12.7408 Y17.6470
G01 X12.7405 Y17.6365
G01 X12.7396 Y17.6261
G01 X12.7383 Y17.6156
G01 X12.7364 Y17.6053
G01 X12.7326 Y17.5900
G01 X12.7294 Y17.5800
G01 X12.7258 Y17.5701
G01 X12.6926 Y17.4969
G01 X12.6880 Y17.4874
G01 X12.6829 Y17.4781
G01 X12.6774 Y17.4691
G01 X12.6714 Y17.4604
G01 X12.6649 Y17.4520
G01 X12.6545 Y17.4400
G01 X12.6471 Y17.4325
G01 X12.6224 Y17.4098
G01 X12.6114 Y17.4003
G01 X12.4632 Y17.2924
G01 X12.3476 Y17.1768
G01 X12.2515 Y17.0445
G01 X12.1773 Y16.8988
G01 X12.1267 Y16.7433
G01 X12.1011 Y16.5818
G00 Z2.0000
G00 X12.8352 Y17.5330
G01 F60.00
G01 Z-0.0800
G01 F120.00
G01 X12.9142 Y17.5529
G01 X12.9299 Y17.5564
G01 X12.9457 Y17.5591
G01 X13.0185 Y17.5699
G01 X13.0344 Y17.5719
G01 X13.0504 Y17.5731
G01 X13.1240 Y17.5767
G01 X13.1400 Y17.5771
G01 X13.1560 Y17.5767
G01 X13.2296 Y17.5731
G01 X13.2456 Y17.5719
G01 X13.2615 Y17.5699
G01 X13.3343 Y17.5591
G01 X13.3501 Y17.5564
G01 X13.3658 Y17.5529
G01 X13.4429 Y17.5335
G01 X13.4399 Y17.5450
G01 X13.4365 Y17.5608
G01 X13.4329 Y17.5849
G01 X13.4262 Y17.6626
G01 X13.4252 Y17.6789
G01 X13.4250 Y17.6951
G01 X13.4262 Y17.7194
G01 X13.4281 Y17.7356
G01 X13.4323 Y17.7596
G01 X13.4383 Y17.7832
G01 X13.4433 Y17.7986
G01 X13.4491 Y17.8138
G01 X13.4591 Y17.8360
G01 X13.4954 Y17.9051
G01 X13.5033 Y17.9192
G01 X13.5165 Y17.9397
G01 X13.5261 Y17.9528
G01 X13.5343 Y17.9629
G01 X12.7394 Y17.9629
G01 X12.7664 Y17.9317
G01 X12.7767 Y17.9192
G01 X12.7910 Y17.8994
G01 X12.8038 Y17.8787
G01 X12.8150 Y17.8571
G01 X12.8246 Y17.8347
G01 X12.8325 Y17.8116
G01 X12.8386 Y17.7880
G01 X12.8430 Y17.7641
G01 X12.8540 Y17.6869
G01 X12.8559 Y17.6626
G01 X12.8562 Y17.6463
G01 X12.8557 Y17.6301
G01 X12.8544 Y17.6139
G01 X12.8510 Y17.5898
G01 X12.8476 Y17.5739
G01 X12.8436 Y17.5582
G01 X12.8387 Y17.5427
G01 X12.8352 Y17.5330
G00 Z2.0000
G00 X12.9706 Y17.6795
G01 F60.00
G01 Z-0.0800
G01 F120.00
G01 X13.0123 Y17.6856
G01 X13.0339 Y17.6877
G01 X13.1183 Y17.6920
G01 X13.1400 Y17.6925
G01 X13.1617 Y17.6920
G01 X13.2461 Y17.6877
G01 X13.2677 Y17.6856
G01 X13.3097 Y17.6795
G01 X13.3096 Y17.6967
G01 X13.3104 Y17.7186
G01 X13.3124 Y17.7405
G01 X13.3154 Y17.7623
G01 X13.3195 Y17.7839
G01 X13.3246 Y17.8052
G01 X13.3308 Y17.8263
G01 X13.3383 Y17.8475
G01 X12.9422 Y17.8475
G01 X12.9488 Y17.8236
G01 X12.9513 Y17.8129
G01 X12.9555 Y17.7913
G01 X12.9672 Y17.7113
G01 X12.9686 Y17.7004
G01 X12.9706 Y17.6795
G00 Z2.0000
G00 X13.0618 Y15.6575
G01 F60.00
G01 Z-0.0800
G01 F120.00
G01 X13.1400 Y15.6538
G01 X13.2229 Y15.6579
G01 X13.3051 Y15.6701
G01 X13.3856 Y15.6902
G01 X13.4638 Y15.7182
G01 X13.5389 Y15.7537
G01 X13.6101 Y15.7964
G01 X13.6768 Y15.8459
G01 X13.7384 Y15.9016
G01 X13.7941 Y15.9632
G01 X13.8436 Y16.0299
G01 X13.8863 Y16.1011
G01 X13.9218 Y16.1762
G01 X13.9498 Y16.2544
G01 X13.9699 Y16.3349
G01 X13.9822 Y16.4174
G01 X13.9862 Y16.5000
G01 X13.9821 Y16.5829
G01 X13.9699 Y16.6651
G01 X13.9498 Y16.7456
G01 X13.9218 Y16.8238
G01 X13.8863 Y16.8989
G01 X13.8436 Y16.9701
G01 X13.7941 Y17.0368
G01 X13.7384 Y17.0984
G01 X13.6768 Y17.1541
G01 X13.6101 Y17.2036
G01 X13.5389 Y17.2463
G01 X13.4638 Y17.2818
G01 X13.3856 Y17.3098
G01 X13.3051 Y17.3299
G01 X13.2229 Y17.3421
G01 X13.1400 Y17.3462
G01 X13.0571 Y17.3421
G01 X12.9749 Y17.3299
G01 X12.8944 Y17.3098
G01 X12.8162 Y17.2818
G01 X12.7411 Y17.2463
G01 X12.6699 Y17.2036
G01 X12.6032 Y17.1541
G01 X12.5416 Y17.0984
G01 X12.4859 Y17.0368
G01 X12.4364 Y16.9701
G01 X12.3937 Y16.8989
G01 X12.3582 Y16.8238
G01 X12.3302 Y16.7456
G01 X12.3101 Y16.6651
G01 X12.2979 Y16.5829
G01 X12.2938 Y16.5000
G01 X12.2979 Y16.4171
G01 X12.3101 Y16.3349
G01 X12.3302 Y16.2544
G01 X12.3582 Y16.1762
G01 X12.3937 Y16.1011
G01 X12.4364 Y16.0299
G01 X12.4859 Y15.9632
G01 X12.5416 Y15.9016
G01 X12.6032 Y15.8459
G01 X12.6699 Y15.7964
G01 X12.7411 Y15.7537
G01 X12.8162 Y15.7182
G01 X12.8944 Y15.6902
G01 X12.9749 Y15.6701
G01 X13.0524 Y15.6585
G01 X13.0618 Y15.6575
G00 Z2.0000
G00 X13.0561 Y15.5422
G01 F60.00
G01 Z-0.0800
G01 F120.00
G01 X13.1400 Y15.5384
G01 X13.1504 Y15.5386
G01 X13.2343 Y15.5430
G01 X13.3174 Y15.5551
G01 X13.3276 Y15.5568
G01 X13.3377 Y15.5591
G01 X13.4191 Y15.5798
G01 X13.4983 Y15.6078
G01 X13.5080 Y15.6116
G01 X13.5840 Y15.6472
G01 X13.5933 Y15.6519
G01 X13.6024 Y15.6570
G01 X13.6743 Y15.7004
G01 X13.7419 Y15.7503
G01 X13.7501 Y15.7566
G01 X13.7579 Y15.7634
G01 X13.8200 Y15.8200
G01 X13.8766 Y15.8821
G01 X13.8834 Y15.8899
G01 X13.8897 Y15.8981
G01 X13.9396 Y15.9657
G01 X13.9830 Y16.0376
G01 X13.9881 Y16.0467
G01 X13.9928 Y16.0560
G01 X14.0284 Y16.1320
G01 X14.0322 Y16.1417
G01 X14.0602 Y16.2209
G01 X14.0630 Y16.2309
G01 X14.0832 Y16.3124
G01 X14.0957 Y16.3954
G01 X14.0971 Y16.4065
G01 X14.1014 Y16.4896
G01 X14.1016 Y16.5000
G01 X14.0978 Y16.5839
G01 X14.0970 Y16.5943
G01 X14.0957 Y16.6046
G01 X14.0832 Y16.6876
G01 X14.0630 Y16.7691
G01 X14.0602 Y16.7791
G01 X14.0322 Y16.8583
G01 X14.0284 Y16.8680
G01 X13.9928 Y16.9440
G01 X13.9881 Y16.9533
G01 X13.9830 Y16.9624
G01 X13.9396 Y17.0343
G01 X13.8897 Y17.1019
G01 X13.8834 Y17.1101
G01 X13.8766 Y17.1179
G01 X13.8200 Y17.1800
G01 X13.7579 Y17.2366
G01 X13.7501 Y17.2434
G01 X13.7419 Y17.2497
G01 X13.6743 Y17.2996
G01 X13.6024 Y17.3430
G01 X13.5933 Y17.3481
G01 X13.5840 Y17.3528
G01 X13.5080 Y17.3884
G01 X13.4983 Y17.3922
G01 X13.4191 Y17.4202
G01 X13.4091 Y17.4230
G01 X13.3276 Y17.4432
G01 X13.2446 Y17.4557
G01 X13.2343 Y17.4570
G01 X13.2239 Y17.4578
G01 X13.1400 Y17.4616
G01 X13.0561 Y17.4578
G01 X13.0457 Y17.4570
G01 X13.0354 Y17.4557
G01 X12.9524 Y17.4432
G01 X12.8709 Y17.4230
G01 X12.8609 Y17.4202
G01 X12.7817 Y17.3922
G01 X12.7720 Y17.3884
G01 X12.6960 Y17.3528
G01 X12.6867 Y17.3481
G01 X12.6776 Y17.3430
G01 X12.6057 Y17.2996
G01 X12.5381 Y17.2497
G01 X12.5299 Y17.2434
G01 X12.5221 Y17.2366
G01 X12.4600 Y17.1800
G01 X12.4034 Y17.1179
G01 X12.3966 Y17.1101
G01 X12.3903 Y17.1019
G01 X12.3404 Y17.0343
G01 X12.2970 Y16.9624
G01 X12.2919 Y16.9533
G01 X12.2872 Y16.9440
G01 X12.2516 Y16.8680
G01 X12.2478 Y16.8583
G01 X12.2198 Y16.7791
G01 X12.1991 Y16.6977
G01 X12.1968 Y16.6876
G01 X12.1951 Y16.6774
G01 X12.1830 Y16.5943
G01 X12.1786 Y16.5104
G01 X12.1784 Y16.5000
G01 X12.1786 Y16.4896
G01 X12.1830 Y16.4057
G01 X12.1951 Y16.3226
G01 X12.1968 Y16.3124
G01 X12.1991 Y16.3023
G01 X12.2198 Y16.2209
G01 X12.2478 Y16.1417
G01 X12.2516 Y16.1320
G01 X12.2872 Y16.0560
G01 X12.2919 Y16.0467
G01 X12.2970 Y16.0376
G01 X12.3404 Y15.9657
G01 X12.3903 Y15.8981
G01 X12.3966 Y15.8899
G01 X12.4034 Y15.8821
G01 X12.4600 Y15.8200
G01 X12.5221 Y15.7634
G01 X12.5299 Y15.7566
G01 X12.5381 Y15.7503
G01 X12.6057 Y15.7004
G01 X12.6776 Y15.6570
G01 X12.6867 Y15.6519
G01 X12.6960 Y15.6472
G01 X12.7720 Y15.6116
G01 X12.7817 Y15.6078
G01 X12.8609 Y15.5798
G01 X12.9423 Y15.5591
G01 X12.9524 Y15.5568
G01 X13.0354 Y15.5443
G01 X13.0465 Y15.5429
G01 X13.0561 Y15.5422
G00 Z2.0000
G00 X13.0062 Y15.0281
G01 F60.00
G01 Z-0.0800
G01 F120.00
G01 X13.0264 Y15.0310
G01 X13.0424 Y15.0326
G01 X13.1240 Y15.0367
G01 X13.1400 Y15.0371
G01 X13.1560 Y15.0367
G01 X13.2376 Y15.0326
G01 X13.2536 Y15.0310
G01 X13.2720 Y15.0284
G01 X13.2627 Y15.0501
G01 X13.2548 Y15.0732
G01 X13.2505 Y15.0889
G01 X13.2319 Y15.1646
G01 X13.2287 Y15.1805
G01 X13.2264 Y15.1966
G01 X13.2249 Y15.2128
G01 X13.2241 Y15.2371
G01 X13.2246 Y15.2534
G01 X13.2269 Y15.2776
G01 X13.2309 Y15.3017
G01 X13.2346 Y15.3175
G01 X13.2416 Y15.3408
G01 X13.2641 Y15.4069
G01 X13.2696 Y15.4217
G01 X13.2738 Y15.4319
G01 X13.2536 Y15.4290
G01 X13.2376 Y15.4274
G01 X13.1560 Y15.4233
G01 X13.1400 Y15.4229
G01 X13.1240 Y15.4233
G01 X13.0441 Y15.4273
G01 X13.0270 Y15.4289
G01 X13.0080 Y15.4316
G01 X13.0173 Y15.4099
G01 X13.0252 Y15.3868
G01 X13.0295 Y15.3711
G01 X13.0481 Y15.2954
G01 X13.0525 Y15.2714
G01 X13.0544 Y15.2553
G01 X13.0556 Y15.2391
G01 X13.0559 Y15.2229
G01 X13.0554 Y15.2066
G01 X13.0531 Y15.1824
G01 X13.0491 Y15.1583
G01 X13.0454 Y15.1425
G01 X13.0384 Y15.1192
G01 X13.0159 Y15.0531
G01 X13.0104 Y15.0383
G01 X13.0062 Y15.0281
G00 Z2.0000
G00 X13.0618 Y13.1175
G01 F60.00
G01 Z-0.0800
G01 F120.00
G01 X13.1400 Y13.1138
G01 X13.2229 Y13.1179
G01 X13.3051 Y13.1301
G01 X13.3856 Y13.1502
G01 X13.4638 Y13.1782
G01 X13.5389 Y13.2137
G01 X13.6101 Y13.2564
G01 X13.6768 Y13.3059
G01 X13.7384 Y13.3616
G01 X13.7941 Y13.4232
G01 X13.8436 Y13.4899
G01 X13.8863 Y13.5611
G01 X13.9218 Y13.6362
G01 X13.9498 Y13.7144
G01 X13.9699 Y13.7949
G01 X13.9822 Y13.8774
G01 X13.9862 Y13.9600
G01 X13.9821 Y14.0429
G01 X13.9699 Y14.1251
G01 X13.9498 Y14.2056
G01 X13.9218 Y14.2838
G01 X13.8863 Y14.3589
G01 X13.8436 Y14.4301
G01 X13.7941 Y14.4968
G01 X13.7384 Y14.5584
G01 X13.6768 Y14.6141
G01 X13.6101 Y14.6636
G01 X13.5389 Y14.7063
G01 X13.4638 Y14.7418
G01 X13.3856 Y14.7698
G01 X13.3051 Y14.7899
G01 X13.2229 Y14.8021
G01 X13.1400 Y14.8062
G01 X13.0571 Y14.8021
G01 X12.9749 Y14.7899
G01 X12.8944 Y14.7698
G01 X12.8162 Y14.7418
G01 X12.7411 Y14.7063
G01 X12.6699 Y14.6636
G01 X12.6032 Y14.6141
G01 X12.5416 Y14.5584
G01 X12.4859 Y14.4968
G01 X12.4364 Y14.4301
G01 X12.3937 Y14.3589
G01 X12.3582 Y14.2838
G01 X12.3302 Y14.2056
G01 X12.3101 Y14.1251
G01 X12.2979 Y14.0429
G01 X12.2938 Y13.9600
G01 X12.2979 Y13.8771
G01 X12.3101 Y13.7949
G01 X12.3302 Y13.7144
G01 X12.3582 Y13.6362
G01 X12.3937 Y13.5611
G01 X12.4364 Y13.4899
G01 X12.4859 Y13.4232
G01 X12.5416 Y13.3616
G01 X12.6032 Y13.3059
G01 X12.6699 Y13.2564
G01 X12.7411 Y13.2137
G01 X12.8162 Y13.1782
G01 X12.8944 Y13.1502
G01 X12.9749 Y13.1301
G01 X13.0524 Y13.1185
G01 X13.0618 Y13.1175
G00 Z2.0000
G00 X13.0561 Y13.0022
G01 F60.00
G01 Z-0.0800
G01 F120.00
G01 X13.1400 Y12.9984
G01 X13.1504 Y12.9986
G01 X13.2343 Y13.0030
G01 X13.3174 Y13.0151
G01 X13.3276 Y13.0168
G01 X13.3377 Y13.0191
G01 X13.4191 Y13.0398
G01 X13.4983 Y13.0678
G01 X13.5080 Y13.0716
G01 X13.5840 Y13.1072
G01 X13.5933 Y13.1119
G01 X13.6024 Y13.1170
G01 X13.6743 Y13.1604
G01 X13.7419 Y13.2103
G01 X13.7501 Y13.2166
G01 X13.7579 Y13.2234
G01 X13.8200 Y13.2800
G01 X13.8766 Y13.3421
G01 X13.8834 Y13.3499
G01 X13.8897 Y13.3581
G01 X13.9396 Y13.4257
G01 X13.9830 Y13.4976
G01 X13.9881 Y13.5067
G01 X13.9928 Y13.5160
G01 X14.0284 Y13.5920
G01 X14.0322 Y13.6017
G01 X14.0602 Y13.6809
G01 X14.0630 Y13.6909
G01 X14.0832 Y13.7724
G01 X14.0957 Y13.8554
G01 X14.0971 Y13.8665
G01 X14.1014 Y13.9496
G01 X14.1016 Y13.9600
G01 X14.0978 Y14.0439
G01 X14.0970 Y14.0543
G01 X14.0957 Y14.0646
G01 X14.0832 Y14.1476
G01 X14.0630 Y14.2291
G01 X14.0602 Y14.2391
G01 X14.0322 Y14.3183
G01 X14.0284 Y14.3280
G01 X13.9928 Y14.4040
G01 X13.9881 Y14.4133
G01 X13.9830 Y14.4224
G01 X13.9396 Y14.4943
G01 X13.8897 Y14.5619
G01 X13.8834 Y14.5701
G01 X13.8766 Y14.5779
G01 X13.8200 Y14.6400
G01 X13.7579 Y14.6966
G01 X13.7501 Y14.7034
G01 X13.7419 Y14.7097
G01 X13.6743 Y14.7596
G01 X13.6024 Y14.8030
G01 X13.5933 Y14.8081
G01 X13.5840 Y14.8128
G01 X13.5080 Y14.8484
G01 X13.4983 Y14.8522
G01 X13.4191 Y14.8802
G01 X13.4091 Y14.8830
G01 X13.3276 Y14.9032
G01 X13.2446 Y14.9157
G01 X13.2343 Y14.9170
G01 X13.2239 Y14.9178
G01 X13.1400 Y14.9216
G01 X13.0561 Y14.9178
G01 X13.0457 Y14.9170
G01 X13.0354 Y14.9157
G01 X12.9524 Y14.9032
G01 X12.8709 Y14.8830
G01 X12.8609 Y14.8802
G01 X12.7817 Y14.8522
G01 X12.7720 Y14.8484
G01 X12.6960 Y14.8128
G01 X12.6867 Y14.8081
G01 X12.6776 Y14.8030
G01 X12.6057 Y14.7596
G01 X12.5381 Y14.7097
G01 X12.5299 Y14.7034
G01 X12.5221 Y14.6966
G01 X12.4600 Y14.6400
G01 X12.4034 Y14.5779
G01 X12.3966 Y14.5701
G01 X12.3903 Y14.5619
G01 X12.3404 Y14.4943
G01 X12.2970 Y14.4224
G01 X12.2919 Y14.4133
G01 X12.2872 Y14.4040
G01 X12.2516 Y14.3280
G01 X12.2478 Y14.3183
G01 X12.2198 Y14.2391
G01 X12.1991 Y14.1577
G01 X12.1968 Y14.1476
G01 X12.1951 Y14.1374
G01 X12.1830 Y14.0543
G01 X12.1786 Y13.9704
G01 X12.1784 Y13.9600
G01 X12.1786 Y13.9496
G01 X12.1830 Y13.8657
G01 X12.1951 Y13.7826
G01 X12.1968 Y13.7724
G01 X12.1991 Y13.7623
G01 X12.2198 Y13.6809
G01 X12.2478 Y13.6017
G01 X12.2516 Y13.5920
G01 X12.2872 Y13.5160
G01 X12.2919 Y13.5067
G01 X12.2970 Y13.4976
G01 X12.3404 Y13.4257
G01 X12.3903 Y13.3581
G01 X12.3966 Y13.3499
G01 X12.4034 Y13.3421
G01 X12.4600 Y13.2800
G01 X12.5221 Y13.2234
G01 X12.5299 Y13.2166
G01 X12.5381 Y13.2103
G01 X12.6057 Y13.1604
G01 X12.6776 Y13.1170
G01 X12.6867 Y13.1119
G01 X12.6960 Y13.1072
G01 X12.7720 Y13.0716
G01 X12.7817 Y13.0678
G01 X12.8609 Y13.0398
G01 X12.9423 Y13.0191
G01 X12.9524 Y13.0168
G01 X13.0354 Y13.0043
G01 X13.0465 Y13.0029
G01 X13.0561 Y13.0022
G00 Z2.0000
G00 X16.9845 Y11.9458
G01 F60.00
G01 Z-0.0800
G01 F120.00
G01 X16.9845 Y11.7719
G01 X17.0117 Y11.6002
G01 X17.0654 Y11.4349
G01 X17.1443 Y11.2801
G01 X17.2464 Y11.1394
G01 X17.3694 Y11.0165
G01 X17.5100 Y10.9144
G01 X17.6648 Y10.8354
G01 X17.8302 Y10.7817
G01 X18.0018 Y10.7545
G01 X18.1757 Y10.7545
G01 X18.3474 Y10.7817
G01 X18.5127 Y10.8354
G01 X18.6675 Y10.9144
G01 X18.8082 Y11.0165
G01 X18.9311 Y11.1394
G01 X19.0332 Y11.2801
G01 X19.1122 Y11.4349
G01 X19.1659 Y11.6002
G01 X19.1931 Y11.7719
G01 X19.1931 Y11.9458
G01 X19.1659 Y12.1174
G01 X19.1122 Y12.2827
G01 X19.0332 Y12.4376
G01 X18.9311 Y12.5782
G01 X18.8082 Y12.7011
G01 X18.6675 Y12.8033
G01 X18.5127 Y12.8822
G01 X18.3474 Y12.9359
G01 X18.1757 Y12.9631
G01 X18.0018 Y12.9631
G01 X17.8302 Y12.9359
G01 X17.6649 Y12.8822
G01 X17.5100 Y12.8033
G01 X17.3694 Y12.7011
G01 X17.2465 Y12.5782
G01 X17.2032 Y12.5187
G01 X17.1443 Y12.4376
G01 X17.0654 Y12.2827
G01 X17.0117 Y12.1174
G01 X16.9845 Y11.9458
G00 Z2.0000
G00 X17.0999 Y11.9367
G01 F60.00
G01 Z-0.0800
G01 F120.00
G01 X17.0999 Y11.7810
G01 X17.1242 Y11.6273
G01 X17.1723 Y11.4792
G01 X17.2430 Y11.3406
G01 X17.3345 Y11.2146
G01 X17.4446 Y11.1046
G01 X17.5705 Y11.0131
G01 X17.7092 Y10.9424
G01 X17.8572 Y10.8943
G01 X18.0109 Y10.8700
G01 X18.1666 Y10.8700
G01 X18.3203 Y10.8943
G01 X18.4684 Y10.9424
G01 X18.6070 Y11.0131
G01 X18.7330 Y11.1046
G01 X18.8430 Y11.2146
G01 X18.9345 Y11.3406
G01 X19.0052 Y11.4792
G01 X19.0533 Y11.6273
G01 X19.0776 Y11.7810
G01 X19.0776 Y11.9367
G01 X19.0533 Y12.0904
G01 X19.0052 Y12.2384
G01 X18.9345 Y12.3771
G01 X18.8430 Y12.5030
G01 X18.7330 Y12.6131
G01 X18.6070 Y12.7046
G01 X18.4684 Y12.7752
G01 X18.3203 Y12.8233
G01 X18.1666 Y12.8477
G01 X18.0109 Y12.8477
G01 X17.8572 Y12.8233
G01 X17.7092 Y12.7752
G01 X17.5705 Y12.7046
G01 X17.4446 Y12.6131
G01 X17.3345 Y12.5030
G01 X17.2430 Y12.3771
G01 X17.1723 Y12.2384
G01 X17.1242 Y12.0904
G01 X17.0999 Y11.9367
G00 Z2.0000
G00 X17.4704 Y12.3602
G01 F60.00
G01 Z-0.0800
G01 F120.00
G01 X17.4267 Y12.3012
G01 X17.3866 Y12.2342
G01 X17.3532 Y12.1635
G01 X17.3268 Y12.0900
G01 X17.3079 Y12.0142
G01 X17.2964 Y11.9369
G01 X17.2926 Y11.8588
G01 X17.2964 Y11.7808
G01 X17.3079 Y11.7035
G01 X17.3268 Y11.6277
G01 X17.3532 Y11.5541
G01 X17.3866 Y11.4835
G01 X17.4267 Y11.4165
G01 X17.4731 Y11.3540
G01 X17.5258 Y11.2958
G01 X17.5837 Y11.2434
G01 X17.6464 Y11.1968
G01 X17.7134 Y11.1567
G01 X17.7841 Y11.1232
G01 X17.8576 Y11.0969
G01 X17.9334 Y11.0779
G01 X18.0107 Y11.0665
G01 X18.0888 Y11.0626
G01 X18.1668 Y11.0665
G01 X18.2441 Y11.0779
G01 X18.3199 Y11.0969
G01 X18.3935 Y11.1232
G01 X18.4641 Y11.1567
G01 X18.5311 Y11.1968
G01 X18.5939 Y11.2434
G01 X18.6518 Y11.2958
G01 X18.7042 Y11.3537
G01 X18.7508 Y11.4165
G01 X18.7909 Y11.4835
G01 X18.8244 Y11.5541
G01 X18.8507 Y11.6277
G01 X18.8697 Y11.7035
G01 X18.8811 Y11.7808
G01 X18.8850 Y11.8588
G01 X18.8811 Y11.9369
G01 X18.8697 Y12.0142
G01 X18.8507 Y12.0898
G01 X18.8244 Y12.1635
G01 X18.7909 Y12.2342
G01 X18.7508 Y12.3012
G01 X18.7042 Y12.3640
G01 X18.6518 Y12.4218
G01 X18.5939 Y12.4743
G01 X18.5311 Y12.5209
G01 X18.4641 Y12.5610
G01 X18.3935 Y12.5944
G01 X18.3199 Y12.6208
G01 X18.2441 Y12.6397
G01 X18.1668 Y12.6512
G01 X18.0888 Y12.6550
G01 X18.0107 Y12.6512
G01 X17.9334 Y12.6397
G01 X17.8578 Y12.6208
G01 X17.7841 Y12.5944
G01 X17.7134 Y12.5610
G01 X17.6464 Y12.5209
G01 X17.5836 Y12.4742
G01 X17.5258 Y12.4218
G01 X17.4762 Y12.3673
G01 X17.4704 Y12.3602
G00 Z2.0000
G00 X17.3777 Y12.4290
G01 F60.00
G01 Z-0.0800
G01 F120.00
G01 X17.3308 Y12.3653
G01 X17.3252 Y12.3565
G01 X17.2848 Y12.2886
G01 X17.2507 Y12.2172
G01 X17.2465 Y12.2077
G01 X17.2428 Y12.1980
G01 X17.2164 Y12.1235
G01 X17.1969 Y12.0468
G01 X17.1946 Y12.0367
G01 X17.1929 Y12.0265
G01 X17.1815 Y11.9482
G01 X17.1807 Y11.9378
G01 X17.1771 Y11.8588
G01 X17.1807 Y11.7798
G01 X17.1815 Y11.7695
G01 X17.1929 Y11.6912
G01 X17.1946 Y11.6810
G01 X17.1969 Y11.6708
G01 X17.2164 Y11.5942
G01 X17.2428 Y11.5197
G01 X17.2465 Y11.5100
G01 X17.2507 Y11.5005
G01 X17.2848 Y11.4291
G01 X17.3252 Y11.3611
G01 X17.3308 Y11.3524
G01 X17.3367 Y11.3439
G01 X17.3836 Y11.2811
G01 X17.3908 Y11.2726
G01 X17.4441 Y11.2142
G01 X17.5026 Y11.1609
G01 X17.5104 Y11.1541
G01 X17.5738 Y11.1068
G01 X17.5823 Y11.1008
G01 X17.5911 Y11.0953
G01 X17.6590 Y11.0548
G01 X17.7304 Y11.0208
G01 X17.7399 Y11.0166
G01 X17.7496 Y11.0129
G01 X17.8241 Y10.9865
G01 X17.9008 Y10.9670
G01 X17.9109 Y10.9647
G01 X17.9211 Y10.9629
G01 X17.9994 Y10.9516
G01 X18.0098 Y10.9508
G01 X18.0888 Y10.9472
G01 X18.1678 Y10.9508
G01 X18.1781 Y10.9516
G01 X18.2564 Y10.9629
G01 X18.2666 Y10.9647
G01 X18.2767 Y10.9670
G01 X18.3534 Y10.9865
G01 X18.4279 Y11.0129
G01 X18.4376 Y11.0166
G01 X18.4471 Y11.0208
G01 X18.5185 Y11.0548
G01 X18.5865 Y11.0953
G01 X18.5952 Y11.1008
G01 X18.6037 Y11.1068
G01 X18.6671 Y11.1541
G01 X18.6750 Y11.1609
G01 X18.7334 Y11.2142
G01 X18.7867 Y11.2726
G01 X18.7935 Y11.2805
G01 X18.8408 Y11.3439
G01 X18.8468 Y11.3524
G01 X18.8523 Y11.3611
G01 X18.8928 Y11.4291
G01 X18.9268 Y11.5005
G01 X18.9310 Y11.5100
G01 X18.9347 Y11.5197
G01 X18.9611 Y11.5942
G01 X18.9806 Y11.6708
G01 X18.9829 Y11.6810
G01 X18.9847 Y11.6912
G01 X18.9960 Y11.7695
G01 X18.9968 Y11.7798
G01 X19.0004 Y11.8588
G01 X18.9968 Y11.9378
G01 X18.9960 Y11.9482
G01 X18.9847 Y12.0265
G01 X18.9829 Y12.0367
G01 X18.9806 Y12.0468
G01 X18.9613 Y12.1231
G01 X18.9579 Y12.1333
G01 X18.9310 Y12.2077
G01 X18.9268 Y12.2172
G01 X18.8928 Y12.2886
G01 X18.8523 Y12.3565
G01 X18.8468 Y12.3653
G01 X18.7999 Y12.4290
G01 X18.7933 Y12.4374
G01 X18.7405 Y12.4959
G01 X18.7334 Y12.5035
G01 X18.6750 Y12.5568
G01 X18.6671 Y12.5635
G01 X18.6589 Y12.5699
G01 X18.5952 Y12.6168
G01 X18.5865 Y12.6224
G01 X18.5185 Y12.6628
G01 X18.4471 Y12.6969
G01 X18.4376 Y12.7011
G01 X18.4279 Y12.7048
G01 X18.3534 Y12.7312
G01 X18.2767 Y12.7507
G01 X18.2666 Y12.7530
G01 X18.2564 Y12.7547
G01 X18.1781 Y12.7661
G01 X18.1678 Y12.7669
G01 X18.0888 Y12.7705
G01 X18.0098 Y12.7669
G01 X17.9994 Y12.7661
G01 X17.9211 Y12.7547
G01 X17.9109 Y12.7530
G01 X17.9008 Y12.7507
G01 X17.8245 Y12.7313
G01 X17.8143 Y12.7280
G01 X17.7399 Y12.7011
G01 X17.7304 Y12.6969
G01 X17.6590 Y12.6628
G01 X17.5911 Y12.6224
G01 X17.5823 Y12.6168
G01 X17.5186 Y12.5699
G01 X17.5102 Y12.5634
G01 X17.4517 Y12.5106
G01 X17.4441 Y12.5035
G01 X17.3905 Y12.4447
G01 X17.3777 Y12.4290
G00 Z2.0000
G00 X18.9811 Y14.9476
G01 F60.00
G01 Z-0.0800
G01 F120.00
G01 X18.9876 Y14.9393
G01 X18.9943 Y14.9316
G01 X19.0476 Y14.8731
G01 X19.0551 Y14.8660
G01 X19.1137 Y14.8132
G01 X19.1220 Y14.8067
G01 X19.1857 Y14.7598
G01 X19.1945 Y14.7542
G01 X19.2624 Y14.7138
G01 X19.3338 Y14.6797
G01 X19.3433 Y14.6755
G01 X19.3530 Y14.6718
G01 X19.4276 Y14.6454
G01 X19.5042 Y14.6259
G01 X19.5143 Y14.6236
G01 X19.5246 Y14.6219
G01 X19.6028 Y14.6105
G01 X19.6132 Y14.6097
G01 X19.6922 Y14.6061
G01 X19.7712 Y14.6097
G01 X19.7815 Y14.6105
G01 X19.8598 Y14.6219
G01 X19.8700 Y14.6236
G01 X19.8802 Y14.6259
G01 X19.9568 Y14.6454
G01 X20.0314 Y14.6718
G01 X20.0411 Y14.6755
G01 X20.0506 Y14.6797
G01 X20.1219 Y14.7138
G01 X20.1899 Y14.7542
G01 X20.1987 Y14.7598
G01 X20.2072 Y14.7657
G01 X20.2705 Y14.8131
G01 X20.2784 Y14.8198
G01 X20.3368 Y14.8731
G01 X20.3440 Y14.8807
G01 X20.3968 Y14.9393
G01 X20.4033 Y14.9476
G01 X20.4502 Y15.0113
G01 X20.4558 Y15.0201
G01 X20.4962 Y15.0880
G01 X20.5302 Y15.1594
G01 X20.5344 Y15.1689
G01 X20.5382 Y15.1786
G01 X20.5646 Y15.2531
G01 X20.5840 Y15.3298
G01 X20.5863 Y15.3399
G01 X20.5881 Y15.3501
G01 X20.5994 Y15.4284
G01 X20.6002 Y15.4388
G01 X20.6038 Y15.5178
G01 X20.6002 Y15.5968
G01 X20.5994 Y15.6071
G01 X20.5881 Y15.6854
G01 X20.5863 Y15.6956
G01 X20.5840 Y15.7057
G01 X20.5647 Y15.7820
G01 X20.5613 Y15.7923
G01 X20.5344 Y15.8666
G01 X20.5302 Y15.8761
G01 X20.4962 Y15.9475
G01 X20.4558 Y16.0155
G01 X20.4502 Y16.0242
G01 X20.4442 Y16.0327
G01 X20.3969 Y16.0961
G01 X20.3901 Y16.1040
G01 X20.3368 Y16.1624
G01 X20.2784 Y16.2157
G01 X20.2705 Y16.2225
G01 X20.2623 Y16.2289
G01 X20.1987 Y16.2758
G01 X20.1899 Y16.2813
G01 X20.1219 Y16.3218
G01 X20.0506 Y16.3558
G01 X20.0411 Y16.3600
G01 X20.0314 Y16.3637
G01 X19.9568 Y16.3901
G01 X19.8802 Y16.4096
G01 X19.8700 Y16.4119
G01 X19.8598 Y16.4137
G01 X19.7815 Y16.4250
G01 X19.7712 Y16.4258
G01 X19.6922 Y16.4294
G01 X19.6132 Y16.4258
G01 X19.6028 Y16.4250
G01 X19.5246 Y16.4137
G01 X19.5143 Y16.4119
G01 X19.5042 Y16.4096
G01 X19.4280 Y16.3903
G01 X19.4177 Y16.3869
G01 X19.3433 Y16.3600
G01 X19.3338 Y16.3558
G01 X19.2624 Y16.3218
G01 X19.1945 Y16.2813
G01 X19.1857 Y16.2758
G01 X19.1772 Y16.2698
G01 X19.1144 Y16.2229
G01 X19.1060 Y16.2157
G01 X19.0476 Y16.1624
G01 X18.9943 Y16.1040
G01 X18.9875 Y16.0961
G01 X18.9402 Y16.0327
G01 X18.9342 Y16.0242
G01 X18.9286 Y16.0155
G01 X18.8882 Y15.9475
G01 X18.8542 Y15.8761
G01 X18.8499 Y15.8666
G01 X18.8462 Y15.8569
G01 X18.8198 Y15.7824
G01 X18.8003 Y15.7057
G01 X18.7981 Y15.6956
G01 X18.7963 Y15.6854
G01 X18.7849 Y15.6071
G01 X18.7842 Y15.5968
G01 X18.7806 Y15.5178
G01 X18.7842 Y15.4388
G01 X18.7849 Y15.4284
G01 X18.7963 Y15.3501
G01 X18.7981 Y15.3399
G01 X18.8003 Y15.3298
G01 X18.8198 Y15.2531
G01 X18.8462 Y15.1786
G01 X18.8499 Y15.1689
G01 X18.8542 Y15.1594
G01 X18.8882 Y15.0880
G01 X18.9286 Y15.0201
G01 X18.9342 Y15.0113
G01 X18.9811 Y14.9476
G00 Z2.0000
G00 X19.0738 Y15.0164
G01 F60.00
G01 Z-0.0800
G01 F120.00
G01 X19.0798 Y15.0091
G01 X19.1292 Y14.9548
G01 X19.1870 Y14.9024
G01 X19.2498 Y14.8557
G01 X19.3169 Y14.8156
G01 X19.3875 Y14.7822
G01 X19.4611 Y14.7558
G01 X19.5369 Y14.7369
G01 X19.6142 Y14.7254
G01 X19.6922 Y14.7216
G01 X19.7702 Y14.7254
G01 X19.8475 Y14.7369
G01 X19.9233 Y14.7558
G01 X19.9969 Y14.7822
G01 X20.0675 Y14.8156
G01 X20.1345 Y14.8557
G01 X20.1973 Y14.9023
G01 X20.2552 Y14.9548
G01 X20.3076 Y15.0126
G01 X20.3542 Y15.0754
G01 X20.3944 Y15.1424
G01 X20.4278 Y15.2131
G01 X20.4541 Y15.2866
G01 X20.4731 Y15.3624
G01 X20.4846 Y15.4397
G01 X20.4884 Y15.5178
G01 X20.4846 Y15.5958
G01 X20.4731 Y15.6731
G01 X20.4542 Y15.7487
G01 X20.4278 Y15.8225
G01 X20.3944 Y15.8931
G01 X20.3542 Y15.9601
G01 X20.3077 Y16.0229
G01 X20.2552 Y16.0808
G01 X20.1973 Y16.1332
G01 X20.1345 Y16.1798
G01 X20.0675 Y16.2199
G01 X19.9969 Y16.2534
G01 X19.9233 Y16.2797
G01 X19.8475 Y16.2987
G01 X19.7702 Y16.3101
G01 X19.6922 Y16.3140
G01 X19.6142 Y16.3101
G01 X19.5369 Y16.2987
G01 X19.4613 Y16.2797
G01 X19.3875 Y16.2534
G01 X19.3169 Y16.2199
G01 X19.2498 Y16.1798
G01 X19.1873 Y16.1334
G01 X19.1292 Y16.0808
G01 X19.0767 Y16.0229
G01 X19.0302 Y15.9601
G01 X18.9900 Y15.8931
G01 X18.9566 Y15.8225
G01 X18.9303 Y15.7489
G01 X18.9113 Y15.6731
G01 X18.8998 Y15.5958
G01 X18.8960 Y15.5178
G01 X18.8998 Y15.4397
G01 X18.9113 Y15.3624
G01 X18.9303 Y15.2866
G01 X18.9566 Y15.2131
G01 X18.9900 Y15.1424
G01 X19.0302 Y15.0754
G01 X19.0738 Y15.0164
G00 Z2.0000
G00 X18.7033 Y15.5956
G01 F60.00
G01 Z-0.0800
G01 F120.00
G01 X18.7033 Y15.4399
G01 X18.7277 Y15.2862
G01 X18.7758 Y15.1382
G01 X18.8464 Y14.9995
G01 X18.9379 Y14.8736
G01 X19.0480 Y14.7635
G01 X19.1739 Y14.6720
G01 X19.3126 Y14.6014
G01 X19.4606 Y14.5533
G01 X19.6144 Y14.5289
G01 X19.7700 Y14.5289
G01 X19.9238 Y14.5533
G01 X20.0718 Y14.6013
G01 X20.2105 Y14.6720
G01 X20.3364 Y14.7635
G01 X20.4465 Y14.8736
G01 X20.5379 Y14.9995
G01 X20.6086 Y15.1382
G01 X20.6567 Y15.2862
G01 X20.6811 Y15.4399
G01 X20.6811 Y15.5956
G01 X20.6567 Y15.7493
G01 X20.6086 Y15.8974
G01 X20.5379 Y16.0360
G01 X20.4465 Y16.1620
G01 X20.3364 Y16.2720
G01 X20.2105 Y16.3635
G01 X20.0718 Y16.4342
G01 X19.9238 Y16.4823
G01 X19.7700 Y16.5066
G01 X19.6144 Y16.5066
G01 X19.4606 Y16.4823
G01 X19.3126 Y16.4342
G01 X19.1739 Y16.3635
G01 X19.0480 Y16.2720
G01 X18.9379 Y16.1620
G01 X18.8464 Y16.0360
G01 X18.7758 Y15.8974
G01 X18.7277 Y15.7493
G01 X18.7033 Y15.5956
G00 Z2.0000
G00 X18.5879 Y15.6047
G01 F60.00
G01 Z-0.0800
G01 F120.00
G01 X18.5879 Y15.4308
G01 X18.6151 Y15.2592
G01 X18.6688 Y15.0939
G01 X18.7477 Y14.9390
G01 X18.8499 Y14.7984
G01 X18.9728 Y14.6754
G01 X19.1134 Y14.5733
G01 X19.2683 Y14.4944
G01 X19.4336 Y14.4407
G01 X19.6053 Y14.4135
G01 X19.7791 Y14.4135
G01 X19.9508 Y14.4407
G01 X20.1161 Y14.4944
G01 X20.2710 Y14.5733
G01 X20.4116 Y14.6754
G01 X20.5345 Y14.7984
G01 X20.6367 Y14.9390
G01 X20.7156 Y15.0939
G01 X20.7693 Y15.2592
G01 X20.7965 Y15.4308
G01 X20.7965 Y15.6047
G01 X20.7693 Y15.7764
G01 X20.7156 Y15.9417
G01 X20.6367 Y16.0965
G01 X20.5345 Y16.2372
G01 X20.4116 Y16.3601
G01 X20.2710 Y16.4622
G01 X20.1161 Y16.5412
G01 X19.9508 Y16.5949
G01 X19.7791 Y16.6221
G01 X19.6053 Y16.6221
G01 X19.4336 Y16.5949
G01 X19.2683 Y16.5412
G01 X19.1134 Y16.4622
G01 X18.9728 Y16.3601
G01 X18.8499 Y16.2372
G01 X18.7477 Y16.0965
G01 X18.6688 Y15.9417
G01 X18.6151 Y15.7764
G01 X18.5879 Y15.6047
G00 Z2.0000
G00 X18.9811 Y20.0276
G01 F60.00
G01 Z-0.0800
G01 F120.00
G01 X18.9876 Y20.0193
G01 X18.9943 Y20.0116
G01 X19.0476 Y19.9531
G01 X19.0551 Y19.9460
G01 X19.1137 Y19.8932
G01 X19.1220 Y19.8867
G01 X19.1857 Y19.8398
G01 X19.1945 Y19.8342
G01 X19.2624 Y19.7938
G01 X19.3338 Y19.7597
G01 X19.3433 Y19.7555
G01 X19.3530 Y19.7518
G01 X19.4276 Y19.7254
G01 X19.5042 Y19.7059
G01 X19.5143 Y19.7036
G01 X19.5246 Y19.7019
G01 X19.6028 Y19.6905
G01 X19.6132 Y19.6897
G01 X19.6922 Y19.6861
G01 X19.7712 Y19.6897
G01 X19.7815 Y19.6905
G01 X19.8598 Y19.7019
G01 X19.8700 Y19.7036
G01 X19.8802 Y19.7059
G01 X19.9568 Y19.7254
G01 X20.0314 Y19.7518
G01 X20.0411 Y19.7555
G01 X20.0506 Y19.7597
G01 X20.1219 Y19.7938
G01 X20.1899 Y19.8342
G01 X20.1987 Y19.8398
G01 X20.2072 Y19.8457
G01 X20.2705 Y19.8931
G01 X20.2784 Y19.8998
G01 X20.3368 Y19.9531
G01 X20.3440 Y19.9607
G01 X20.3968 Y20.0193
G01 X20.4033 Y20.0276
G01 X20.4502 Y20.0913
G01 X20.4558 Y20.1001
G01 X20.4962 Y20.1680
G01 X20.5302 Y20.2394
G01 X20.5344 Y20.2489
G01 X20.5382 Y20.2586
G01 X20.5646 Y20.3331
G01 X20.5840 Y20.4098
G01 X20.5863 Y20.4199
G01 X20.5881 Y20.4301
G01 X20.5994 Y20.5084
G01 X20.6002 Y20.5188
G01 X20.6038 Y20.5978
G01 X20.6002 Y20.6768
G01 X20.5994 Y20.6871
G01 X20.5881 Y20.7654
G01 X20.5863 Y20.7756
G01 X20.5840 Y20.7857
G01 X20.5647 Y20.8620
G01 X20.5613 Y20.8723
G01 X20.5344 Y20.9466
G01 X20.5302 Y20.9561
G01 X20.4962 Y21.0275
G01 X20.4558 Y21.0955
G01 X20.4502 Y21.1042
G01 X20.4442 Y21.1127
G01 X20.3969 Y21.1761
G01 X20.3901 Y21.1840
G01 X20.3368 Y21.2424
G01 X20.2784 Y21.2957
G01 X20.2705 Y21.3025
G01 X20.2623 Y21.3089
G01 X20.1987 Y21.3558
G01 X20.1899 Y21.3613
G01 X20.1219 Y21.4018
G01 X20.0506 Y21.4358
G01 X20.0411 Y21.4400
G01 X20.0314 Y21.4437
G01 X19.9568 Y21.4701
G01 X19.8802 Y21.4896
G01 X19.8700 Y21.4919
G01 X19.8598 Y21.4937
G01 X19.7815 Y21.5050
G01 X19.7712 Y21.5058
G01 X19.6922 Y21.5094
G01 X19.6132 Y21.5058
G01 X19.6028 Y21.5050
G01 X19.5246 Y21.4937
G01 X19.5143 Y21.4919
G01 X19.5042 Y21.4896
G01 X19.4280 Y21.4703
G01 X19.4177 Y21.4669
G01 X19.3433 Y21.4400
G01 X19.3338 Y21.4358
G01 X19.2624 Y21.4018
G01 X19.1945 Y21.3613
G01 X19.1857 Y21.3558
G01 X19.1772 Y21.3498
G01 X19.1144 Y21.3029
G01 X19.1060 Y21.2957
G01 X19.0476 Y21.2424
G01 X18.9943 Y21.1840
G01 X18.9875 Y21.1761
G01 X18.9402 Y21.1127
G01 X18.9342 Y21.1042
G01 X18.9286 Y21.0955
G01 X18.8882 Y21.0275
G01 X18.8542 Y20.9561
G01 X18.8499 Y20.9466
G01 X18.8462 Y20.9369
G01 X18.8198 Y20.8624
G01 X18.8003 Y20.7857
G01 X18.7981 Y20.7756
G01 X18.7963 Y20.7654
G01 X18.7849 Y20.6871
G01 X18.7842 Y20.6768
G01 X18.7806 Y20.5978
G01 X18.7842 Y20.5188
G01 X18.7849 Y20.5084
G01 X18.7963 Y20.4301
G01 X18.7981 Y20.4199
G01 X18.8003 Y20.4098
G01 X18.8198 Y20.3331
G01 X18.8462 Y20.2586
G01 X18.8499 Y20.2489
G01 X18.8542 Y20.2394
G01 X18.8882 Y20.1680
G01 X18.9286 Y20.1001
G01 X18.9342 Y20.0913
G01 X18.9811 Y20.0276
G00 Z2.0000
G00 X19.0738 Y20.0964
G01 F60.00
G01 Z-0.0800
G01 F120.00
G01 X19.0798 Y20.0891
G01 X19.1292 Y20.0348
G01 X19.1870 Y19.9824
G01 X19.2498 Y19.9357
G01 X19.3169 Y19.8956
G01 X19.3875 Y19.8622
G01 X19.4611 Y19.8358
G01 X19.5369 Y19.8169
G01 X19.6142 Y19.8054
G01 X19.6922 Y19.8016
G01 X19.7702 Y19.8054
G01 X19.8475 Y19.8169
G01 X19.9233 Y19.8358
G01 X19.9969 Y19.8622
G01 X20.0675 Y19.8956
G01 X20.1345 Y19.9357
G01 X20.1973 Y19.9823
G01 X20.2552 Y20.0348
G01 X20.3076 Y20.0926
G01 X20.3542 Y20.1554
G01 X20.3944 Y20.2224
G01 X20.4278 Y20.2931
G01 X20.4541 Y20.3666
G01 X20.4731 Y20.4424
G01 X20.4846 Y20.5197
G01 X20.4884 Y20.5978
G01 X20.4846 Y20.6758
G01 X20.4731 Y20.7531
G01 X20.4542 Y20.8287
G01 X20.4278 Y20.9025
G01 X20.3944 Y20.9731
G01 X20.3542 Y21.0401
G01 X20.3077 Y21.1029
G01 X20.2552 Y21.1608
G01 X20.1973 Y21.2132
G01 X20.1345 Y21.2598
G01 X20.0675 Y21.2999
G01 X19.9969 Y21.3334
G01 X19.9233 Y21.3597
G01 X19.8475 Y21.3787
G01 X19.7702 Y21.3901
G01 X19.6922 Y21.3940
G01 X19.6142 Y21.3901
G01 X19.5369 Y21.3787
G01 X19.4613 Y21.3597
G01 X19.3875 Y21.3334
G01 X19.3169 Y21.2999
G01 X19.2498 Y21.2598
G01 X19.1873 Y21.2134
G01 X19.1292 Y21.1608
G01 X19.0767 Y21.1029
G01 X19.0302 Y21.0401
G01 X18.9900 Y20.9731
G01 X18.9566 Y20.9025
G01 X18.9303 Y20.8289
G01 X18.9113 Y20.7531
G01 X18.8998 Y20.6758
G01 X18.8960 Y20.5978
G01 X18.8998 Y20.5197
G01 X18.9113 Y20.4424
G01 X18.9303 Y20.3666
G01 X18.9566 Y20.2931
G01 X18.9900 Y20.2224
G01 X19.0302 Y20.1554
G01 X19.0738 Y20.0964
G00 Z2.0000
G00 X18.7033 Y20.6756
G01 F60.00
G01 Z-0.0800
G01 F120.00
G01 X18.7033 Y20.5199
G01 X18.7277 Y20.3662
G01 X18.7758 Y20.2182
G01 X18.8464 Y20.0795
G01 X18.9379 Y19.9536
G01 X19.0480 Y19.8435
G01 X19.1739 Y19.7520
G01 X19.3126 Y19.6814
G01 X19.4606 Y19.6333
G01 X19.6144 Y19.6089
G01 X19.7700 Y19.6089
G01 X19.9238 Y19.6333
G01 X20.0718 Y19.6813
G01 X20.2105 Y19.7520
G01 X20.3364 Y19.8435
G01 X20.4465 Y19.9536
G01 X20.5379 Y20.0795
G01 X20.6086 Y20.2182
G01 X20.6567 Y20.3662
G01 X20.6811 Y20.5199
G01 X20.6811 Y20.6756
G01 X20.6567 Y20.8293
G01 X20.6086 Y20.9774
G01 X20.5379 Y21.1160
G01 X20.4465 Y21.2420
G01 X20.3364 Y21.3520
G01 X20.2105 Y21.4435
G01 X20.0718 Y21.5142
G01 X19.9238 Y21.5623
G01 X19.7700 Y21.5866
G01 X19.6144 Y21.5866
G01 X19.4606 Y21.5623
G01 X19.3126 Y21.5142
G01 X19.1739 Y21.4435
G01 X19.0480 Y21.3520
G01 X18.9379 Y21.2420
G01 X18.8464 Y21.1160
G01 X18.7758 Y20.9774
G01 X18.7277 Y20.8293
G01 X18.7033 Y20.6756
G00 Z2.0000
G00 X18.5879 Y20.6847
G01 F60.00
G01 Z-0.0800
G01 F120.00
G01 X18.5879 Y20.5108
G01 X18.6151 Y20.3392
G01 X18.6688 Y20.1739
G01 X18.7477 Y20.0190
G01 X18.8499 Y19.8784
G01 X18.9728 Y19.7554
G01 X19.1134 Y19.6533
G01 X19.2683 Y19.5744
G01 X19.4336 Y19.5207
G01 X19.6053 Y19.4935
G01 X19.7791 Y19.4935
G01 X19.9508 Y19.5207
G01 X20.1161 Y19.5744
G01 X20.2710 Y19.6533
G01 X20.4116 Y19.7554
G01 X20.5345 Y19.8784
G01 X20.6367 Y20.0190
G01 X20.7156 Y20.1739
G01 X20.7693 Y20.3392
G01 X20.7965 Y20.5108
G01 X20.7965 Y20.6847
G01 X20.7693 Y20.8564
G01 X20.7156 Y21.0217
G01 X20.6367 Y21.1765
G01 X20.5345 Y21.3172
G01 X20.4116 Y21.4401
G01 X20.2710 Y21.5422
G01 X20.1161 Y21.6212
G01 X19.9508 Y21.6749
G01 X19.7791 Y21.7021
G01 X19.6053 Y21.7021
G01 X19.4336 Y21.6749
G01 X19.2683 Y21.6212
G01 X19.1134 Y21.5422
G01 X18.9728 Y21.4401
G01 X18.8499 Y21.3172
G01 X18.8066 Y21.2576
G01 X18.7477 Y21.1765
G01 X18.6688 Y21.0217
G01 X18.6151 Y20.8564
G01 X18.5879 Y20.6847
G00 Z2.0000
G00 X13.6016 Y20.0016
G01 F60.00
G01 Z-0.0800
G01 F120.00
G01 X13.8900 Y20.0016
G01 X13.9004 Y20.0014
G01 X13.9159 Y20.0000
G01 X13.9313 Y19.9976
G01 X13.9464 Y19.9940
G01 X13.9613 Y19.9893
G01 X13.9758 Y19.9835
G01 X13.9898 Y19.9766
G01 X14.0032 Y19.9688
G01 X14.0161 Y19.9600
G01 X14.0282 Y19.9503
G01 X14.0359 Y19.9433
G01 X14.0433 Y19.9359
G01 X14.0536 Y19.9243
G01 X14.0630 Y19.9119
G01 X14.0688 Y19.9032
G01 X14.0741 Y19.8943
G01 X14.0790 Y19.8852
G01 X14.0835 Y19.8758
G01 X14.0893 Y19.8613
G01 X14.0940 Y19.8464
G01 X14.0965 Y19.8364
G01 X14.0985 Y19.8262
G01 X14.1000 Y19.8159
G01 X14.1011 Y19.8056
G01 X14.1016 Y19.7900
G01 X14.1016 Y19.5016
G01 X14.1784 Y19.5016
G01 X14.1784 Y19.8265
G01 X14.1760 Y19.8483
G01 X14.1457 Y19.9296
G01 X14.0960 Y19.9960
G01 X14.0296 Y20.0457
G01 X13.9483 Y20.0760
G01 X13.9265 Y20.0784
G01 X13.6016 Y20.0784
G01 X13.6016 Y20.0016
G00 Z2.0000
G00 X13.4862 Y19.8862
G01 F60.00
G01 Z-0.0800
G01 F120.00
G01 X13.8924 Y19.8862
G01 X13.8994 Y19.8857
G01 X13.9064 Y19.8848
G01 X13.9179 Y19.8821
G01 X13.9290 Y19.8779
G01 X13.9353 Y19.8748
G01 X13.9415 Y19.8713
G01 X13.9510 Y19.8644
G01 X13.9597 Y19.8563
G01 X13.9673 Y19.8473
G01 X13.9725 Y19.8395
G01 X13.9770 Y19.8311
G01 X13.9813 Y19.8202
G01 X13.9844 Y19.8088
G01 X13.9857 Y19.7994
G01 X13.9862 Y19.7900
G01 X13.9862 Y19.3862
G01 X14.2938 Y19.3862
G01 X14.2938 Y19.8327
G01 X14.2892 Y19.8751
G01 X14.2481 Y19.9855
G01 X14.1785 Y20.0785
G01 X14.0855 Y20.1481
G01 X13.9751 Y20.1892
G01 X13.9327 Y20.1938
G01 X13.4862 Y20.1938
G01 X13.4862 Y19.8862
G00 Z2.0000
G00 X12.1343 Y19.9296
G01 F60.00
G01 Z-0.0800
G01 F120.00
G01 X12.1040 Y19.8483
G01 X12.1016 Y19.8265
G01 X12.1016 Y19.5016
G01 X12.1784 Y19.5016
G01 X12.1784 Y19.7900
G01 X12.1789 Y19.8056
G01 X12.1800 Y19.8159
G01 X12.1824 Y19.8313
G01 X12.1860 Y19.8464
G01 X12.1907 Y19.8613
G01 X12.1965 Y19.8758
G01 X12.2034 Y19.8898
G01 X12.2112 Y19.9032
G01 X12.2200 Y19.9161
G01 X12.2297 Y19.9282
G01 X12.2367 Y19.9359
G01 X12.2441 Y19.9433
G01 X12.2557 Y19.9536
G01 X12.2639 Y19.9600
G01 X12.2724 Y19.9660
G01 X12.2857 Y19.9741
G01 X12.2995 Y19.9813
G01 X12.3090 Y19.9855
G01 X12.3187 Y19.9893
G01 X12.3286 Y19.9925
G01 X12.3386 Y19.9953
G01 X12.3538 Y19.9985
G01 X12.3693 Y20.0006
G01 X12.3796 Y20.0014
G01 X12.3900 Y20.0016
G01 X12.6784 Y20.0016
G01 X12.6784 Y20.0784
G01 X12.3535 Y20.0784
G01 X12.3317 Y20.0760
G01 X12.2504 Y20.0457
G01 X12.1840 Y19.9960
G01 X12.1343 Y19.9296
G00 Z2.0000
G00 X12.0319 Y19.9855
G01 F60.00
G01 Z-0.0800
G01 F120.00
G01 X11.9908 Y19.8751
G01 X11.9862 Y19.8327
G01 X11.9862 Y19.3862
G01 X12.2938 Y19.3862
G01 X12.2938 Y19.7924
G01 X12.2948 Y19.8041
G01 X12.2961 Y19.8111
G01 X12.2979 Y19.8179
G01 X12.3002 Y19.8246
G01 X12.3030 Y19.8311
G01 X12.3087 Y19.8415
G01 X12.3156 Y19.8510
G01 X12.3220 Y19.8580
G01 X12.3290 Y19.8644
G01 X12.3385 Y19.8713
G01 X12.3467 Y19.8759
G01 X12.3576 Y19.8806
G01 X12.3689 Y19.8839
G01 X12.3806 Y19.8857
G01 X12.3900 Y19.8862
G01 X12.7938 Y19.8862
G01 X12.7938 Y20.1938
G01 X12.3473 Y20.1938
G01 X12.3049 Y20.1892
G01 X12.1945 Y20.1481
G01 X12.1015 Y20.0785
G01 X12.0319 Y19.9855
G00 Z2.0000
G00 X15.7089 Y26.4299
G01 F60.00
G01 Z-0.0800
G01 F120.00
G01 X15.7154 Y26.4216
G01 X15.7221 Y26.4138
G01 X15.7754 Y26.3554
G01 X15.7829 Y26.3482
G01 X15.8415 Y26.2954
G01 X15.8499 Y26.2889
G01 X15.9135 Y26.2420
G01 X15.9223 Y26.2364
G01 X15.9903 Y26.1960
G01 X16.0616 Y26.1620
G01 X16.0711 Y26.1578
G01 X16.0808 Y26.1540
G01 X16.1554 Y26.1276
G01 X16.2320 Y26.1082
G01 X16.2421 Y26.1059
G01 X16.2524 Y26.1041
G01 X16.3306 Y26.0927
G01 X16.3410 Y26.0920
G01 X16.4200 Y26.0884
G01 X16.4990 Y26.0920
G01 X16.5094 Y26.0927
G01 X16.5876 Y26.1041
G01 X16.5979 Y26.1059
G01 X16.6080 Y26.1082
G01 X16.6846 Y26.1276
G01 X16.7592 Y26.1540
G01 X16.7689 Y26.1578
G01 X16.7784 Y26.1620
G01 X16.8497 Y26.1960
G01 X16.9177 Y26.2364
G01 X16.9265 Y26.2420
G01 X16.9350 Y26.2480
G01 X16.9983 Y26.2953
G01 X17.0062 Y26.3021
G01 X17.0646 Y26.3554
G01 X17.1179 Y26.4138
G01 X17.1247 Y26.4217
G01 X17.1720 Y26.4850
G01 X17.1780 Y26.4935
G01 X17.1836 Y26.5023
G01 X17.2240 Y26.5703
G01 X17.2580 Y26.6416
G01 X17.2622 Y26.6511
G01 X17.2660 Y26.6608
G01 X17.2924 Y26.7354
G01 X17.3118 Y26.8120
G01 X17.3141 Y26.8221
G01 X17.3159 Y26.8324
G01 X17.3273 Y26.9106
G01 X17.3280 Y26.9210
G01 X17.3316 Y27.0000
G01 X17.3280 Y27.0790
G01 X17.3273 Y27.0894
G01 X17.3159 Y27.1676
G01 X17.3141 Y27.1779
G01 X17.3118 Y27.1880
G01 X17.2924 Y27.2646
G01 X17.2660 Y27.3392
G01 X17.2622 Y27.3489
G01 X17.2580 Y27.3584
G01 X17.2240 Y27.4297
G01 X17.1836 Y27.4977
G01 X17.1780 Y27.5065
G01 X17.1311 Y27.5701
G01 X17.1245 Y27.5785
G01 X17.0718 Y27.6371
G01 X17.0646 Y27.6446
G01 X17.0062 Y27.6979
G01 X16.9983 Y27.7047
G01 X16.9901 Y27.7111
G01 X16.9265 Y27.7580
G01 X16.9177 Y27.7636
G01 X16.8497 Y27.8040
G01 X16.7784 Y27.8380
G01 X16.7689 Y27.8422
G01 X16.7592 Y27.8460
G01 X16.6846 Y27.8724
G01 X16.6080 Y27.8918
G01 X16.5979 Y27.8941
G01 X16.5876 Y27.8959
G01 X16.5094 Y27.9073
G01 X16.4990 Y27.9080
G01 X16.4200 Y27.9116
G01 X16.3410 Y27.9080
G01 X16.3306 Y27.9073
G01 X16.2524 Y27.8959
G01 X16.2421 Y27.8941
G01 X16.2320 Y27.8918
G01 X16.1558 Y27.8725
G01 X16.1455 Y27.8691
G01 X16.0711 Y27.8422
G01 X16.0616 Y27.8380
G01 X15.9903 Y27.8040
G01 X15.9223 Y27.7636
G01 X15.9135 Y27.7580
G01 X15.9050 Y27.7520
G01 X15.8422 Y27.7052
G01 X15.8338 Y27.6979
G01 X15.7754 Y27.6446
G01 X15.7221 Y27.5862
G01 X15.7153 Y27.5783
G01 X15.6680 Y27.5150
G01 X15.6620 Y27.5065
G01 X15.6564 Y27.4977
G01 X15.6160 Y27.4297
G01 X15.5820 Y27.3584
G01 X15.5778 Y27.3489
G01 X15.5740 Y27.3392
G01 X15.5476 Y27.2646
G01 X15.5282 Y27.1880
G01 X15.5259 Y27.1779
G01 X15.5241 Y27.1676
G01 X15.5127 Y27.0894
G01 X15.5120 Y27.0790
G01 X15.5084 Y27.0000
G01 X15.5120 Y26.9210
G01 X15.5127 Y26.9106
G01 X15.5241 Y26.8324
G01 X15.5259 Y26.8221
G01 X15.5282 Y26.8120
G01 X15.5476 Y26.7354
G01 X15.5740 Y26.6608
G01 X15.5778 Y26.6511
G01 X15.5820 Y26.6416
G01 X15.6160 Y26.5703
G01 X15.6564 Y26.5023
G01 X15.6620 Y26.4935
G01 X15.7089 Y26.4299
G00 Z2.0000
G00 X15.8016 Y26.4986
G01 F60.00
G01 Z-0.0800
G01 F120.00
G01 X15.8076 Y26.4913
G01 X15.8570 Y26.4370
G01 X15.9148 Y26.3846
G01 X15.9777 Y26.3380
G01 X16.0447 Y26.2978
G01 X16.1153 Y26.2644
G01 X16.1889 Y26.2381
G01 X16.2647 Y26.2191
G01 X16.3420 Y26.2076
G01 X16.4200 Y26.2038
G01 X16.4980 Y26.2076
G01 X16.5753 Y26.2191
G01 X16.6511 Y26.2381
G01 X16.7247 Y26.2644
G01 X16.7953 Y26.2978
G01 X16.8623 Y26.3380
G01 X16.9251 Y26.3845
G01 X16.9830 Y26.4370
G01 X17.0355 Y26.4949
G01 X17.0820 Y26.5577
G01 X17.1222 Y26.6247
G01 X17.1556 Y26.6953
G01 X17.1819 Y26.7689
G01 X17.2009 Y26.8447
G01 X17.2124 Y26.9220
G01 X17.2162 Y27.0000
G01 X17.2124 Y27.0780
G01 X17.2009 Y27.1553
G01 X17.1819 Y27.2311
G01 X17.1556 Y27.3047
G01 X17.1222 Y27.3753
G01 X17.0820 Y27.4423
G01 X17.0354 Y27.5052
G01 X16.9830 Y27.5630
G01 X16.9251 Y27.6155
G01 X16.8623 Y27.6620
G01 X16.7953 Y27.7022
G01 X16.7247 Y27.7356
G01 X16.6511 Y27.7619
G01 X16.5753 Y27.7809
G01 X16.4980 Y27.7924
G01 X16.4200 Y27.7962
G01 X16.3420 Y27.7924
G01 X16.2647 Y27.7809
G01 X16.1891 Y27.7620
G01 X16.1153 Y27.7356
G01 X16.0447 Y27.7022
G01 X15.9777 Y27.6620
G01 X15.9152 Y27.6157
G01 X15.8570 Y27.5630
G01 X15.8045 Y27.5051
G01 X15.7580 Y27.4423
G01 X15.7178 Y27.3753
G01 X15.6844 Y27.3047
G01 X15.6581 Y27.2311
G01 X15.6391 Y27.1553
G01 X15.6276 Y27.0780
G01 X15.6238 Y27.0000
G01 X15.6276 Y26.9220
G01 X15.6391 Y26.8447
G01 X15.6581 Y26.7689
G01 X15.6844 Y26.6953
G01 X15.7178 Y26.6247
G01 X15.7580 Y26.5577
G01 X15.8016 Y26.4986
G00 Z2.0000
G00 X15.4311 Y27.0778
G01 F60.00
G01 Z-0.0800
G01 F120.00
G01 X15.4311 Y26.9222
G01 X15.4555 Y26.7684
G01 X15.5036 Y26.6204
G01 X15.5743 Y26.4817
G01 X15.6657 Y26.3558
G01 X15.7758 Y26.2457
G01 X15.9017 Y26.1543
G01 X16.0404 Y26.0836
G01 X16.1884 Y26.0355
G01 X16.3422 Y26.0111
G01 X16.4978 Y26.0111
G01 X16.6516 Y26.0355
G01 X16.7996 Y26.0836
G01 X16.9383 Y26.1543
G01 X17.0642 Y26.2457
G01 X17.1743 Y26.3558
G01 X17.2657 Y26.4817
G01 X17.3364 Y26.6204
G01 X17.3845 Y26.7684
G01 X17.4089 Y26.9222
G01 X17.4089 Y27.0778
G01 X17.3845 Y27.2316
G01 X17.3364 Y27.3796
G01 X17.2657 Y27.5183
G01 X17.1743 Y27.6442
G01 X17.0642 Y27.7543
G01 X16.9383 Y27.8458
G01 X16.7996 Y27.9164
G01 X16.6516 Y27.9645
G01 X16.4978 Y27.9889
G01 X16.3422 Y27.9889
G01 X16.1884 Y27.9645
G01 X16.0404 Y27.9164
G01 X15.9017 Y27.8457
G01 X15.7758 Y27.7543
G01 X15.6657 Y27.6442
G01 X15.5743 Y27.5183
G01 X15.5036 Y27.3796
G01 X15.4555 Y27.2316
G01 X15.4311 Y27.0778
G00 Z2.0000
G00 X15.3157 Y27.0869
G01 F60.00
G01 Z-0.0800
G01 F120.00
G01 X15.3157 Y26.9131
G01 X15.3429 Y26.7414
G01 X15.3966 Y26.5761
G01 X15.4755 Y26.4212
G01 X15.5777 Y26.2806
G01 X15.7006 Y26.1577
G01 X15.8412 Y26.0555
G01 X15.9961 Y25.9766
G01 X16.1614 Y25.9229
G01 X16.3331 Y25.8957
G01 X16.5069 Y25.8957
G01 X16.6786 Y25.9229
G01 X16.8439 Y25.9766
G01 X16.9988 Y26.0555
G01 X17.1394 Y26.1577
G01 X17.2623 Y26.2806
G01 X17.3645 Y26.4212
G01 X17.4434 Y26.5761
G01 X17.4971 Y26.7414
G01 X17.5243 Y26.9131
G01 X17.5243 Y27.0869
G01 X17.4971 Y27.2586
G01 X17.4434 Y27.4239
G01 X17.3645 Y27.5788
G01 X17.2623 Y27.7194
G01 X17.1394 Y27.8423
G01 X16.9988 Y27.9445
G01 X16.8439 Y28.0234
G01 X16.6786 Y28.0771
G01 X16.5069 Y28.1043
G01 X16.3331 Y28.1043
G01 X16.1614 Y28.0771
G01 X15.9961 Y28.0234
G01 X15.8412 Y27.9445
G01 X15.7006 Y27.8423
G01 X15.5777 Y27.7194
G01 X15.4755 Y27.5788
G01 X15.3966 Y27.4239
G01 X15.3429 Y27.2586
G01 X15.3157 Y27.0869
G00 Z2.0000
G00 X13.0561 Y29.5022
G01 F60.00
G01 Z-0.0800
G01 F120.00
G01 X13.1400 Y29.4984
G01 X13.1504 Y29.4986
G01 X13.2343 Y29.5030
G01 X13.3174 Y29.5151
G01 X13.3276 Y29.5168
G01 X13.3377 Y29.5191
G01 X13.4191 Y29.5398
G01 X13.4983 Y29.5678
G01 X13.5080 Y29.5716
G01 X13.5840 Y29.6072
G01 X13.5933 Y29.6119
G01 X13.6024 Y29.6170
G01 X13.6743 Y29.6604
G01 X13.7419 Y29.7103
G01 X13.7501 Y29.7166
G01 X13.7579 Y29.7234
G01 X13.8200 Y29.7800
G01 X13.8766 Y29.8421
G01 X13.8834 Y29.8499
G01 X13.8897 Y29.8581
G01 X13.9396 Y29.9257
G01 X13.9830 Y29.9976
G01 X13.9881 Y30.0067
G01 X13.9928 Y30.0160
G01 X14.0284 Y30.0920
G01 X14.0322 Y30.1017
G01 X14.0602 Y30.1809
G01 X14.0630 Y30.1909
G01 X14.0832 Y30.2724
G01 X14.0957 Y30.3554
G01 X14.0971 Y30.3665
G01 X14.1014 Y30.4496
G01 X14.1016 Y30.4600
G01 X14.0978 Y30.5439
G01 X14.0970 Y30.5543
G01 X14.0957 Y30.5646
G01 X14.0832 Y30.6476
G01 X14.0630 Y30.7291
G01 X14.0602 Y30.7391
G01 X14.0322 Y30.8183
G01 X14.0284 Y30.8280
G01 X13.9928 Y30.9040
G01 X13.9881 Y30.9133
G01 X13.9830 Y30.9224
G01 X13.9396 Y30.9943
G01 X13.8897 Y31.0619
G01 X13.8834 Y31.0701
G01 X13.8766 Y31.0779
G01 X13.8200 Y31.1400
G01 X13.7579 Y31.1966
G01 X13.7501 Y31.2034
G01 X13.7419 Y31.2097
G01 X13.6743 Y31.2596
G01 X13.6024 Y31.3030
G01 X13.5933 Y31.3081
G01 X13.5840 Y31.3128
G01 X13.5080 Y31.3484
G01 X13.4983 Y31.3522
G01 X13.4191 Y31.3802
G01 X13.4091 Y31.3830
G01 X13.3276 Y31.4032
G01 X13.2446 Y31.4157
G01 X13.2343 Y31.4170
G01 X13.2239 Y31.4178
G01 X13.1400 Y31.4216
G01 X13.0561 Y31.4178
G01 X13.0457 Y31.4170
G01 X13.0354 Y31.4157
G01 X12.9524 Y31.4032
G01 X12.8709 Y31.3830
G01 X12.8609 Y31.3802
G01 X12.7817 Y31.3522
G01 X12.7720 Y31.3484
G01 X12.6960 Y31.3128
G01 X12.6867 Y31.3081
G01 X12.6776 Y31.3030
G01 X12.6057 Y31.2596
G01 X12.5381 Y31.2097
G01 X12.5299 Y31.2034
G01 X12.5221 Y31.1966
G01 X12.4600 Y31.1400
G01 X12.4034 Y31.0779
G01 X12.3966 Y31.0701
G01 X12.3903 Y31.0619
G01 X12.3404 Y30.9943
G01 X12.2970 Y30.9224
G01 X12.2919 Y30.9133
G01 X12.2872 Y30.9040
G01 X12.2516 Y30.8280
G01 X12.2478 Y30.8183
G01 X12.2198 Y30.7391
G01 X12.1991 Y30.6577
G01 X12.1968 Y30.6476
G01 X12.1951 Y30.6374
G01 X12.1830 Y30.5543
G01 X12.1786 Y30.4704
G01 X12.1784 Y30.4600
G01 X12.1786 Y30.4496
G01 X12.1830 Y30.3657
G01 X12.1951 Y30.2826
G01 X12.1968 Y30.2724
G01 X12.1991 Y30.2623
G01 X12.2198 Y30.1809
G01 X12.2478 Y30.1017
G01 X12.2516 Y30.0920
G01 X12.2872 Y30.0160
G01 X12.2919 Y30.0067
G01 X12.2970 Y29.9976
G01 X12.3404 Y29.9257
G01 X12.3903 Y29.8581
G01 X12.3966 Y29.8499
G01 X12.4034 Y29.8421
G01 X12.4600 Y29.7800
G01 X12.5221 Y29.7234
G01 X12.5299 Y29.7166
G01 X12.5381 Y29.7103
G01 X12.6057 Y29.6604
G01 X12.6776 Y29.6170
G01 X12.6867 Y29.6119
G01 X12.6960 Y29.6072
G01 X12.7720 Y29.5716
G01 X12.7817 Y29.5678
G01 X12.8609 Y29.5398
G01 X12.9423 Y29.5191
G01 X12.9524 Y29.5168
G01 X13.0354 Y29.5043
G01 X13.0465 Y29.5029
G01 X13.0561 Y29.5022
G00 Z2.0000
G00 X13.0618 Y29.6175
G01 F60.00
G01 Z-0.0800
G01 F120.00
G01 X13.1400 Y29.6138
G01 X13.2229 Y29.6179
G01 X13.3051 Y29.6301
G01 X13.3856 Y29.6502
G01 X13.4638 Y29.6782
G01 X13.5389 Y29.7137
G01 X13.6101 Y29.7564
G01 X13.6768 Y29.8059
G01 X13.7384 Y29.8616
G01 X13.7941 Y29.9232
G01 X13.8436 Y29.9899
G01 X13.8863 Y30.0611
G01 X13.9218 Y30.1362
G01 X13.9498 Y30.2144
G01 X13.9699 Y30.2949
G01 X13.9822 Y30.3774
G01 X13.9862 Y30.4600
G01 X13.9821 Y30.5429
G01 X13.9699 Y30.6251
G01 X13.9498 Y30.7056
G01 X13.9218 Y30.7838
G01 X13.8863 Y30.8589
G01 X13.8436 Y30.9301
G01 X13.7941 Y30.9968
G01 X13.7384 Y31.0584
G01 X13.6768 Y31.1141
G01 X13.6101 Y31.1636
G01 X13.5389 Y31.2063
G01 X13.4638 Y31.2418
G01 X13.3856 Y31.2698
G01 X13.3051 Y31.2899
G01 X13.2229 Y31.3021
G01 X13.1400 Y31.3062
G01 X13.0571 Y31.3021
G01 X12.9749 Y31.2899
G01 X12.8944 Y31.2698
G01 X12.8162 Y31.2418
G01 X12.7411 Y31.2063
G01 X12.6699 Y31.1636
G01 X12.6032 Y31.1141
G01 X12.5416 Y31.0584
G01 X12.4859 Y30.9968
G01 X12.4364 Y30.9301
G01 X12.3937 Y30.8589
G01 X12.3582 Y30.7838
G01 X12.3302 Y30.7056
G01 X12.3101 Y30.6251
G01 X12.2979 Y30.5429
G01 X12.2938 Y30.4600
G01 X12.2979 Y30.3771
G01 X12.3101 Y30.2949
G01 X12.3302 Y30.2144
G01 X12.3582 Y30.1362
G01 X12.3937 Y30.0611
G01 X12.4364 Y29.9899
G01 X12.4859 Y29.9232
G01 X12.5416 Y29.8616
G01 X12.6032 Y29.8059
G01 X12.6699 Y29.7564
G01 X12.7411 Y29.7137
G01 X12.8162 Y29.6782
G01 X12.8944 Y29.6502
G01 X12.9749 Y29.6301
G01 X13.0524 Y29.6185
G01 X13.0618 Y29.6175
G00 Z2.0000
G00 X13.0062 Y31.5281
G01 F60.00
G01 Z-0.0800
G01 F120.00
G01 X13.0264 Y31.5310
G01 X13.0424 Y31.5326
G01 X13.1240 Y31.5367
G01 X13.1400 Y31.5371
G01 X13.1560 Y31.5367
G01 X13.2376 Y31.5326
G01 X13.2536 Y31.5310
G01 X13.2720 Y31.5284
G01 X13.2584 Y31.5580
G01 X13.2523 Y31.5730
G01 X13.2444 Y31.5961
G01 X13.2383 Y31.6197
G01 X13.2339 Y31.6436
G01 X13.2315 Y31.6662
G01 X13.2287 Y31.6805
G01 X13.2264 Y31.6966
G01 X13.2244 Y31.7209
G01 X13.2241 Y31.7371
G01 X13.2246 Y31.7534
G01 X13.2269 Y31.7776
G01 X13.2330 Y31.8186
G01 X13.2382 Y31.8424
G01 X13.2452 Y31.8657
G01 X13.2509 Y31.8809
G01 X13.2573 Y31.8959
G01 X13.2675 Y31.9162
G01 X13.2738 Y31.9319
G01 X13.2536 Y31.9290
G01 X13.2376 Y31.9274
G01 X13.1560 Y31.9233
G01 X13.1400 Y31.9229
G01 X13.1240 Y31.9233
G01 X13.0441 Y31.9273
G01 X13.0270 Y31.9289
G01 X13.0080 Y31.9316
G01 X13.0173 Y31.9099
G01 X13.0252 Y31.8868
G01 X13.0295 Y31.8711
G01 X13.0481 Y31.7954
G01 X13.0525 Y31.7714
G01 X13.0544 Y31.7553
G01 X13.0556 Y31.7391
G01 X13.0559 Y31.7229
G01 X13.0554 Y31.7066
G01 X13.0531 Y31.6824
G01 X13.0491 Y31.6583
G01 X13.0454 Y31.6425
G01 X13.0384 Y31.6192
G01 X13.0159 Y31.5531
G01 X13.0104 Y31.5383
G01 X13.0062 Y31.5281
G00 Z2.0000
G00 X12.2975 Y33.0782
G01 F60.00
G01 Z-0.0800
G01 F120.00
G01 X12.2938 Y33.0000
G01 X12.2979 Y32.9171
G01 X12.3101 Y32.8349
G01 X12.3302 Y32.7544
G01 X12.3582 Y32.6762
G01 X12.3937 Y32.6011
G01 X12.4364 Y32.5299
G01 X12.4859 Y32.4632
G01 X12.5416 Y32.4016
G01 X12.6032 Y32.3459
G01 X12.6699 Y32.2964
G01 X12.7411 Y32.2537
G01 X12.8162 Y32.2182
G01 X12.8944 Y32.1902
G01 X12.9749 Y32.1701
G01 X13.0574 Y32.1578
G01 X13.1400 Y32.1538
G01 X13.2229 Y32.1579
G01 X13.3051 Y32.1701
G01 X13.3856 Y32.1902
G01 X13.4638 Y32.2182
G01 X13.5389 Y32.2537
G01 X13.6101 Y32.2964
G01 X13.6768 Y32.3459
G01 X13.7384 Y32.4016
G01 X13.7941 Y32.4632
G01 X13.8436 Y32.5299
G01 X13.8863 Y32.6011
G01 X13.9218 Y32.6762
G01 X13.9498 Y32.7544
G01 X13.9699 Y32.8349
G01 X13.9822 Y32.9174
G01 X13.9862 Y33.0000
G01 X13.9821 Y33.0829
G01 X13.9699 Y33.1651
G01 X13.9498 Y33.2456
G01 X13.9218 Y33.3238
G01 X13.8863 Y33.3989
G01 X13.8436 Y33.4701
G01 X13.7941 Y33.5368
G01 X13.7384 Y33.5984
G01 X13.6768 Y33.6541
G01 X13.6101 Y33.7036
G01 X13.5389 Y33.7463
G01 X13.4638 Y33.7818
G01 X13.3856 Y33.8098
G01 X13.3051 Y33.8299
G01 X13.2229 Y33.8421
G01 X13.1400 Y33.8462
G01 X13.0571 Y33.8421
G01 X12.9749 Y33.8299
G01 X12.8944 Y33.8098
G01 X12.8162 Y33.7818
G01 X12.7411 Y33.7463
G01 X12.6699 Y33.7036
G01 X12.6032 Y33.6541
G01 X12.5416 Y33.5984
G01 X12.4859 Y33.5368
G01 X12.4364 Y33.4701
G01 X12.3937 Y33.3989
G01 X12.3582 Y33.3238
G01 X12.3302 Y33.2456
G01 X12.3101 Y33.1651
G01 X12.2985 Y33.0876
G01 X12.2975 Y33.0782
G00 Z2.0000
G00 X12.1822 Y33.0839
G01 F60.00
G01 Z-0.0800
G01 F120.00
G01 X12.1784 Y33.0000
G01 X12.1786 Y32.9896
G01 X12.1830 Y32.9057
G01 X12.1951 Y32.8226
G01 X12.1968 Y32.8124
G01 X12.1991 Y32.8023
G01 X12.2198 Y32.7209
G01 X12.2478 Y32.6417
G01 X12.2516 Y32.6320
G01 X12.2872 Y32.5560
G01 X12.2919 Y32.5467
G01 X12.2970 Y32.5376
G01 X12.3404 Y32.4657
G01 X12.3903 Y32.3981
G01 X12.3966 Y32.3899
G01 X12.4034 Y32.3821
G01 X12.4600 Y32.3200
G01 X12.5221 Y32.2634
G01 X12.5299 Y32.2566
G01 X12.5381 Y32.2503
G01 X12.6057 Y32.2004
G01 X12.6776 Y32.1570
G01 X12.6867 Y32.1519
G01 X12.6960 Y32.1472
G01 X12.7720 Y32.1116
G01 X12.7817 Y32.1078
G01 X12.8609 Y32.0798
G01 X12.8709 Y32.0770
G01 X12.9524 Y32.0568
G01 X13.0354 Y32.0443
G01 X13.0465 Y32.0429
G01 X13.1296 Y32.0386
G01 X13.1400 Y32.0384
G01 X13.2239 Y32.0422
G01 X13.2343 Y32.0430
G01 X13.2446 Y32.0443
G01 X13.3276 Y32.0568
G01 X13.4091 Y32.0770
G01 X13.4191 Y32.0798
G01 X13.4983 Y32.1078
G01 X13.5080 Y32.1116
G01 X13.5840 Y32.1472
G01 X13.5933 Y32.1519
G01 X13.6024 Y32.1570
G01 X13.6743 Y32.2004
G01 X13.7419 Y32.2503
G01 X13.7501 Y32.2566
G01 X13.7579 Y32.2634
G01 X13.8200 Y32.3200
G01 X13.8766 Y32.3821
G01 X13.8834 Y32.3899
G01 X13.8897 Y32.3981
G01 X13.9396 Y32.4657
G01 X13.9830 Y32.5376
G01 X13.9881 Y32.5467
G01 X13.9928 Y32.5560
G01 X14.0284 Y32.6320
G01 X14.0322 Y32.6417
G01 X14.0602 Y32.7209
G01 X14.0630 Y32.7309
G01 X14.0832 Y32.8124
G01 X14.0957 Y32.8954
G01 X14.0971 Y32.9065
G01 X14.1014 Y32.9896
G01 X14.1016 Y33.0000
G01 X14.0978 Y33.0839
G01 X14.0970 Y33.0943
G01 X14.0957 Y33.1046
G01 X14.0832 Y33.1876
G01 X14.0630 Y33.2691
G01 X14.0602 Y33.2791
G01 X14.0322 Y33.3583
G01 X14.0284 Y33.3680
G01 X13.9928 Y33.4440
G01 X13.9881 Y33.4533
G01 X13.9830 Y33.4624
G01 X13.9396 Y33.5343
G01 X13.8897 Y33.6019
G01 X13.8834 Y33.6101
G01 X13.8766 Y33.6179
G01 X13.8200 Y33.6800
G01 X13.7579 Y33.7366
G01 X13.7501 Y33.7434
G01 X13.7419 Y33.7497
G01 X13.6743 Y33.7996
G01 X13.6024 Y33.8430
G01 X13.5933 Y33.8481
G01 X13.5840 Y33.8528
G01 X13.5080 Y33.8884
G01 X13.4983 Y33.8922
G01 X13.4191 Y33.9202
G01 X13.4091 Y33.9230
G01 X13.3276 Y33.9432
G01 X13.2446 Y33.9557
G01 X13.2343 Y33.9570
G01 X13.2239 Y33.9578
G01 X13.1400 Y33.9616
G01 X13.0561 Y33.9578
G01 X13.0457 Y33.9570
G01 X13.0354 Y33.9557
G01 X12.9524 Y33.9432
G01 X12.8709 Y33.9230
G01 X12.8609 Y33.9202
G01 X12.7817 Y33.8922
G01 X12.7720 Y33.8884
G01 X12.6960 Y33.8528
G01 X12.6867 Y33.8481
G01 X12.6776 Y33.8430
G01 X12.6057 Y33.7996
G01 X12.5381 Y33.7497
G01 X12.5299 Y33.7434
G01 X12.5221 Y33.7366
G01 X12.4600 Y33.6800
G01 X12.4034 Y33.6179
G01 X12.3966 Y33.6101
G01 X12.3903 Y33.6019
G01 X12.3404 Y33.5343
G01 X12.2970 Y33.4624
G01 X12.2919 Y33.4533
G01 X12.2872 Y33.4440
G01 X12.2516 Y33.3680
G01 X12.2478 Y33.3583
G01 X12.2198 Y33.2791
G01 X12.1991 Y33.1977
G01 X12.1968 Y33.1876
G01 X12.1843 Y33.1046
G01 X12.1829 Y33.0935
G01 X12.1822 Y33.0839
G00 Z2.0000
G00 X12.1011 Y33.0818
G01 F60.00
G01 Z-0.0800
G01 F120.00
G01 X12.1011 Y32.9182
G01 X12.1267 Y32.7567
G01 X12.1773 Y32.6012
G01 X12.2515 Y32.4555
G01 X12.3476 Y32.3232
G01 X12.4632 Y32.2076
G01 X12.5955 Y32.1115
G01 X12.7573 Y32.0291
G01 X12.7662 Y32.0243
G01 X12.7790 Y32.0163
G01 X12.7912 Y32.0075
G01 X12.8028 Y31.9978
G01 X12.8648 Y31.9390
G01 X12.8719 Y31.9312
G01 X12.8786 Y31.9231
G01 X12.8848 Y31.9147
G01 X12.8907 Y31.9059
G01 X12.8961 Y31.8969
G01 X12.9034 Y31.8829
G01 X12.9076 Y31.8733
G01 X12.9114 Y31.8635
G01 X12.9147 Y31.8535
G01 X12.9174 Y31.8434
G01 X12.9354 Y31.7704
G01 X12.9375 Y31.7601
G01 X12.9390 Y31.7497
G01 X12.9399 Y31.7393
G01 X12.9404 Y31.7288
G01 X12.9401 Y31.7130
G01 X12.9387 Y31.6973
G01 X12.9370 Y31.6869
G01 X12.9337 Y31.6715
G01 X12.9291 Y31.6564
G01 X12.9049 Y31.5855
G01 X12.8970 Y31.5668
G01 X12.8899 Y31.5533
G01 X12.8789 Y31.5362
G01 X12.8664 Y31.5202
G01 X12.8560 Y31.5090
G01 X12.8449 Y31.4986
G01 X12.7959 Y31.4563
G01 X12.7794 Y31.4440
G01 X12.7708 Y31.4384
G01 X12.7573 Y31.4309
G01 X12.5955 Y31.3485
G01 X12.4632 Y31.2524
G01 X12.3476 Y31.1368
G01 X12.2515 Y31.0045
G01 X12.1773 Y30.8588
G01 X12.1267 Y30.7033
G01 X12.1011 Y30.5418
G01 X12.1011 Y30.3782
G01 X12.1267 Y30.2167
G01 X12.1773 Y30.0612
G01 X12.2515 Y29.9155
G01 X12.3476 Y29.7832
G01 X12.4632 Y29.6676
G01 X12.5955 Y29.5715
G01 X12.7412 Y29.4973
G01 X12.8967 Y29.4467
G01 X13.0582 Y29.4211
G01 X13.2218 Y29.4211
G01 X13.3833 Y29.4467
G01 X13.5388 Y29.4973
G01 X13.6845 Y29.5715
G01 X13.8168 Y29.6676
G01 X13.9324 Y29.7832
G01 X14.0285 Y29.9155
G01 X14.1027 Y30.0612
G01 X14.1533 Y30.2167
G01 X14.1789 Y30.3782
G01 X14.1789 Y30.5418
G01 X14.1533 Y30.7033
G01 X14.1028 Y30.8588
G01 X14.0285 Y31.0045
G01 X13.9324 Y31.1368
G01 X13.8168 Y31.2524
G01 X13.6845 Y31.3485
G01 X13.5138 Y31.4358
G01 X13.4812 Y31.4564
G01 X13.4726 Y31.4624
G01 X13.4603 Y31.4722
G01 X13.4525 Y31.4792
G01 X13.4450 Y31.4866
G01 X13.4345 Y31.4984
G01 X13.4240 Y31.5124
G01 X13.4152 Y31.5210
G01 X13.4047 Y31.5328
G01 X13.3983 Y31.5411
G01 X13.3922 Y31.5497
G01 X13.3839 Y31.5631
G01 X13.3789 Y31.5723
G01 X13.3620 Y31.6094
G01 X13.3582 Y31.6192
G01 X13.3550 Y31.6292
G01 X13.3522 Y31.6394
G01 X13.3490 Y31.6548
G01 X13.3470 Y31.6704
G01 X13.3462 Y31.6827
G01 X13.3435 Y31.6947
G01 X13.3410 Y31.7103
G01 X13.3401 Y31.7207
G01 X13.3396 Y31.7365
G01 X13.3399 Y31.7470
G01 X13.3407 Y31.7575
G01 X13.3465 Y31.7978
G01 X13.3487 Y31.8081
G01 X13.3513 Y31.8183
G01 X13.3545 Y31.8283
G01 X13.3601 Y31.8430
G01 X13.3669 Y31.8573
G01 X13.3728 Y31.8680
G01 X13.3769 Y31.8793
G01 X13.3830 Y31.8932
G01 X13.3877 Y31.9023
G01 X13.3954 Y31.9154
G01 X13.4011 Y31.9238
G01 X13.4103 Y31.9359
G01 X13.4221 Y31.9491
G01 X13.4322 Y31.9613
G01 X13.4395 Y31.9691
G01 X13.4512 Y31.9800
G01 X13.4637 Y31.9900
G01 X13.5010 Y32.0163
G01 X13.5138 Y32.0243
G01 X13.6845 Y32.1115
G01 X13.8168 Y32.2076
G01 X13.9324 Y32.3232
G01 X14.0285 Y32.4555
G01 X14.1027 Y32.6012
G01 X14.1533 Y32.7567
G01 X14.1789 Y32.9182
G01 X14.1789 Y33.0818
G01 X14.1533 Y33.2433
G01 X14.1027 Y33.3988
G01 X14.0285 Y33.5445
G01 X13.9324 Y33.6768
G01 X13.8168 Y33.7924
G01 X13.6763 Y33.8945
G01 X13.6683 Y33.9006
G01 X13.6568 Y33.9104
G01 X13.6461 Y33.9211
G01 X13.6362 Y33.9325
G01 X13.5842 Y34.0003
G01 X13.5784 Y34.0090
G01 X13.5731 Y34.0181
G01 X13.5682 Y34.0274
G01 X13.5638 Y34.0369
G01 X13.5581 Y34.0516
G01 X13.5549 Y34.0616
G01 X13.5522 Y34.0718
G01 X13.5491 Y34.0873
G01 X13.5472 Y34.1029
G01 X13.5412 Y34.1725
G01 X13.5405 Y34.1830
G01 X13.5404 Y34.1935
G01 X13.5408 Y34.2040
G01 X13.5424 Y34.2197
G01 X13.5452 Y34.2352
G01 X13.5476 Y34.2454
G01 X13.5523 Y34.2605
G01 X13.5560 Y34.2703
G01 X13.5602 Y34.2800
G01 X13.5649 Y34.2894
G01 X13.6000 Y34.3558
G01 X13.6053 Y34.3648
G01 X13.6111 Y34.3736
G01 X13.6174 Y34.3821
G01 X13.6240 Y34.3902
G01 X13.6347 Y34.4018
G01 X13.6463 Y34.4125
G01 X13.6586 Y34.4224
G01 X13.6672 Y34.4284
G01 X13.6760 Y34.4341
G01 X13.7461 Y34.4736
G01 X13.7555 Y34.4783
G01 X13.7652 Y34.4826
G01 X13.7751 Y34.4864
G01 X13.7851 Y34.4896
G01 X13.8005 Y34.4936
G01 X13.8109 Y34.4956
G01 X13.8543 Y34.5008
G01 X13.8687 Y34.5016
G01 X13.9265 Y34.5016
G01 X13.9483 Y34.5040
G01 X14.0296 Y34.5343
G01 X14.0960 Y34.5840
G01 X14.1457 Y34.6504
G01 X14.1760 Y34.7317
G01 X14.1784 Y34.7535
G01 X14.1784 Y35.0784
G01 X14.1016 Y35.0784
G01 X14.1014 Y34.7796
G01 X14.1006 Y34.7693
G01 X14.0993 Y34.7589
G01 X14.0976 Y34.7487
G01 X14.0953 Y34.7386
G01 X14.0925 Y34.7286
G01 X14.0893 Y34.7187
G01 X14.0855 Y34.7090
G01 X14.0813 Y34.6995
G01 X14.0766 Y34.6902
G01 X14.0715 Y34.6812
G01 X14.0660 Y34.6724
G01 X14.0600 Y34.6639
G01 X14.0536 Y34.6557
G01 X14.0468 Y34.6479
G01 X14.0359 Y34.6367
G01 X14.0282 Y34.6297
G01 X14.0202 Y34.6232
G01 X14.0119 Y34.6170
G01 X13.9988 Y34.6085
G01 X13.9898 Y34.6034
G01 X13.9805 Y34.5987
G01 X13.9710 Y34.5945
G01 X13.9613 Y34.5907
G01 X13.9464 Y34.5860
G01 X13.9313 Y34.5824
G01 X13.9159 Y34.5800
G01 X13.9056 Y34.5789
G01 X13.8900 Y34.5784
G01 X12.3900 Y34.5784
G01 X12.3796 Y34.5786
G01 X12.3641 Y34.5800
G01 X12.3487 Y34.5824
G01 X12.3336 Y34.5860
G01 X12.3187 Y34.5907
G01 X12.3090 Y34.5945
G01 X12.2948 Y34.6010
G01 X12.2857 Y34.6059
G01 X12.2768 Y34.6112
G01 X12.2639 Y34.6200
G01 X12.2518 Y34.6297
G01 X12.2403 Y34.6403
G01 X12.2297 Y34.6518
G01 X12.2232 Y34.6598
G01 X12.2140 Y34.6724
G01 X12.2059 Y34.6857
G01 X12.2010 Y34.6948
G01 X12.1965 Y34.7042
G01 X12.1925 Y34.7138
G01 X12.1875 Y34.7286
G01 X12.1847 Y34.7386
G01 X12.1824 Y34.7487
G01 X12.1800 Y34.7641
G01 X12.1789 Y34.7744
G01 X12.1784 Y34.7900
G01 X12.1784 Y35.0784
G01 X12.1016 Y35.0784
G01 X12.1016 Y34.7535
G01 X12.1040 Y34.7317
G01 X12.1343 Y34.6504
G01 X12.1840 Y34.5840
G01 X12.2504 Y34.5343
G01 X12.3317 Y34.5040
G01 X12.3535 Y34.5016
G01 X12.4064 Y34.5016
G01 X12.4215 Y34.5011
G01 X12.4415 Y34.4987
G01 X12.4612 Y34.4944
G01 X12.5331 Y34.4734
G01 X12.5431 Y34.4702
G01 X12.5529 Y34.4665
G01 X12.5673 Y34.4600
G01 X12.5812 Y34.4525
G01 X12.5944 Y34.4440
G01 X12.6070 Y34.4345
G01 X12.6189 Y34.4241
G01 X12.6299 Y34.4128
G01 X12.6826 Y34.3521
G01 X12.6921 Y34.3396
G01 X12.6980 Y34.3308
G01 X12.7059 Y34.3172
G01 X12.7106 Y34.3078
G01 X12.7168 Y34.2933
G01 X12.7203 Y34.2834
G01 X12.7234 Y34.2733
G01 X12.7269 Y34.2580
G01 X12.7393 Y34.1733
G01 X12.7403 Y34.1628
G01 X12.7408 Y34.1470
G01 X12.7405 Y34.1365
G01 X12.7396 Y34.1261
G01 X12.7383 Y34.1156
G01 X12.7364 Y34.1053
G01 X12.7340 Y34.0951
G01 X12.7311 Y34.0850
G01 X12.7258 Y34.0701
G01 X12.6926 Y33.9969
G01 X12.6880 Y33.9874
G01 X12.6829 Y33.9781
G01 X12.6774 Y33.9691
G01 X12.6714 Y33.9604
G01 X12.6649 Y33.9520
G01 X12.6581 Y33.9439
G01 X12.6471 Y33.9325
G01 X12.6224 Y33.9098
G01 X12.6114 Y33.9003
G01 X12.4632 Y33.7924
G01 X12.3476 Y33.6768
G01 X12.2515 Y33.5445
G01 X12.1773 Y33.3988
G01 X12.1267 Y33.2433
G01 X12.1011 Y33.0818
G00 Z2.0000
G00 X11.9857 Y33.0909
G01 F60.00
G01 Z-0.0800
G01 F120.00
G01 X11.9857 Y32.9091
G01 X12.0141 Y32.7297
G01 X12.0703 Y32.5569
G01 X12.1528 Y32.3950
G01 X12.2595 Y32.2480
G01 X12.3880 Y32.1195
G01 X12.5350 Y32.0128
G01 X12.7049 Y31.9262
G01 X12.7148 Y31.9204
G01 X12.7256 Y31.9120
G01 X12.7798 Y31.8608
G01 X12.7877 Y31.8519
G01 X12.7945 Y31.8420
G01 X12.7990 Y31.8336
G01 X12.8034 Y31.8225
G01 X12.8227 Y31.7455
G01 X12.8243 Y31.7361
G01 X12.8250 Y31.7265
G01 X12.8249 Y31.7194
G01 X12.8242 Y31.7122
G01 X12.8230 Y31.7052
G01 X12.8213 Y31.6982
G01 X12.7957 Y31.6232
G01 X12.7908 Y31.6127
G01 X12.7848 Y31.6029
G01 X12.7791 Y31.5957
G01 X12.7710 Y31.5874
G01 X12.7224 Y31.5453
G01 X12.7169 Y31.5410
G01 X12.7110 Y31.5372
G01 X12.5350 Y31.4472
G01 X12.3880 Y31.3405
G01 X12.2596 Y31.2120
G01 X12.1528 Y31.0650
G01 X12.0703 Y30.9031
G01 X12.0141 Y30.7303
G01 X11.9857 Y30.5509
G01 X11.9857 Y30.3691
G01 X12.0141 Y30.1897
G01 X12.0703 Y30.0169
G01 X12.1528 Y29.8550
G01 X12.2595 Y29.7080
G01 X12.3880 Y29.5795
G01 X12.5350 Y29.4728
G01 X12.6969 Y29.3903
G01 X12.8697 Y29.3341
G01 X13.0491 Y29.3057
G01 X13.2309 Y29.3057
G01 X13.4103 Y29.3341
G01 X13.5831 Y29.3903
G01 X13.7450 Y29.4728
G01 X13.8920 Y29.5795
G01 X14.0205 Y29.7080
G01 X14.1272 Y29.8550
G01 X14.2097 Y30.0169
G01 X14.2659 Y30.1897
G01 X14.2943 Y30.3691
G01 X14.2943 Y30.5509
G01 X14.2659 Y30.7303
G01 X14.2097 Y30.9031
G01 X14.1272 Y31.0650
G01 X14.0205 Y31.2120
G01 X13.8920 Y31.3405
G01 X13.7450 Y31.4472
G01 X13.5731 Y31.5349
G01 X13.5652 Y31.5396
G01 X13.5568 Y31.5460
G01 X13.5490 Y31.5501
G01 X13.5429 Y31.5540
G01 X13.5372 Y31.5583
G01 X13.5301 Y31.5647
G01 X13.5222 Y31.5736
G01 X13.5116 Y31.5884
G01 X13.4985 Y31.6009
G01 X13.4938 Y31.6063
G01 X13.4894 Y31.6120
G01 X13.4855 Y31.6180
G01 X13.4821 Y31.6242
G01 X13.4791 Y31.6308
G01 X13.4761 Y31.6391
G01 X13.4697 Y31.6512
G01 X13.4656 Y31.6624
G01 X13.4628 Y31.6740
G01 X13.4617 Y31.6835
G01 X13.4610 Y31.6992
G01 X13.4564 Y31.7192
G01 X13.4554 Y31.7263
G01 X13.4550 Y31.7358
G01 X13.4558 Y31.7478
G01 X13.4585 Y31.7611
G01 X13.4591 Y31.7700
G01 X13.4601 Y31.7771
G01 X13.4630 Y31.7887
G01 X13.4672 Y31.7998
G01 X13.4705 Y31.8062
G01 X13.4784 Y31.8198
G01 X13.4851 Y31.8390
G01 X13.4881 Y31.8452
G01 X13.4927 Y31.8532
G01 X13.5009 Y31.8643
G01 X13.5097 Y31.8733
G01 X13.5167 Y31.8825
G01 X13.5251 Y31.8912
G01 X13.5345 Y31.8988
G01 X13.5652 Y31.9204
G01 X13.5731 Y31.9251
G01 X13.7450 Y32.0128
G01 X13.8920 Y32.1195
G01 X14.0205 Y32.2480
G01 X14.1272 Y32.3950
G01 X14.2097 Y32.5569
G01 X14.2659 Y32.7297
G01 X14.2943 Y32.9091
G01 X14.2943 Y33.0909
G01 X14.2659 Y33.2703
G01 X14.2097 Y33.4431
G01 X14.1272 Y33.6050
G01 X14.0205 Y33.7520
G01 X13.8920 Y33.8805
G01 X13.7441 Y33.9879
G01 X13.7353 Y33.9951
G01 X13.7259 Y34.0051
G01 X13.6804 Y34.0642
G01 X13.6740 Y34.0742
G01 X13.6697 Y34.0828
G01 X13.6664 Y34.0917
G01 X13.6635 Y34.1033
G01 X13.6622 Y34.1128
G01 X13.6562 Y34.1824
G01 X13.6559 Y34.1919
G01 X13.6565 Y34.2015
G01 X13.6575 Y34.2086
G01 X13.6598 Y34.2178
G01 X13.6629 Y34.2269
G01 X13.6670 Y34.2355
G01 X13.6996 Y34.2973
G01 X13.7058 Y34.3075
G01 X13.7132 Y34.3169
G01 X13.7217 Y34.3252
G01 X13.7312 Y34.3324
G01 X13.8003 Y34.3717
G01 X13.8112 Y34.3767
G01 X13.8204 Y34.3796
G01 X13.8321 Y34.3820
G01 X13.8670 Y34.3860
G01 X13.9327 Y34.3862
G01 X13.9751 Y34.3908
G01 X14.0855 Y34.4319
G01 X14.1785 Y34.5015
G01 X14.2480 Y34.5945
G01 X14.2892 Y34.7049
G01 X14.2938 Y34.7473
G01 X14.2938 Y35.1938
G01 X13.9862 Y35.1938
G01 X13.9862 Y34.7900
G01 X13.9859 Y34.7829
G01 X13.9852 Y34.7759
G01 X13.9839 Y34.7689
G01 X13.9821 Y34.7621
G01 X13.9798 Y34.7554
G01 X13.9770 Y34.7489
G01 X13.9737 Y34.7426
G01 X13.9700 Y34.7366
G01 X13.9658 Y34.7308
G01 X13.9613 Y34.7254
G01 X13.9563 Y34.7203
G01 X13.9510 Y34.7156
G01 X13.9454 Y34.7113
G01 X13.9395 Y34.7075
G01 X13.9333 Y34.7041
G01 X13.9268 Y34.7011
G01 X13.9202 Y34.6987
G01 X13.9134 Y34.6967
G01 X13.9018 Y34.6945
G01 X13.8900 Y34.6938
G01 X12.3900 Y34.6938
G01 X12.3829 Y34.6941
G01 X12.3736 Y34.6952
G01 X12.3643 Y34.6973
G01 X12.3576 Y34.6994
G01 X12.3489 Y34.7030
G01 X12.3426 Y34.7063
G01 X12.3366 Y34.7100
G01 X12.3290 Y34.7156
G01 X12.3237 Y34.7203
G01 X12.3172 Y34.7272
G01 X12.3127 Y34.7327
G01 X12.3075 Y34.7405
G01 X12.3030 Y34.7489
G01 X12.3002 Y34.7554
G01 X12.2973 Y34.7643
G01 X12.2956 Y34.7712
G01 X12.2943 Y34.7806
G01 X12.2938 Y34.7900
G01 X12.2938 Y35.1938
G01 X11.9862 Y35.1938
G01 X11.9862 Y34.7473
G01 X11.9908 Y34.7049
G01 X12.0319 Y34.5945
G01 X12.1015 Y34.5015
G01 X12.1945 Y34.4320
G01 X12.3049 Y34.3908
G01 X12.3473 Y34.3862
G01 X12.4087 Y34.3862
G01 X12.4156 Y34.3858
G01 X12.4246 Y34.3845
G01 X12.4335 Y34.3823
G01 X12.5051 Y34.3612
G01 X12.5118 Y34.3586
G01 X12.5182 Y34.3555
G01 X12.5245 Y34.3519
G01 X12.5304 Y34.3479
G01 X12.5378 Y34.3418
G01 X12.5446 Y34.3351
G01 X12.5919 Y34.2805
G01 X12.5964 Y34.2749
G01 X12.6005 Y34.2690
G01 X12.6062 Y34.2586
G01 X12.6090 Y34.2520
G01 X12.6113 Y34.2452
G01 X12.6141 Y34.2336
G01 X12.6244 Y34.1620
G01 X12.6251 Y34.1549
G01 X12.6254 Y34.1478
G01 X12.6248 Y34.1382
G01 X12.6233 Y34.1288
G01 X12.6209 Y34.1195
G01 X12.6176 Y34.1106
G01 X12.5855 Y34.0405
G01 X12.5793 Y34.0302
G01 X12.5719 Y34.0208
G01 X12.5652 Y34.0139
G01 X12.5444 Y33.9948
G01 X12.5376 Y33.9892
G01 X12.3880 Y33.8805
G01 X12.2596 Y33.7520
G01 X12.1528 Y33.6050
G01 X12.0703 Y33.4431
G01 X12.0141 Y33.2703
G01 X11.9857 Y33.0909
G00 Z2.0000
G00 X12.8352 Y34.0330
G01 F60.00
G01 Z-0.0800
G01 F120.00
G01 X12.9142 Y34.0529
G01 X12.9299 Y34.0564
G01 X12.9457 Y34.0591
G01 X13.0185 Y34.0699
G01 X13.0344 Y34.0719
G01 X13.0504 Y34.0731
G01 X13.1240 Y34.0767
G01 X13.1400 Y34.0771
G01 X13.1560 Y34.0767
G01 X13.2296 Y34.0731
G01 X13.2456 Y34.0719
G01 X13.2615 Y34.0699
G01 X13.3343 Y34.0591
G01 X13.3501 Y34.0564
G01 X13.3658 Y34.0529
G01 X13.4429 Y34.0335
G01 X13.4399 Y34.0450
G01 X13.4365 Y34.0608
G01 X13.4329 Y34.0849
G01 X13.4262 Y34.1626
G01 X13.4252 Y34.1789
G01 X13.4252 Y34.2032
G01 X13.4262 Y34.2194
G01 X13.4281 Y34.2356
G01 X13.4323 Y34.2596
G01 X13.4361 Y34.2753
G01 X13.4433 Y34.2986
G01 X13.4491 Y34.3138
G01 X13.4591 Y34.3360
G01 X13.4954 Y34.4051
G01 X13.5033 Y34.4192
G01 X13.5165 Y34.4397
G01 X13.5261 Y34.4528
G01 X13.5343 Y34.4629
G01 X12.7394 Y34.4629
G01 X12.7664 Y34.4317
G01 X12.7767 Y34.4192
G01 X12.7910 Y34.3994
G01 X12.8038 Y34.3787
G01 X12.8150 Y34.3571
G01 X12.8246 Y34.3347
G01 X12.8325 Y34.3116
G01 X12.8386 Y34.2880
G01 X12.8430 Y34.2641
G01 X12.8540 Y34.1869
G01 X12.8559 Y34.1626
G01 X12.8562 Y34.1463
G01 X12.8552 Y34.1220
G01 X12.8535 Y34.1058
G01 X12.8510 Y34.0898
G01 X12.8476 Y34.0739
G01 X12.8436 Y34.0582
G01 X12.8387 Y34.0427
G01 X12.8352 Y34.0330
G00 Z2.0000
G00 X12.9706 Y34.1795
G01 F60.00
G01 Z-0.0800
G01 F120.00
G01 X13.0123 Y34.1856
G01 X13.0339 Y34.1877
G01 X13.1183 Y34.1920
G01 X13.1400 Y34.1925
G01 X13.1617 Y34.1920
G01 X13.2461 Y34.1877
G01 X13.2677 Y34.1856
G01 X13.3097 Y34.1795
G01 X13.3096 Y34.1967
G01 X13.3104 Y34.2186
G01 X13.3124 Y34.2405
G01 X13.3154 Y34.2623
G01 X13.3195 Y34.2839
G01 X13.3246 Y34.3052
G01 X13.3308 Y34.3263
G01 X13.3383 Y34.3475
G01 X12.9422 Y34.3475
G01 X12.9488 Y34.3236
G01 X12.9513 Y34.3129
G01 X12.9555 Y34.2913
G01 X12.9672 Y34.2113
G01 X12.9686 Y34.2004
G01 X12.9706 Y34.1795
G00 Z2.0000
G00 X13.4862 Y36.3862
G01 F60.00
G01 Z-0.0800
G01 F120.00
G01 X13.8924 Y36.3862
G01 X13.9041 Y36.3852
G01 X13.9111 Y36.3839
G01 X13.9179 Y36.3821
G01 X13.9246 Y36.3798
G01 X13.9311 Y36.3770
G01 X13.9415 Y36.3713
G01 X13.9510 Y36.3644
G01 X13.9580 Y36.3580
G01 X13.9658 Y36.3492
G01 X13.9725 Y36.3395
G01 X13.9770 Y36.3311
G01 X13.9813 Y36.3202
G01 X13.9844 Y36.3088
G01 X13.9857 Y36.2994
G01 X13.9862 Y36.2900
G01 X13.9862 Y35.8862
G01 X14.2938 Y35.8862
G01 X14.2938 Y36.3327
G01 X14.2892 Y36.3751
G01 X14.2481 Y36.4855
G01 X14.1785 Y36.5785
G01 X14.0855 Y36.6481
G01 X13.9751 Y36.6892
G01 X13.9327 Y36.6938
G01 X13.4862 Y36.6938
G01 X13.4862 Y36.3862
G00 Z2.0000
G00 X13.6016 Y36.5016
G01 F60.00
G01 Z-0.0800
G01 F120.00
G01 X13.8900 Y36.5016
G01 X13.9004 Y36.5014
G01 X13.9159 Y36.5000
G01 X13.9313 Y36.4976
G01 X13.9464 Y36.4940
G01 X13.9613 Y36.4893
G01 X13.9758 Y36.4835
G01 X13.9898 Y36.4766
G01 X14.0032 Y36.4688
G01 X14.0161 Y36.4600
G01 X14.0282 Y36.4503
G01 X14.0359 Y36.4433
G01 X14.0433 Y36.4359
G01 X14.0536 Y36.4243
G01 X14.0600 Y36.4161
G01 X14.0660 Y36.4076
G01 X14.0741 Y36.3943
G01 X14.0790 Y36.3852
G01 X14.0835 Y36.3758
G01 X14.0893 Y36.3613
G01 X14.0940 Y36.3464
G01 X14.0965 Y36.3364
G01 X14.0985 Y36.3262
G01 X14.1000 Y36.3159
G01 X14.1011 Y36.3056
G01 X14.1016 Y36.2900
G01 X14.1016 Y36.0016
G01 X14.1784 Y36.0016
G01 X14.1784 Y36.3265
G01 X14.1760 Y36.3483
G01 X14.1457 Y36.4296
G01 X14.0960 Y36.4960
G01 X14.0296 Y36.5457
G01 X13.9483 Y36.5760
G01 X13.9265 Y36.5784
G01 X13.6016 Y36.5784
G01 X13.6016 Y36.5016
G00 Z2.0000
G00 X12.1343 Y36.4296
G01 F60.00
G01 Z-0.0800
G01 F120.00
G01 X12.1040 Y36.3483
G01 X12.1016 Y36.3265
G01 X12.1016 Y36.0016
G01 X12.1784 Y36.0016
G01 X12.1784 Y36.2900
G01 X12.1789 Y36.3056
G01 X12.1800 Y36.3159
G01 X12.1824 Y36.3313
G01 X12.1860 Y36.3464
G01 X12.1907 Y36.3613
G01 X12.1965 Y36.3758
G01 X12.2034 Y36.3898
G01 X12.2112 Y36.4032
G01 X12.2200 Y36.4161
G01 X12.2297 Y36.4282
G01 X12.2367 Y36.4359
G01 X12.2441 Y36.4433
G01 X12.2557 Y36.4536
G01 X12.2681 Y36.4630
G01 X12.2768 Y36.4688
G01 X12.2857 Y36.4741
G01 X12.2948 Y36.4790
G01 X12.3042 Y36.4835
G01 X12.3187 Y36.4893
G01 X12.3336 Y36.4940
G01 X12.3436 Y36.4965
G01 X12.3538 Y36.4985
G01 X12.3641 Y36.5000
G01 X12.3744 Y36.5011
G01 X12.3900 Y36.5016
G01 X12.6784 Y36.5016
G01 X12.6784 Y36.5784
G01 X12.3535 Y36.5784
G01 X12.3317 Y36.5760
G01 X12.2504 Y36.5457
G01 X12.1840 Y36.4960
G01 X12.1343 Y36.4296
G00 Z2.0000
G00 X12.0319 Y36.4855
G01 F60.00
G01 Z-0.0800
G01 F120.00
G01 X11.9908 Y36.3751
G01 X11.9862 Y36.3327
G01 X11.9862 Y35.8862
G01 X12.2938 Y35.8862
G01 X12.2938 Y36.2924
G01 X12.2948 Y36.3041
G01 X12.2961 Y36.3111
G01 X12.2979 Y36.3179
G01 X12.3021 Y36.3290
G01 X12.3052 Y36.3353
G01 X12.3087 Y36.3415
G01 X12.3156 Y36.3510
G01 X12.3220 Y36.3580
G01 X12.3308 Y36.3658
G01 X12.3385 Y36.3713
G01 X12.3489 Y36.3770
G01 X12.3598 Y36.3813
G01 X12.3689 Y36.3839
G01 X12.3806 Y36.3857
G01 X12.3900 Y36.3862
G01 X12.7938 Y36.3862
G01 X12.7938 Y36.6938
G01 X12.3473 Y36.6938
G01 X12.3049 Y36.6892
G01 X12.1945 Y36.6481
G01 X12.1015 Y36.5785
G01 X12.0319 Y36.4855
G00 Z2.0000
G00 X18.3957 Y36.8485
G01 F60.00
G01 Z-0.0800
G01 F120.00
G01 X18.3957 Y36.6746
G01 X18.4229 Y36.5030
G01 X18.4766 Y36.3376
G01 X18.5555 Y36.1828
G01 X18.6577 Y36.0421
G01 X18.7806 Y35.9192
G01 X18.9212 Y35.8171
G01 X19.0761 Y35.7382
G01 X19.2414 Y35.6844
G01 X19.4131 Y35.6572
G01 X19.5869 Y35.6572
G01 X19.7586 Y35.6844
G01 X19.9239 Y35.7382
G01 X20.0788 Y35.8171
G01 X20.2194 Y35.9192
G01 X20.3423 Y36.0421
G01 X20.4445 Y36.1828
G01 X20.5234 Y36.3376
G01 X20.5771 Y36.5030
G01 X20.6043 Y36.6746
G01 X20.6043 Y36.8485
G01 X20.5771 Y37.0201
G01 X20.5234 Y37.1855
G01 X20.4445 Y37.3403
G01 X20.3423 Y37.4809
G01 X20.2194 Y37.6039
G01 X20.0788 Y37.7060
G01 X19.9239 Y37.7849
G01 X19.7586 Y37.8387
G01 X19.5869 Y37.8658
G01 X19.4131 Y37.8658
G01 X19.2414 Y37.8387
G01 X19.0761 Y37.7849
G01 X18.9212 Y37.7060
G01 X18.7806 Y37.6039
G01 X18.6577 Y37.4810
G01 X18.5555 Y37.3403
G01 X18.4766 Y37.1855
G01 X18.4229 Y37.0201
G01 X18.3957 Y36.8485
G00 Z2.0000
G00 X18.5111 Y36.8394
G01 F60.00
G01 Z-0.0800
G01 F120.00
G01 X18.5111 Y36.6837
G01 X18.5355 Y36.5300
G01 X18.5836 Y36.3820
G01 X18.6543 Y36.2433
G01 X18.7457 Y36.1173
G01 X18.8558 Y36.0073
G01 X18.9817 Y35.9158
G01 X19.1204 Y35.8451
G01 X19.2684 Y35.7970
G01 X19.4222 Y35.7727
G01 X19.5778 Y35.7727
G01 X19.7316 Y35.7970
G01 X19.8796 Y35.8451
G01 X20.0183 Y35.9158
G01 X20.1442 Y36.0073
G01 X20.2543 Y36.1173
G01 X20.3457 Y36.2433
G01 X20.4164 Y36.3820
G01 X20.4645 Y36.5300
G01 X20.4889 Y36.6837
G01 X20.4889 Y36.8394
G01 X20.4645 Y36.9931
G01 X20.4164 Y37.1411
G01 X20.3457 Y37.2798
G01 X20.2543 Y37.4057
G01 X20.1442 Y37.5158
G01 X20.0183 Y37.6073
G01 X19.8796 Y37.6780
G01 X19.7316 Y37.7261
G01 X19.5778 Y37.7504
G01 X19.4222 Y37.7504
G01 X19.2684 Y37.7261
G01 X19.1204 Y37.6780
G01 X18.9817 Y37.6073
G01 X18.8558 Y37.5158
G01 X18.7457 Y37.4058
G01 X18.6543 Y37.2798
G01 X18.5836 Y37.1411
G01 X18.5355 Y36.9931
G01 X18.5111 Y36.8394
G00 Z2.0000
G00 X18.8816 Y36.2602
G01 F60.00
G01 Z-0.0800
G01 F120.00
G01 X18.8876 Y36.2529
G01 X18.9370 Y36.1985
G01 X18.9948 Y36.1461
G01 X19.0577 Y36.0995
G01 X19.1247 Y36.0594
G01 X19.1953 Y36.0260
G01 X19.2689 Y35.9996
G01 X19.3447 Y35.9806
G01 X19.4220 Y35.9692
G01 X19.5000 Y35.9653
G01 X19.5780 Y35.9692
G01 X19.6553 Y35.9806
G01 X19.7311 Y35.9996
G01 X19.8047 Y36.0260
G01 X19.8753 Y36.0594
G01 X19.9423 Y36.0995
G01 X20.0051 Y36.1461
G01 X20.0630 Y36.1985
G01 X20.1154 Y36.2564
G01 X20.1620 Y36.3192
G01 X20.2022 Y36.3862
G01 X20.2356 Y36.4569
G01 X20.2619 Y36.5304
G01 X20.2809 Y36.6062
G01 X20.2924 Y36.6835
G01 X20.2962 Y36.7615
G01 X20.2924 Y36.8396
G01 X20.2809 Y36.9169
G01 X20.2620 Y36.9925
G01 X20.2356 Y37.0662
G01 X20.2022 Y37.1369
G01 X20.1620 Y37.2039
G01 X20.1155 Y37.2667
G01 X20.0630 Y37.3245
G01 X20.0051 Y37.3770
G01 X19.9423 Y37.4236
G01 X19.8753 Y37.4637
G01 X19.8047 Y37.4971
G01 X19.7311 Y37.5235
G01 X19.6553 Y37.5424
G01 X19.5780 Y37.5539
G01 X19.5000 Y37.5577
G01 X19.4220 Y37.5539
G01 X19.3447 Y37.5424
G01 X19.2691 Y37.5235
G01 X19.1953 Y37.4971
G01 X19.1247 Y37.4637
G01 X19.0577 Y37.4236
G01 X18.9952 Y37.3772
G01 X18.9370 Y37.3245
G01 X18.8845 Y37.2667
G01 X18.8380 Y37.2039
G01 X18.7978 Y37.1369
G01 X18.7644 Y37.0662
G01 X18.7381 Y36.9927
G01 X18.7191 Y36.9169
G01 X18.7076 Y36.8396
G01 X18.7038 Y36.7615
G01 X18.7076 Y36.6835
G01 X18.7191 Y36.6062
G01 X18.7381 Y36.5304
G01 X18.7644 Y36.4569
G01 X18.7978 Y36.3862
G01 X18.8380 Y36.3192
G01 X18.8816 Y36.2602
G00 Z2.0000
G00 X18.7889 Y36.1914
G01 F60.00
G01 Z-0.0800
G01 F120.00
G01 X18.7954 Y36.1831
G01 X18.8021 Y36.1753
G01 X18.8554 Y36.1169
G01 X18.8629 Y36.1098
G01 X18.9215 Y36.0570
G01 X18.9299 Y36.0504
G01 X18.9935 Y36.0035
G01 X19.0023 Y35.9980
G01 X19.0703 Y35.9576
G01 X19.1416 Y35.9235
G01 X19.1511 Y35.9193
G01 X19.1608 Y35.9156
G01 X19.2354 Y35.8892
G01 X19.3120 Y35.8697
G01 X19.3221 Y35.8674
G01 X19.3324 Y35.8656
G01 X19.4106 Y35.8543
G01 X19.4210 Y35.8535
G01 X19.5000 Y35.8499
G01 X19.5790 Y35.8535
G01 X19.5894 Y35.8543
G01 X19.6676 Y35.8656
G01 X19.6779 Y35.8674
G01 X19.6880 Y35.8697
G01 X19.7646 Y35.8892
G01 X19.8392 Y35.9156
G01 X19.8489 Y35.9193
G01 X19.8584 Y35.9235
G01 X19.9297 Y35.9576
G01 X19.9977 Y35.9980
G01 X20.0065 Y36.0035
G01 X20.0701 Y36.0504
G01 X20.0783 Y36.0568
G01 X20.0862 Y36.0636
G01 X20.1446 Y36.1169
G01 X20.1518 Y36.1244
G01 X20.2046 Y36.1830
G01 X20.2111 Y36.1914
G01 X20.2580 Y36.2551
G01 X20.2636 Y36.2638
G01 X20.3040 Y36.3318
G01 X20.3380 Y36.4032
G01 X20.3422 Y36.4127
G01 X20.3460 Y36.4224
G01 X20.3724 Y36.4969
G01 X20.3918 Y36.5736
G01 X20.3941 Y36.5837
G01 X20.3959 Y36.5939
G01 X20.4073 Y36.6722
G01 X20.4080 Y36.6826
G01 X20.4116 Y36.7615
G01 X20.4080 Y36.8405
G01 X20.4073 Y36.8509
G01 X20.3959 Y36.9292
G01 X20.3941 Y36.9394
G01 X20.3918 Y36.9495
G01 X20.3725 Y37.0258
G01 X20.3691 Y37.0360
G01 X20.3422 Y37.1104
G01 X20.3380 Y37.1199
G01 X20.3040 Y37.1913
G01 X20.2636 Y37.2593
G01 X20.2580 Y37.2680
G01 X20.2520 Y37.2765
G01 X20.2047 Y37.3399
G01 X20.1979 Y37.3478
G01 X20.1446 Y37.4062
G01 X20.0862 Y37.4595
G01 X20.0783 Y37.4663
G01 X20.0150 Y37.5136
G01 X20.0065 Y37.5195
G01 X19.9977 Y37.5251
G01 X19.9297 Y37.5655
G01 X19.8584 Y37.5996
G01 X19.8489 Y37.6038
G01 X19.8392 Y37.6075
G01 X19.7646 Y37.6339
G01 X19.6880 Y37.6534
G01 X19.6779 Y37.6557
G01 X19.6676 Y37.6574
G01 X19.5894 Y37.6688
G01 X19.5790 Y37.6696
G01 X19.5000 Y37.6732
G01 X19.4210 Y37.6696
G01 X19.4106 Y37.6688
G01 X19.3324 Y37.6574
G01 X19.3221 Y37.6557
G01 X19.3120 Y37.6534
G01 X19.2358 Y37.6341
G01 X19.2255 Y37.6307
G01 X19.1511 Y37.6038
G01 X19.1416 Y37.5996
G01 X19.0703 Y37.5655
G01 X19.0023 Y37.5251
G01 X18.9935 Y37.5195
G01 X18.9850 Y37.5136
G01 X18.9222 Y37.4667
G01 X18.9138 Y37.4595
G01 X18.8554 Y37.4062
G01 X18.8021 Y37.3478
G01 X18.7953 Y37.3399
G01 X18.7480 Y37.2765
G01 X18.7420 Y37.2680
G01 X18.7364 Y37.2593
G01 X18.6960 Y37.1913
G01 X18.6620 Y37.1199
G01 X18.6578 Y37.1104
G01 X18.6540 Y37.1007
G01 X18.6276 Y37.0262
G01 X18.6082 Y36.9495
G01 X18.6059 Y36.9394
G01 X18.6041 Y36.9292
