(G-CODE GENERATED BY FLATCAM v8.994 - www.flatcam.org - Version Date: 2020/11/7)

(Name: qtkiln-Edge_Cuts.gbr_cutout_cnc)
(Type: G-code from Geometry)
(Units: MM)

(Created on Wednesday, 30 April 2025 at 17:57)

(This preprocessor is the default preprocessor used by FlatCAM.)
(It is made to work with MACH3 compatible motion controllers.)

(TOOL DIAMETER: 3.0 mm)
(Feedrate_XY: 120.0 mm/min)
(Feedrate_Z: 60.0 mm/min)
(Feedrate rapids 1500.0 mm/min)

(Z_Cut: -2.4 mm)
(DepthPerCut: 0.2 mm <=>12 passes)
(Z_Move: 2.0 mm)
(Z Start: None mm)
(Z End: 15.0 mm)
(X,Y End: None mm)
(Steps per circle: 64)
(Preprocessor Geometry: default)

(X range:   -1.6250 ...  134.1250  mm)
(Y range:   -1.6250 ...   68.1250  mm)

(Spindle Speed: 0.0 RPM)
G21
G90
G94

G01 F120.00

M5
G00 Z15.0000
G00 X0.0000 Y0.0000
T1
M6    
(MSG, Change to Tool Dia = 3.0000)
M0
G00 Z15.0000

M03
G01 F120.00
G00 X-1.6250 Y31.3500
G01 F60.00
G01 Z-0.2000
G01 F120.00
G01 X-1.6250 Y-0.0250
G01 X-1.6173 Y-0.1818
G01 X-1.5943 Y-0.3372
G01 X-1.5561 Y-0.4895
G01 X-1.5032 Y-0.6373
G01 X-1.4361 Y-0.7792
G01 X-1.3554 Y-0.9139
G01 X-1.2618 Y-1.0400
G01 X-1.1564 Y-1.1564
G01 X-1.0400 Y-1.2618
G01 X-0.9139 Y-1.3554
G01 X-0.7792 Y-1.4361
G01 X-0.6373 Y-1.5032
G01 X-0.4895 Y-1.5561
G01 X-0.3372 Y-1.5943
G01 X-0.1818 Y-1.6173
G01 X-0.0250 Y-1.6250
G01 X64.3500 Y-1.6250
G00 X64.3500 Y-1.6250
G01 F60.00
G01 Z-0.4000
G01 F120.00
G01 X-0.0250 Y-1.6250
G01 X-0.1818 Y-1.6173
G01 X-0.3372 Y-1.5943
G01 X-0.4895 Y-1.5561
G01 X-0.6373 Y-1.5032
G01 X-0.7792 Y-1.4361
G01 X-0.9139 Y-1.3554
G01 X-1.0400 Y-1.2618
G01 X-1.1564 Y-1.1564
G01 X-1.2618 Y-1.0400
G01 X-1.3554 Y-0.9139
G01 X-1.4361 Y-0.7792
G01 X-1.5032 Y-0.6373
G01 X-1.5561 Y-0.4895
G01 X-1.5943 Y-0.3372
G01 X-1.6173 Y-0.1818
G01 X-1.6250 Y-0.0250
G01 X-1.6250 Y31.3500
G00 X-1.6250 Y31.3500
G01 F60.00
G01 Z-0.6000
G01 F120.00
G01 X-1.6250 Y-0.0250
G01 X-1.6173 Y-0.1818
G01 X-1.5943 Y-0.3372
G01 X-1.5561 Y-0.4895
G01 X-1.5032 Y-0.6373
G01 X-1.4361 Y-0.7792
G01 X-1.3554 Y-0.9139
G01 X-1.2618 Y-1.0400
G01 X-1.1564 Y-1.1564
G01 X-1.0400 Y-1.2618
G01 X-0.9139 Y-1.3554
G01 X-0.7792 Y-1.4361
G01 X-0.6373 Y-1.5032
G01 X-0.4895 Y-1.5561
G01 X-0.3372 Y-1.5943
G01 X-0.1818 Y-1.6173
G01 X-0.0250 Y-1.6250
G01 X64.3500 Y-1.6250
G00 X64.3500 Y-1.6250
G01 F60.00
G01 Z-0.8000
G01 F120.00
G01 X-0.0250 Y-1.6250
G01 X-0.1818 Y-1.6173
G01 X-0.3372 Y-1.5943
G01 X-0.4895 Y-1.5561
G01 X-0.6373 Y-1.5032
G01 X-0.7792 Y-1.4361
G01 X-0.9139 Y-1.3554
G01 X-1.0400 Y-1.2618
G01 X-1.1564 Y-1.1564
G01 X-1.2618 Y-1.0400
G01 X-1.3554 Y-0.9139
G01 X-1.4361 Y-0.7792
G01 X-1.5032 Y-0.6373
G01 X-1.5561 Y-0.4895
G01 X-1.5943 Y-0.3372
G01 X-1.6173 Y-0.1818
G01 X-1.6250 Y-0.0250
G01 X-1.6250 Y31.3500
G00 X-1.6250 Y31.3500
G01 F60.00
G01 Z-1.0000
G01 F120.00
G01 X-1.6250 Y-0.0250
G01 X-1.6173 Y-0.1818
G01 X-1.5943 Y-0.3372
G01 X-1.5561 Y-0.4895
G01 X-1.5032 Y-0.6373
G01 X-1.4361 Y-0.7792
G01 X-1.3554 Y-0.9139
G01 X-1.2618 Y-1.0400
G01 X-1.1564 Y-1.1564
G01 X-1.0400 Y-1.2618
G01 X-0.9139 Y-1.3554
G01 X-0.7792 Y-1.4361
G01 X-0.6373 Y-1.5032
G01 X-0.4895 Y-1.5561
G01 X-0.3372 Y-1.5943
G01 X-0.1818 Y-1.6173
G01 X-0.0250 Y-1.6250
G01 X64.3500 Y-1.6250
G00 X64.3500 Y-1.6250
G01 F60.00
G01 Z-1.2000
G01 F120.00
G01 X-0.0250 Y-1.6250
G01 X-0.1818 Y-1.6173
G01 X-0.3372 Y-1.5943
G01 X-0.4895 Y-1.5561
G01 X-0.6373 Y-1.5032
G01 X-0.7792 Y-1.4361
G01 X-0.9139 Y-1.3554
G01 X-1.0400 Y-1.2618
G01 X-1.1564 Y-1.1564
G01 X-1.2618 Y-1.0400
G01 X-1.3554 Y-0.9139
G01 X-1.4361 Y-0.7792
G01 X-1.5032 Y-0.6373
G01 X-1.5561 Y-0.4895
G01 X-1.5943 Y-0.3372
G01 X-1.6173 Y-0.1818
G01 X-1.6250 Y-0.0250
G01 X-1.6250 Y31.3500
G00 X-1.6250 Y31.3500
G01 F60.00
G01 Z-1.4000
G01 F120.00
G01 X-1.6250 Y-0.0250
G01 X-1.6173 Y-0.1818
G01 X-1.5943 Y-0.3372
G01 X-1.5561 Y-0.4895
G01 X-1.5032 Y-0.6373
G01 X-1.4361 Y-0.7792
G01 X-1.3554 Y-0.9139
G01 X-1.2618 Y-1.0400
G01 X-1.1564 Y-1.1564
G01 X-1.0400 Y-1.2618
G01 X-0.9139 Y-1.3554
G01 X-0.7792 Y-1.4361
G01 X-0.6373 Y-1.5032
G01 X-0.4895 Y-1.5561
G01 X-0.3372 Y-1.5943
G01 X-0.1818 Y-1.6173
G01 X-0.0250 Y-1.6250
G01 X64.3500 Y-1.6250
G00 X64.3500 Y-1.6250
G01 F60.00
G01 Z-1.6000
G01 F120.00
G01 X-0.0250 Y-1.6250
G01 X-0.1818 Y-1.6173
G01 X-0.3372 Y-1.5943
G01 X-0.4895 Y-1.5561
G01 X-0.6373 Y-1.5032
G01 X-0.7792 Y-1.4361
G01 X-0.9139 Y-1.3554
G01 X-1.0400 Y-1.2618
G01 X-1.1564 Y-1.1564
G01 X-1.2618 Y-1.0400
G01 X-1.3554 Y-0.9139
G01 X-1.4361 Y-0.7792
G01 X-1.5032 Y-0.6373
G01 X-1.5561 Y-0.4895
G01 X-1.5943 Y-0.3372
G01 X-1.6173 Y-0.1818
G01 X-1.6250 Y-0.0250
G01 X-1.6250 Y31.3500
G00 X-1.6250 Y31.3500
G01 F60.00
G01 Z-1.8000
G01 F120.00
G01 X-1.6250 Y-0.0250
G01 X-1.6173 Y-0.1818
G01 X-1.5943 Y-0.3372
G01 X-1.5561 Y-0.4895
G01 X-1.5032 Y-0.6373
G01 X-1.4361 Y-0.7792
G01 X-1.3554 Y-0.9139
G01 X-1.2618 Y-1.0400
G01 X-1.1564 Y-1.1564
G01 X-1.0400 Y-1.2618
G01 X-0.9139 Y-1.3554
G01 X-0.7792 Y-1.4361
G01 X-0.6373 Y-1.5032
G01 X-0.4895 Y-1.5561
G01 X-0.3372 Y-1.5943
G01 X-0.1818 Y-1.6173
G01 X-0.0250 Y-1.6250
G01 X64.3500 Y-1.6250
G00 X64.3500 Y-1.6250
G01 F60.00
G01 Z-2.0000
G01 F120.00
G01 X-0.0250 Y-1.6250
G01 X-0.1818 Y-1.6173
G01 X-0.3372 Y-1.5943
G01 X-0.4895 Y-1.5561
G01 X-0.6373 Y-1.5032
G01 X-0.7792 Y-1.4361
G01 X-0.9139 Y-1.3554
G01 X-1.0400 Y-1.2618
G01 X-1.1564 Y-1.1564
G01 X-1.2618 Y-1.0400
G01 X-1.3554 Y-0.9139
G01 X-1.4361 Y-0.7792
G01 X-1.5032 Y-0.6373
G01 X-1.5561 Y-0.4895
G01 X-1.5943 Y-0.3372
G01 X-1.6173 Y-0.1818
G01 X-1.6250 Y-0.0250
G01 X-1.6250 Y31.3500
G00 X-1.6250 Y31.3500
G01 F60.00
G01 Z-2.2000
G01 F120.00
G01 X-1.6250 Y-0.0250
G01 X-1.6173 Y-0.1818
G01 X-1.5943 Y-0.3372
G01 X-1.5561 Y-0.4895
G01 X-1.5032 Y-0.6373
G01 X-1.4361 Y-0.7792
G01 X-1.3554 Y-0.9139
G01 X-1.2618 Y-1.0400
G01 X-1.1564 Y-1.1564
G01 X-1.0400 Y-1.2618
G01 X-0.9139 Y-1.3554
G01 X-0.7792 Y-1.4361
G01 X-0.6373 Y-1.5032
G01 X-0.4895 Y-1.5561
G01 X-0.3372 Y-1.5943
G01 X-0.1818 Y-1.6173
G01 X-0.0250 Y-1.6250
G01 X64.3500 Y-1.6250
G00 X64.3500 Y-1.6250
G01 F60.00
G01 Z-2.4000
G01 F120.00
G01 X-0.0250 Y-1.6250
G01 X-0.1818 Y-1.6173
G01 X-0.3372 Y-1.5943
G01 X-0.4895 Y-1.5561
G01 X-0.6373 Y-1.5032
G01 X-0.7792 Y-1.4361
G01 X-0.9139 Y-1.3554
G01 X-1.0400 Y-1.2618
G01 X-1.1564 Y-1.1564
G01 X-1.2618 Y-1.0400
G01 X-1.3554 Y-0.9139
G01 X-1.4361 Y-0.7792
G01 X-1.5032 Y-0.6373
G01 X-1.5561 Y-0.4895
G01 X-1.5943 Y-0.3372
G01 X-1.6173 Y-0.1818
G01 X-1.6250 Y-0.0250
G01 X-1.6250 Y31.3500
G00 Z2.0000
G00 X-1.6250 Y35.3500
G01 F60.00
G01 Z-0.2000
G01 F120.00
G01 X-1.6250 Y66.5250
G01 X-1.6173 Y66.6818
G01 X-1.5943 Y66.8372
G01 X-1.5561 Y66.9895
G01 X-1.5032 Y67.1373
G01 X-1.4361 Y67.2792
G01 X-1.3554 Y67.4139
G01 X-1.2618 Y67.5400
G01 X-1.1564 Y67.6564
G01 X-1.0400 Y67.7618
G01 X-0.9139 Y67.8554
G01 X-0.7792 Y67.9361
G01 X-0.6373 Y68.0032
G01 X-0.4895 Y68.0561
G01 X-0.3372 Y68.0943
G01 X-0.1818 Y68.1173
G01 X-0.0250 Y68.1250
G01 X64.3500 Y68.1250
G00 X64.3500 Y68.1250
G01 F60.00
G01 Z-0.4000
G01 F120.00
G01 X-0.0250 Y68.1250
G01 X-0.1818 Y68.1173
G01 X-0.3372 Y68.0943
G01 X-0.4895 Y68.0561
G01 X-0.6373 Y68.0032
G01 X-0.7792 Y67.9361
G01 X-0.9139 Y67.8554
G01 X-1.0400 Y67.7618
G01 X-1.1564 Y67.6564
G01 X-1.2618 Y67.5400
G01 X-1.3554 Y67.4139
G01 X-1.4361 Y67.2792
G01 X-1.5032 Y67.1373
G01 X-1.5561 Y66.9895
G01 X-1.5943 Y66.8372
G01 X-1.6173 Y66.6818
G01 X-1.6250 Y66.5250
G01 X-1.6250 Y35.3500
G00 X-1.6250 Y35.3500
G01 F60.00
G01 Z-0.6000
G01 F120.00
G01 X-1.6250 Y66.5250
G01 X-1.6173 Y66.6818
G01 X-1.5943 Y66.8372
G01 X-1.5561 Y66.9895
G01 X-1.5032 Y67.1373
G01 X-1.4361 Y67.2792
G01 X-1.3554 Y67.4139
G01 X-1.2618 Y67.5400
G01 X-1.1564 Y67.6564
G01 X-1.0400 Y67.7618
G01 X-0.9139 Y67.8554
G01 X-0.7792 Y67.9361
G01 X-0.6373 Y68.0032
G01 X-0.4895 Y68.0561
G01 X-0.3372 Y68.0943
G01 X-0.1818 Y68.1173
G01 X-0.0250 Y68.1250
G01 X64.3500 Y68.1250
G00 X64.3500 Y68.1250
G01 F60.00
G01 Z-0.8000
G01 F120.00
G01 X-0.0250 Y68.1250
G01 X-0.1818 Y68.1173
G01 X-0.3372 Y68.0943
G01 X-0.4895 Y68.0561
G01 X-0.6373 Y68.0032
G01 X-0.7792 Y67.9361
G01 X-0.9139 Y67.8554
G01 X-1.0400 Y67.7618
G01 X-1.1564 Y67.6564
G01 X-1.2618 Y67.5400
G01 X-1.3554 Y67.4139
G01 X-1.4361 Y67.2792
G01 X-1.5032 Y67.1373
G01 X-1.5561 Y66.9895
G01 X-1.5943 Y66.8372
G01 X-1.6173 Y66.6818
G01 X-1.6250 Y66.5250
G01 X-1.6250 Y35.3500
G00 X-1.6250 Y35.3500
G01 F60.00
G01 Z-1.0000
G01 F120.00
G01 X-1.6250 Y66.5250
G01 X-1.6173 Y66.6818
G01 X-1.5943 Y66.8372
G01 X-1.5561 Y66.9895
G01 X-1.5032 Y67.1373
G01 X-1.4361 Y67.2792
G01 X-1.3554 Y67.4139
G01 X-1.2618 Y67.5400
G01 X-1.1564 Y67.6564
G01 X-1.0400 Y67.7618
G01 X-0.9139 Y67.8554
G01 X-0.7792 Y67.9361
G01 X-0.6373 Y68.0032
G01 X-0.4895 Y68.0561
G01 X-0.3372 Y68.0943
G01 X-0.1818 Y68.1173
G01 X-0.0250 Y68.1250
G01 X64.3500 Y68.1250
G00 X64.3500 Y68.1250
G01 F60.00
G01 Z-1.2000
G01 F120.00
G01 X-0.0250 Y68.1250
G01 X-0.1818 Y68.1173
G01 X-0.3372 Y68.0943
G01 X-0.4895 Y68.0561
G01 X-0.6373 Y68.0032
G01 X-0.7792 Y67.9361
G01 X-0.9139 Y67.8554
G01 X-1.0400 Y67.7618
G01 X-1.1564 Y67.6564
G01 X-1.2618 Y67.5400
G01 X-1.3554 Y67.4139
G01 X-1.4361 Y67.2792
G01 X-1.5032 Y67.1373
G01 X-1.5561 Y66.9895
G01 X-1.5943 Y66.8372
G01 X-1.6173 Y66.6818
G01 X-1.6250 Y66.5250
G01 X-1.6250 Y35.3500
G00 X-1.6250 Y35.3500
G01 F60.00
G01 Z-1.4000
G01 F120.00
G01 X-1.6250 Y66.5250
G01 X-1.6173 Y66.6818
G01 X-1.5943 Y66.8372
G01 X-1.5561 Y66.9895
G01 X-1.5032 Y67.1373
G01 X-1.4361 Y67.2792
G01 X-1.3554 Y67.4139
G01 X-1.2618 Y67.5400
G01 X-1.1564 Y67.6564
G01 X-1.0400 Y67.7618
G01 X-0.9139 Y67.8554
G01 X-0.7792 Y67.9361
G01 X-0.6373 Y68.0032
G01 X-0.4895 Y68.0561
G01 X-0.3372 Y68.0943
G01 X-0.1818 Y68.1173
G01 X-0.0250 Y68.1250
G01 X64.3500 Y68.1250
G00 X64.3500 Y68.1250
G01 F60.00
G01 Z-1.6000
G01 F120.00
G01 X-0.0250 Y68.1250
G01 X-0.1818 Y68.1173
G01 X-0.3372 Y68.0943
G01 X-0.4895 Y68.0561
G01 X-0.6373 Y68.0032
G01 X-0.7792 Y67.9361
G01 X-0.9139 Y67.8554
G01 X-1.0400 Y67.7618
G01 X-1.1564 Y67.6564
G01 X-1.2618 Y67.5400
G01 X-1.3554 Y67.4139
G01 X-1.4361 Y67.2792
G01 X-1.5032 Y67.1373
G01 X-1.5561 Y66.9895
G01 X-1.5943 Y66.8372
G01 X-1.6173 Y66.6818
G01 X-1.6250 Y66.5250
G01 X-1.6250 Y35.3500
G00 X-1.6250 Y35.3500
G01 F60.00
G01 Z-1.8000
G01 F120.00
G01 X-1.6250 Y66.5250
G01 X-1.6173 Y66.6818
G01 X-1.5943 Y66.8372
G01 X-1.5561 Y66.9895
G01 X-1.5032 Y67.1373
G01 X-1.4361 Y67.2792
G01 X-1.3554 Y67.4139
G01 X-1.2618 Y67.5400
G01 X-1.1564 Y67.6564
G01 X-1.0400 Y67.7618
G01 X-0.9139 Y67.8554
G01 X-0.7792 Y67.9361
G01 X-0.6373 Y68.0032
G01 X-0.4895 Y68.0561
G01 X-0.3372 Y68.0943
G01 X-0.1818 Y68.1173
G01 X-0.0250 Y68.1250
G01 X64.3500 Y68.1250
G00 X64.3500 Y68.1250
G01 F60.00
G01 Z-2.0000
G01 F120.00
G01 X-0.0250 Y68.1250
G01 X-0.1818 Y68.1173
G01 X-0.3372 Y68.0943
G01 X-0.4895 Y68.0561
G01 X-0.6373 Y68.0032
G01 X-0.7792 Y67.9361
G01 X-0.9139 Y67.8554
G01 X-1.0400 Y67.7618
G01 X-1.1564 Y67.6564
G01 X-1.2618 Y67.5400
G01 X-1.3554 Y67.4139
G01 X-1.4361 Y67.2792
G01 X-1.5032 Y67.1373
G01 X-1.5561 Y66.9895
G01 X-1.5943 Y66.8372
G01 X-1.6173 Y66.6818
G01 X-1.6250 Y66.5250
G01 X-1.6250 Y35.3500
G00 X-1.6250 Y35.3500
G01 F60.00
G01 Z-2.2000
G01 F120.00
G01 X-1.6250 Y66.5250
G01 X-1.6173 Y66.6818
G01 X-1.5943 Y66.8372
G01 X-1.5561 Y66.9895
G01 X-1.5032 Y67.1373
G01 X-1.4361 Y67.2792
G01 X-1.3554 Y67.4139
G01 X-1.2618 Y67.5400
G01 X-1.1564 Y67.6564
G01 X-1.0400 Y67.7618
G01 X-0.9139 Y67.8554
G01 X-0.7792 Y67.9361
G01 X-0.6373 Y68.0032
G01 X-0.4895 Y68.0561
G01 X-0.3372 Y68.0943
G01 X-0.1818 Y68.1173
G01 X-0.0250 Y68.1250
G01 X64.3500 Y68.1250
G00 X64.3500 Y68.1250
G01 F60.00
G01 Z-2.4000
G01 F120.00
G01 X-0.0250 Y68.1250
G01 X-0.1818 Y68.1173
G01 X-0.3372 Y68.0943
G01 X-0.4895 Y68.0561
G01 X-0.6373 Y68.0032
G01 X-0.7792 Y67.9361
G01 X-0.9139 Y67.8554
G01 X-1.0400 Y67.7618
G01 X-1.1564 Y67.6564
G01 X-1.2618 Y67.5400
G01 X-1.3554 Y67.4139
G01 X-1.4361 Y67.2792
G01 X-1.5032 Y67.1373
G01 X-1.5561 Y66.9895
G01 X-1.5943 Y66.8372
G01 X-1.6173 Y66.6818
G01 X-1.6250 Y66.5250
G01 X-1.6250 Y35.3500
G00 Z2.0000
G00 X68.3500 Y68.1250
G01 F60.00
G01 Z-0.2000
G01 F120.00
G01 X132.5250 Y68.1250
G01 X132.6818 Y68.1173
G01 X132.8372 Y68.0943
G01 X132.9895 Y68.0561
G01 X133.1373 Y68.0032
G01 X133.2792 Y67.9361
G01 X133.4139 Y67.8554
G01 X133.5400 Y67.7618
G01 X133.6564 Y67.6564
G01 X133.7618 Y67.5400
G01 X133.8554 Y67.4139
G01 X133.9361 Y67.2792
G01 X134.0032 Y67.1373
G01 X134.0561 Y66.9895
G01 X134.0943 Y66.8372
G01 X134.1173 Y66.6818
G01 X134.1250 Y66.5250
G01 X134.1250 Y35.3500
G00 X134.1250 Y35.3500
G01 F60.00
G01 Z-0.4000
G01 F120.00
G01 X134.1250 Y66.5250
G01 X134.1173 Y66.6818
G01 X134.0943 Y66.8372
G01 X134.0561 Y66.9895
G01 X134.0032 Y67.1373
G01 X133.9361 Y67.2792
G01 X133.8554 Y67.4139
G01 X133.7618 Y67.5400
G01 X133.6564 Y67.6564
G01 X133.5400 Y67.7618
G01 X133.4139 Y67.8554
G01 X133.2792 Y67.9361
G01 X133.1373 Y68.0032
G01 X132.9895 Y68.0561
G01 X132.8372 Y68.0943
G01 X132.6818 Y68.1173
G01 X132.5250 Y68.1250
G01 X68.3500 Y68.1250
G00 X68.3500 Y68.1250
G01 F60.00
G01 Z-0.6000
G01 F120.00
G01 X132.5250 Y68.1250
G01 X132.6818 Y68.1173
G01 X132.8372 Y68.0943
G01 X132.9895 Y68.0561
G01 X133.1373 Y68.0032
G01 X133.2792 Y67.9361
G01 X133.4139 Y67.8554
G01 X133.5400 Y67.7618
G01 X133.6564 Y67.6564
G01 X133.7618 Y67.5400
G01 X133.8554 Y67.4139
G01 X133.9361 Y67.2792
G01 X134.0032 Y67.1373
G01 X134.0561 Y66.9895
G01 X134.0943 Y66.8372
G01 X134.1173 Y66.6818
G01 X134.1250 Y66.5250
G01 X134.1250 Y35.3500
G00 X134.1250 Y35.3500
G01 F60.00
G01 Z-0.8000
G01 F120.00
G01 X134.1250 Y66.5250
G01 X134.1173 Y66.6818
G01 X134.0943 Y66.8372
G01 X134.0561 Y66.9895
G01 X134.0032 Y67.1373
G01 X133.9361 Y67.2792
G01 X133.8554 Y67.4139
G01 X133.7618 Y67.5400
G01 X133.6564 Y67.6564
G01 X133.5400 Y67.7618
G01 X133.4139 Y67.8554
G01 X133.2792 Y67.9361
G01 X133.1373 Y68.0032
G01 X132.9895 Y68.0561
G01 X132.8372 Y68.0943
G01 X132.6818 Y68.1173
G01 X132.5250 Y68.1250
G01 X68.3500 Y68.1250
G00 X68.3500 Y68.1250
G01 F60.00
G01 Z-1.0000
G01 F120.00
G01 X132.5250 Y68.1250
G01 X132.6818 Y68.1173
G01 X132.8372 Y68.0943
G01 X132.9895 Y68.0561
G01 X133.1373 Y68.0032
G01 X133.2792 Y67.9361
G01 X133.4139 Y67.8554
G01 X133.5400 Y67.7618
G01 X133.6564 Y67.6564
G01 X133.7618 Y67.5400
G01 X133.8554 Y67.4139
G01 X133.9361 Y67.2792
G01 X134.0032 Y67.1373
G01 X134.0561 Y66.9895
G01 X134.0943 Y66.8372
G01 X134.1173 Y66.6818
G01 X134.1250 Y66.5250
G01 X134.1250 Y35.3500
G00 X134.1250 Y35.3500
G01 F60.00
G01 Z-1.2000
G01 F120.00
G01 X134.1250 Y66.5250
G01 X134.1173 Y66.6818
G01 X134.0943 Y66.8372
G01 X134.0561 Y66.9895
G01 X134.0032 Y67.1373
G01 X133.9361 Y67.2792
G01 X133.8554 Y67.4139
G01 X133.7618 Y67.5400
G01 X133.6564 Y67.6564
G01 X133.5400 Y67.7618
G01 X133.4139 Y67.8554
G01 X133.2792 Y67.9361
G01 X133.1373 Y68.0032
G01 X132.9895 Y68.0561
G01 X132.8372 Y68.0943
G01 X132.6818 Y68.1173
G01 X132.5250 Y68.1250
G01 X68.3500 Y68.1250
G00 X68.3500 Y68.1250
G01 F60.00
G01 Z-1.4000
G01 F120.00
G01 X132.5250 Y68.1250
G01 X132.6818 Y68.1173
G01 X132.8372 Y68.0943
G01 X132.9895 Y68.0561
G01 X133.1373 Y68.0032
G01 X133.2792 Y67.9361
G01 X133.4139 Y67.8554
G01 X133.5400 Y67.7618
G01 X133.6564 Y67.6564
G01 X133.7618 Y67.5400
G01 X133.8554 Y67.4139
G01 X133.9361 Y67.2792
G01 X134.0032 Y67.1373
G01 X134.0561 Y66.9895
G01 X134.0943 Y66.8372
G01 X134.1173 Y66.6818
G01 X134.1250 Y66.5250
G01 X134.1250 Y35.3500
G00 X134.1250 Y35.3500
G01 F60.00
G01 Z-1.6000
G01 F120.00
G01 X134.1250 Y66.5250
G01 X134.1173 Y66.6818
G01 X134.0943 Y66.8372
G01 X134.0561 Y66.9895
G01 X134.0032 Y67.1373
G01 X133.9361 Y67.2792
G01 X133.8554 Y67.4139
G01 X133.7618 Y67.5400
G01 X133.6564 Y67.6564
G01 X133.5400 Y67.7618
G01 X133.4139 Y67.8554
G01 X133.2792 Y67.9361
G01 X133.1373 Y68.0032
G01 X132.9895 Y68.0561
G01 X132.8372 Y68.0943
G01 X132.6818 Y68.1173
G01 X132.5250 Y68.1250
G01 X68.3500 Y68.1250
G00 X68.3500 Y68.1250
G01 F60.00
G01 Z-1.8000
G01 F120.00
G01 X132.5250 Y68.1250
G01 X132.6818 Y68.1173
G01 X132.8372 Y68.0943
G01 X132.9895 Y68.0561
G01 X133.1373 Y68.0032
G01 X133.2792 Y67.9361
G01 X133.4139 Y67.8554
G01 X133.5400 Y67.7618
G01 X133.6564 Y67.6564
G01 X133.7618 Y67.5400
G01 X133.8554 Y67.4139
G01 X133.9361 Y67.2792
G01 X134.0032 Y67.1373
G01 X134.0561 Y66.9895
G01 X134.0943 Y66.8372
G01 X134.1173 Y66.6818
G01 X134.1250 Y66.5250
G01 X134.1250 Y35.3500
G00 X134.1250 Y35.3500
G01 F60.00
G01 Z-2.0000
G01 F120.00
G01 X134.1250 Y66.5250
G01 X134.1173 Y66.6818
G01 X134.0943 Y66.8372
G01 X134.0561 Y66.9895
G01 X134.0032 Y67.1373
G01 X133.9361 Y67.2792
G01 X133.8554 Y67.4139
G01 X133.7618 Y67.5400
G01 X133.6564 Y67.6564
G01 X133.5400 Y67.7618
G01 X133.4139 Y67.8554
G01 X133.2792 Y67.9361
G01 X133.1373 Y68.0032
G01 X132.9895 Y68.0561
G01 X132.8372 Y68.0943
G01 X132.6818 Y68.1173
G01 X132.5250 Y68.1250
G01 X68.3500 Y68.1250
G00 X68.3500 Y68.1250
G01 F60.00
G01 Z-2.2000
G01 F120.00
G01 X132.5250 Y68.1250
G01 X132.6818 Y68.1173
G01 X132.8372 Y68.0943
G01 X132.9895 Y68.0561
G01 X133.1373 Y68.0032
G01 X133.2792 Y67.9361
G01 X133.4139 Y67.8554
G01 X133.5400 Y67.7618
G01 X133.6564 Y67.6564
G01 X133.7618 Y67.5400
G01 X133.8554 Y67.4139
G01 X133.9361 Y67.2792
G01 X134.0032 Y67.1373
G01 X134.0561 Y66.9895
G01 X134.0943 Y66.8372
G01 X134.1173 Y66.6818
G01 X134.1250 Y66.5250
G01 X134.1250 Y35.3500
G00 X134.1250 Y35.3500
G01 F60.00
G01 Z-2.4000
G01 F120.00
G01 X134.1250 Y66.5250
G01 X134.1173 Y66.6818
G01 X134.0943 Y66.8372
G01 X134.0561 Y66.9895
G01 X134.0032 Y67.1373
G01 X133.9361 Y67.2792
G01 X133.8554 Y67.4139
G01 X133.7618 Y67.5400
G01 X133.6564 Y67.6564
G01 X133.5400 Y67.7618
G01 X133.4139 Y67.8554
G01 X133.2792 Y67.9361
G01 X133.1373 Y68.0032
G01 X132.9895 Y68.0561
G01 X132.8372 Y68.0943
G01 X132.6818 Y68.1173
G01 X132.5250 Y68.1250
G01 X68.3500 Y68.1250
G00 Z2.0000
G00 X134.1250 Y31.3500
G01 F60.00
G01 Z-0.2000
G01 F120.00
G01 X134.1250 Y-0.0250
G01 X134.1173 Y-0.1818
G01 X134.0943 Y-0.3372
G01 X134.0561 Y-0.4895
G01 X134.0032 Y-0.6373
G01 X133.9361 Y-0.7792
G01 X133.8554 Y-0.9139
G01 X133.7618 Y-1.0400
G01 X133.6564 Y-1.1564
G01 X133.5400 Y-1.2618
G01 X133.4139 Y-1.3554
G01 X133.2792 Y-1.4361
G01 X133.1373 Y-1.5032
G01 X132.9895 Y-1.5561
G01 X132.8372 Y-1.5943
G01 X132.6818 Y-1.6173
G01 X132.5250 Y-1.6250
G01 X68.3500 Y-1.6250
G00 X68.3500 Y-1.6250
G01 F60.00
G01 Z-0.4000
G01 F120.00
G01 X132.5250 Y-1.6250
G01 X132.6818 Y-1.6173
G01 X132.8372 Y-1.5943
G01 X132.9895 Y-1.5561
G01 X133.1373 Y-1.5032
G01 X133.2792 Y-1.4361
G01 X133.4139 Y-1.3554
G01 X133.5400 Y-1.2618
G01 X133.6564 Y-1.1564
G01 X133.7618 Y-1.0400
G01 X133.8554 Y-0.9139
G01 X133.9361 Y-0.7792
G01 X134.0032 Y-0.6373
G01 X134.0561 Y-0.4895
G01 X134.0943 Y-0.3372
G01 X134.1173 Y-0.1818
G01 X134.1250 Y-0.0250
G01 X134.1250 Y31.3500
G00 X134.1250 Y31.3500
G01 F60.00
G01 Z-0.6000
G01 F120.00
G01 X134.1250 Y-0.0250
G01 X134.1173 Y-0.1818
G01 X134.0943 Y-0.3372
G01 X134.0561 Y-0.4895
G01 X134.0032 Y-0.6373
G01 X133.9361 Y-0.7792
G01 X133.8554 Y-0.9139
G01 X133.7618 Y-1.0400
G01 X133.6564 Y-1.1564
G01 X133.5400 Y-1.2618
G01 X133.4139 Y-1.3554
G01 X133.2792 Y-1.4361
G01 X133.1373 Y-1.5032
G01 X132.9895 Y-1.5561
G01 X132.8372 Y-1.5943
G01 X132.6818 Y-1.6173
G01 X132.5250 Y-1.6250
G01 X68.3500 Y-1.6250
G00 X68.3500 Y-1.6250
G01 F60.00
G01 Z-0.8000
G01 F120.00
G01 X132.5250 Y-1.6250
G01 X132.6818 Y-1.6173
G01 X132.8372 Y-1.5943
G01 X132.9895 Y-1.5561
G01 X133.1373 Y-1.5032
G01 X133.2792 Y-1.4361
G01 X133.4139 Y-1.3554
G01 X133.5400 Y-1.2618
G01 X133.6564 Y-1.1564
G01 X133.7618 Y-1.0400
G01 X133.8554 Y-0.9139
G01 X133.9361 Y-0.7792
G01 X134.0032 Y-0.6373
G01 X134.0561 Y-0.4895
G01 X134.0943 Y-0.3372
G01 X134.1173 Y-0.1818
G01 X134.1250 Y-0.0250
G01 X134.1250 Y31.3500
G00 X134.1250 Y31.3500
G01 F60.00
G01 Z-1.0000
G01 F120.00
G01 X134.1250 Y-0.0250
G01 X134.1173 Y-0.1818
G01 X134.0943 Y-0.3372
G01 X134.0561 Y-0.4895
G01 X134.0032 Y-0.6373
G01 X133.9361 Y-0.7792
G01 X133.8554 Y-0.9139
G01 X133.7618 Y-1.0400
G01 X133.6564 Y-1.1564
G01 X133.5400 Y-1.2618
G01 X133.4139 Y-1.3554
G01 X133.2792 Y-1.4361
G01 X133.1373 Y-1.5032
G01 X132.9895 Y-1.5561
G01 X132.8372 Y-1.5943
G01 X132.6818 Y-1.6173
G01 X132.5250 Y-1.6250
G01 X68.3500 Y-1.6250
G00 X68.3500 Y-1.6250
G01 F60.00
G01 Z-1.2000
G01 F120.00
G01 X132.5250 Y-1.6250
G01 X132.6818 Y-1.6173
G01 X132.8372 Y-1.5943
G01 X132.9895 Y-1.5561
G01 X133.1373 Y-1.5032
G01 X133.2792 Y-1.4361
G01 X133.4139 Y-1.3554
G01 X133.5400 Y-1.2618
G01 X133.6564 Y-1.1564
G01 X133.7618 Y-1.0400
G01 X133.8554 Y-0.9139
G01 X133.9361 Y-0.7792
G01 X134.0032 Y-0.6373
G01 X134.0561 Y-0.4895
G01 X134.0943 Y-0.3372
G01 X134.1173 Y-0.1818
G01 X134.1250 Y-0.0250
G01 X134.1250 Y31.3500
G00 X134.1250 Y31.3500
G01 F60.00
G01 Z-1.4000
G01 F120.00
G01 X134.1250 Y-0.0250
G01 X134.1173 Y-0.1818
G01 X134.0943 Y-0.3372
G01 X134.0561 Y-0.4895
G01 X134.0032 Y-0.6373
G01 X133.9361 Y-0.7792
G01 X133.8554 Y-0.9139
G01 X133.7618 Y-1.0400
G01 X133.6564 Y-1.1564
G01 X133.5400 Y-1.2618
G01 X133.4139 Y-1.3554
G01 X133.2792 Y-1.4361
G01 X133.1373 Y-1.5032
G01 X132.9895 Y-1.5561
G01 X132.8372 Y-1.5943
G01 X132.6818 Y-1.6173
G01 X132.5250 Y-1.6250
G01 X68.3500 Y-1.6250
G00 X68.3500 Y-1.6250
G01 F60.00
G01 Z-1.6000
G01 F120.00
G01 X132.5250 Y-1.6250
G01 X132.6818 Y-1.6173
G01 X132.8372 Y-1.5943
G01 X132.9895 Y-1.5561
G01 X133.1373 Y-1.5032
G01 X133.2792 Y-1.4361
G01 X133.4139 Y-1.3554
G01 X133.5400 Y-1.2618
G01 X133.6564 Y-1.1564
G01 X133.7618 Y-1.0400
G01 X133.8554 Y-0.9139
G01 X133.9361 Y-0.7792
G01 X134.0032 Y-0.6373
G01 X134.0561 Y-0.4895
G01 X134.0943 Y-0.3372
G01 X134.1173 Y-0.1818
G01 X134.1250 Y-0.0250
G01 X134.1250 Y31.3500
G00 X134.1250 Y31.3500
G01 F60.00
G01 Z-1.8000
G01 F120.00
G01 X134.1250 Y-0.0250
G01 X134.1173 Y-0.1818
G01 X134.0943 Y-0.3372
G01 X134.0561 Y-0.4895
G01 X134.0032 Y-0.6373
G01 X133.9361 Y-0.7792
G01 X133.8554 Y-0.9139
G01 X133.7618 Y-1.0400
G01 X133.6564 Y-1.1564
G01 X133.5400 Y-1.2618
G01 X133.4139 Y-1.3554
G01 X133.2792 Y-1.4361
G01 X133.1373 Y-1.5032
G01 X132.9895 Y-1.5561
G01 X132.8372 Y-1.5943
G01 X132.6818 Y-1.6173
G01 X132.5250 Y-1.6250
G01 X68.3500 Y-1.6250
G00 X68.3500 Y-1.6250
G01 F60.00
G01 Z-2.0000
G01 F120.00
G01 X132.5250 Y-1.6250
G01 X132.6818 Y-1.6173
G01 X132.8372 Y-1.5943
G01 X132.9895 Y-1.5561
G01 X133.1373 Y-1.5032
G01 X133.2792 Y-1.4361
G01 X133.4139 Y-1.3554
G01 X133.5400 Y-1.2618
G01 X133.6564 Y-1.1564
G01 X133.7618 Y-1.0400
G01 X133.8554 Y-0.9139
G01 X133.9361 Y-0.7792
G01 X134.0032 Y-0.6373
G01 X134.0561 Y-0.4895
G01 X134.0943 Y-0.3372
G01 X134.1173 Y-0.1818
G01 X134.1250 Y-0.0250
G01 X134.1250 Y31.3500
G00 X134.1250 Y31.3500
G01 F60.00
G01 Z-2.2000
G01 F120.00
G01 X134.1250 Y-0.0250
G01 X134.1173 Y-0.1818
G01 X134.0943 Y-0.3372
G01 X134.0561 Y-0.4895
G01 X134.0032 Y-0.6373
G01 X133.9361 Y-0.7792
G01 X133.8554 Y-0.9139
G01 X133.7618 Y-1.0400
G01 X133.6564 Y-1.1564
G01 X133.5400 Y-1.2618
G01 X133.4139 Y-1.3554
G01 X133.2792 Y-1.4361
G01 X133.1373 Y-1.5032
G01 X132.9895 Y-1.5561
G01 X132.8372 Y-1.5943
G01 X132.6818 Y-1.6173
G01 X132.5250 Y-1.6250
G01 X68.3500 Y-1.6250
G00 X68.3500 Y-1.6250
G01 F60.00
G01 Z-2.4000
G01 F120.00
G01 X132.5250 Y-1.6250
G01 X132.6818 Y-1.6173
G01 X132.8372 Y-1.5943
G01 X132.9895 Y-1.5561
G01 X133.1373 Y-1.5032
G01 X133.2792 Y-1.4361
G01 X133.4139 Y-1.3554
G01 X133.5400 Y-1.2618
G01 X133.6564 Y-1.1564
G01 X133.7618 Y-1.0400
G01 X133.8554 Y-0.9139
G01 X133.9361 Y-0.7792
G01 X134.0032 Y-0.6373
G01 X134.0561 Y-0.4895
G01 X134.0943 Y-0.3372
G01 X134.1173 Y-0.1818
G01 X134.1250 Y-0.0250
G01 X134.1250 Y31.3500
G00 Z2.0000
M05
G00 Z2.0000
G00 Z15.00


