(G-CODE GENERATED BY FLATCAM v8.994 - www.flatcam.org - Version Date: 2020/11/7)

(Name: qtkiln-F_Cu.gbr_iso_combined_cnc)
(Type: G-code from Geometry)
(Units: MM)

(Created on Monday, 28 April 2025 at 16:22)

(This preprocessor is the default preprocessor used by FlatCAM.)
(It is made to work with MACH3 compatible motion controllers.)

(TOOL DIAMETER: 0.26 mm)
(Feedrate_XY: 120.0 mm/min)
(Feedrate_Z: 60.0 mm/min)
(Feedrate rapids 1500.0 mm/min)

(Z_Cut: -0.08 mm)
(Z_Move: 2.0 mm)
(Z Start: None mm)
(Z End: 15.0 mm)
(X,Y End: None mm)
(Steps per circle: 64)
(Preprocessor Geometry: default)

(X range:   -0.3315 ...  132.8315  mm)
(Y range:   -0.3315 ...   66.8315  mm)

(Spindle Speed: 0.0 RPM)
G21
G90
G94

G01 F120.00

M5
G00 Z15.0000
G00 X0.0000 Y0.0000
T1
M6    
(MSG, Change to Tool Dia = 0.2600)
M0
G00 Z15.0000

M03
G01 F120.00
G00 X5.4800 Y13.5088
G01 F60.00
G01 Z-0.0800
G01 F120.00
G01 X5.4800 Y15.2120
G01 X5.4790 Y15.2247
G01 X5.4768 Y15.2373
G01 X5.4734 Y15.2496
G01 X5.4688 Y15.2615
G01 X5.4631 Y15.2729
G01 X5.4563 Y15.2837
G01 X5.4484 Y15.2937
G01 X5.4396 Y15.3030
G01 X5.4325 Y15.3093
G01 X5.4222 Y15.3169
G01 X5.4113 Y15.3235
G01 X5.3997 Y15.3289
G01 X5.3877 Y15.3332
G01 X5.3785 Y15.3357
G01 X5.3659 Y15.3379
G01 X5.3532 Y15.3388
G01 X3.6500 Y15.3388
G01 X3.6373 Y15.3382
G01 X3.6246 Y15.3363
G01 X3.6123 Y15.3332
G01 X3.6003 Y15.3289
G01 X3.5887 Y15.3235
G01 X3.5778 Y15.3169
G01 X3.5651 Y15.3073
G01 X3.5558 Y15.2985
G01 X3.5475 Y15.2888
G01 X3.5402 Y15.2784
G01 X3.5354 Y15.2701
G01 X3.5299 Y15.2586
G01 X3.5256 Y15.2466
G01 X3.5225 Y15.2342
G01 X3.5206 Y15.2216
G01 X3.5200 Y15.2120
G01 X3.5200 Y13.5088
G01 X3.5206 Y13.4961
G01 X3.5225 Y13.4835
G01 X3.5256 Y13.4711
G01 X3.5299 Y13.4591
G01 X3.5354 Y13.4476
G01 X3.5419 Y13.4366
G01 X3.5516 Y13.4239
G01 X3.5604 Y13.4147
G01 X3.5700 Y13.4064
G01 X3.5805 Y13.3990
G01 X3.5916 Y13.3927
G01 X3.6003 Y13.3887
G01 X3.6123 Y13.3844
G01 X3.6215 Y13.3820
G01 X3.6341 Y13.3798
G01 X3.6468 Y13.3789
G01 X5.3564 Y13.3790
G01 X5.3659 Y13.3798
G01 X5.3785 Y13.3820
G01 X5.3908 Y13.3854
G01 X5.4027 Y13.3900
G01 X5.4141 Y13.3957
G01 X5.4249 Y13.4026
G01 X5.4349 Y13.4104
G01 X5.4442 Y13.4192
G01 X5.4525 Y13.4289
G01 X5.4598 Y13.4393
G01 X5.4661 Y13.4504
G01 X5.4701 Y13.4591
G01 X5.4744 Y13.4711
G01 X5.4775 Y13.4835
G01 X5.4794 Y13.4961
G01 X5.4800 Y13.5088
G00 Z2.0000
G00 X4.0423 Y15.5728
G01 F60.00
G01 Z-0.0800
G01 F120.00
G01 X4.9577 Y15.5728
G01 X4.8056 Y15.7249
G01 X4.7543 Y15.7121
G01 X4.7368 Y15.7082
G01 X4.7192 Y15.7051
G01 X4.6279 Y15.6917
G01 X4.6012 Y15.6894
G01 X4.5179 Y15.6853
G01 X4.5000 Y15.6848
G01 X4.4821 Y15.6853
G01 X4.3988 Y15.6894
G01 X4.3721 Y15.6917
G01 X4.2707 Y15.7068
G01 X4.2457 Y15.7121
G01 X4.1944 Y15.7249
G01 X4.0423 Y15.5728
G00 Z2.0000
G00 X3.2795 Y15.2497
G01 F60.00
G01 Z-0.0800
G01 F120.00
G01 X3.2795 Y13.4679
G01 X3.2834 Y13.4315
G01 X3.3215 Y13.3295
G01 X3.3853 Y13.2442
G01 X3.4706 Y13.1803
G01 X3.5726 Y13.1423
G01 X3.6091 Y13.1383
G01 X5.3909 Y13.1383
G01 X5.4274 Y13.1423
G01 X5.5294 Y13.1803
G01 X5.6147 Y13.2442
G01 X5.6785 Y13.3294
G01 X5.7166 Y13.4315
G01 X5.7205 Y13.4679
G01 X5.7205 Y15.2497
G01 X5.7166 Y15.2862
G01 X5.6785 Y15.3882
G01 X5.6147 Y15.4735
G01 X5.5294 Y15.5374
G01 X5.4274 Y15.5754
G01 X5.3909 Y15.5793
G01 X5.3811 Y15.5795
G01 X5.3719 Y15.5803
G01 X5.3627 Y15.5817
G01 X5.3537 Y15.5838
G01 X5.2776 Y15.6062
G01 X5.2629 Y15.6124
G01 X5.2544 Y15.6169
G01 X5.2464 Y15.6221
G01 X5.2387 Y15.6278
G01 X5.2181 Y15.6444
G01 X5.2077 Y15.6537
G01 X4.8700 Y15.9915
G01 X4.7845 Y15.9610
G01 X4.6912 Y15.9377
G01 X4.5961 Y15.9236
G01 X4.5000 Y15.9188
G01 X4.4039 Y15.9236
G01 X4.3085 Y15.9377
G01 X4.2155 Y15.9610
G01 X4.1300 Y15.9915
G01 X3.7923 Y15.6537
G01 X3.7855 Y15.6474
G01 X3.7758 Y15.6398
G01 X3.7627 Y15.6316
G01 X3.7013 Y15.5981
G01 X3.6899 Y15.5925
G01 X3.6809 Y15.5891
G01 X3.6687 Y15.5856
G01 X3.6561 Y15.5833
G01 X3.6231 Y15.5798
G01 X3.6091 Y15.5793
G01 X3.5726 Y15.5754
G01 X3.4706 Y15.5374
G01 X3.3853 Y15.4735
G01 X3.3215 Y15.3882
G01 X3.2834 Y15.2862
G01 X3.2795 Y15.2497
G00 Z2.0000
G00 X3.3100 Y17.1845
G01 F60.00
G01 Z-0.0800
G01 F120.00
G01 X3.2800 Y16.9949
G01 X3.2800 Y16.8028
G01 X3.3100 Y16.6132
G01 X3.3694 Y16.4305
G01 X3.4115 Y16.3478
G01 X3.5926 Y16.5289
G01 X3.5622 Y16.6144
G01 X3.5388 Y16.7076
G01 X3.5247 Y16.8028
G01 X3.5200 Y16.8988
G01 X3.5247 Y16.9949
G01 X3.5389 Y17.0903
G01 X3.5622 Y17.1833
G01 X3.5926 Y17.2688
G01 X3.4115 Y17.4499
G01 X3.3694 Y17.3672
G01 X3.3100 Y17.1845
G00 Z2.0000
G00 X3.9489 Y17.9873
G01 F60.00
G01 Z-0.0800
G01 F120.00
G01 X4.1300 Y17.8062
G01 X4.2158 Y17.8367
G01 X4.3088 Y17.8600
G01 X4.4039 Y17.8741
G01 X4.5000 Y17.8788
G01 X4.5961 Y17.8741
G01 X4.6912 Y17.8600
G01 X4.7845 Y17.8366
G01 X4.8700 Y17.8062
G01 X5.0511 Y17.9873
G01 X4.9683 Y18.0295
G01 X4.7857 Y18.0888
G01 X4.5960 Y18.1188
G01 X4.4040 Y18.1188
G01 X4.2143 Y18.0888
G01 X4.0317 Y18.0295
G01 X3.9489 Y17.9873
G00 Z2.0000
G00 X5.4074 Y17.2688
G01 F60.00
G01 Z-0.0800
G01 F120.00
G01 X5.4379 Y17.1831
G01 X5.4612 Y17.0900
G01 X5.4753 Y16.9949
G01 X5.4800 Y16.8988
G01 X5.4753 Y16.8028
G01 X5.4611 Y16.7073
G01 X5.4378 Y16.6144
G01 X5.4074 Y16.5289
G01 X5.5885 Y16.3478
G01 X5.6306 Y16.4305
G01 X5.6900 Y16.6131
G01 X5.7200 Y16.8028
G01 X5.7200 Y16.9949
G01 X5.6900 Y17.1845
G01 X5.6306 Y17.3672
G01 X5.5885 Y17.4499
G01 X5.4074 Y17.2688
G00 Z2.0000
G00 X12.0195 Y16.5882
G01 F60.00
G01 Z-0.0800
G01 F120.00
G01 X12.0195 Y16.4118
G01 X12.0471 Y16.2376
G01 X12.1016 Y16.0699
G01 X12.1817 Y15.9127
G01 X12.2853 Y15.7700
G01 X12.4100 Y15.6453
G01 X12.5527 Y15.5417
G01 X12.7202 Y15.4563
G01 X12.7336 Y15.4485
G01 X12.7411 Y15.4431
G01 X12.7482 Y15.4371
G01 X12.8036 Y15.3848
G01 X12.8123 Y15.3752
G01 X12.8218 Y15.3622
G01 X12.8281 Y15.3510
G01 X12.8345 Y15.3361
G01 X12.8382 Y15.3238
G01 X12.8557 Y15.2528
G01 X12.8579 Y15.2401
G01 X12.8588 Y15.2272
G01 X12.8581 Y15.2111
G01 X12.8567 Y15.2015
G01 X12.8546 Y15.1920
G01 X12.8519 Y15.1828
G01 X12.8272 Y15.1108
G01 X12.8220 Y15.0994
G01 X12.8141 Y15.0859
G01 X12.8046 Y15.0736
G01 X12.7960 Y15.0645
G01 X12.7439 Y15.0192
G01 X12.7312 Y15.0100
G01 X12.7202 Y15.0037
G01 X12.5527 Y14.9183
G01 X12.4100 Y14.8147
G01 X12.2853 Y14.6900
G01 X12.1817 Y14.5473
G01 X12.1016 Y14.3901
G01 X12.0471 Y14.2224
G01 X12.0195 Y14.0482
G01 X12.0195 Y13.8718
G01 X12.0471 Y13.6976
G01 X12.1016 Y13.5299
G01 X12.1817 Y13.3727
G01 X12.2853 Y13.2300
G01 X12.4100 Y13.1053
G01 X12.5527 Y13.0017
G01 X12.7099 Y12.9216
G01 X12.8776 Y12.8671
G01 X13.0518 Y12.8395
G01 X13.2282 Y12.8395
G01 X13.4024 Y12.8671
G01 X13.5701 Y12.9216
G01 X13.7273 Y13.0017
G01 X13.8700 Y13.1053
G01 X13.9947 Y13.2300
G01 X14.0983 Y13.3727
G01 X14.1784 Y13.5299
G01 X14.2329 Y13.6976
G01 X14.2605 Y13.8718
G01 X14.2605 Y14.0482
G01 X14.2329 Y14.2224
G01 X14.1784 Y14.3901
G01 X14.0983 Y14.5473
G01 X13.9947 Y14.6900
G01 X13.8700 Y14.8147
G01 X13.7273 Y14.9183
G01 X13.5597 Y15.0037
G01 X13.5464 Y15.0115
G01 X13.5389 Y15.0170
G01 X13.5318 Y15.0229
G01 X13.4764 Y15.0752
G01 X13.4657 Y15.0873
G01 X13.4582 Y15.0978
G01 X13.4505 Y15.1119
G01 X13.4455 Y15.1239
G01 X13.4418 Y15.1362
G01 X13.4243 Y15.2072
G01 X13.4221 Y15.2199
G01 X13.4212 Y15.2360
G01 X13.4223 Y15.2521
G01 X13.4239 Y15.2617
G01 X13.4262 Y15.2711
G01 X13.4528 Y15.3492
G01 X13.4594 Y15.3634
G01 X13.4677 Y15.3766
G01 X13.4774 Y15.3888
G01 X13.4863 Y15.3976
G01 X13.5361 Y15.4408
G01 X13.5488 Y15.4500
G01 X13.5598 Y15.4563
G01 X13.7273 Y15.5417
G01 X13.8700 Y15.6453
G01 X13.9947 Y15.7700
G01 X14.0983 Y15.9127
G01 X14.1784 Y16.0699
G01 X14.2329 Y16.2376
G01 X14.2605 Y16.4118
G01 X14.2605 Y16.5882
G01 X14.2329 Y16.7624
G01 X14.1784 Y16.9301
G01 X14.0983 Y17.0873
G01 X13.9947 Y17.2300
G01 X13.8700 Y17.3547
G01 X13.7243 Y17.4605
G01 X13.7123 Y17.4703
G01 X13.7058 Y17.4769
G01 X13.6997 Y17.4839
G01 X13.6531 Y17.5442
G01 X13.6444 Y17.5578
G01 X13.6387 Y17.5694
G01 X13.6342 Y17.5815
G01 X13.6309 Y17.5939
G01 X13.6285 Y17.6099
G01 X13.6225 Y17.6795
G01 X13.6221 Y17.6924
G01 X13.6226 Y17.7021
G01 X13.6243 Y17.7149
G01 X13.6274 Y17.7274
G01 X13.6316 Y17.7396
G01 X13.6371 Y17.7513
G01 X13.6697 Y17.8131
G01 X13.6763 Y17.8242
G01 X13.6860 Y17.8371
G01 X13.6972 Y17.8486
G01 X13.7098 Y17.8587
G01 X13.7207 Y17.8656
G01 X13.7844 Y17.9015
G01 X13.7962 Y17.9071
G01 X13.8084 Y17.9114
G01 X13.8179 Y17.9138
G01 X13.8275 Y17.9155
G01 X13.8647 Y17.9197
G01 X13.8736 Y17.9200
G01 X13.9309 Y17.9200
G01 X13.9672 Y17.9239
G01 X14.0691 Y17.9619
G01 X14.1543 Y18.0257
G01 X14.2181 Y18.1109
G01 X14.2561 Y18.2128
G01 X14.2600 Y18.2491
G01 X14.2600 Y18.6600
G01 X14.0200 Y18.6600
G01 X14.0200 Y18.2900
G01 X14.0194 Y18.2773
G01 X14.0175 Y18.2646
G01 X14.0134 Y18.2492
G01 X14.0101 Y18.2403
G01 X14.0061 Y18.2316
G01 X13.9981 Y18.2178
G01 X13.9925 Y18.2100
G01 X13.9863 Y18.2027
G01 X13.9796 Y18.1958
G01 X13.9725 Y18.1895
G01 X13.9649 Y18.1837
G01 X13.9568 Y18.1785
G01 X13.9427 Y18.1712
G01 X13.9338 Y18.1676
G01 X13.9247 Y18.1647
G01 X13.9154 Y18.1625
G01 X13.9059 Y18.1610
G01 X13.8900 Y18.1600
G01 X12.3900 Y18.1600
G01 X12.3804 Y18.1604
G01 X12.3709 Y18.1614
G01 X12.3584 Y18.1639
G01 X12.3492 Y18.1666
G01 X12.3373 Y18.1712
G01 X12.3287 Y18.1754
G01 X12.3178 Y18.1819
G01 X12.3100 Y18.1875
G01 X12.3027 Y18.1937
G01 X12.2958 Y18.2004
G01 X12.2895 Y18.2075
G01 X12.2819 Y18.2178
G01 X12.2769 Y18.2259
G01 X12.2712 Y18.2373
G01 X12.2676 Y18.2462
G01 X12.2639 Y18.2584
G01 X12.2610 Y18.2741
G01 X12.2600 Y18.2900
G01 X12.2600 Y18.6600
G01 X12.0200 Y18.6600
G01 X12.0200 Y18.2491
G01 X12.0239 Y18.2128
G01 X12.0619 Y18.1109
G01 X12.1257 Y18.0257
G01 X12.2108 Y17.9619
G01 X12.3128 Y17.9239
G01 X12.3491 Y17.9200
G01 X12.4064 Y17.9200
G01 X12.4157 Y17.9197
G01 X12.4280 Y17.9182
G01 X12.4401 Y17.9156
G01 X12.5101 Y17.8950
G01 X12.5193 Y17.8920
G01 X12.5282 Y17.8882
G01 X12.5368 Y17.8838
G01 X12.5451 Y17.8788
G01 X12.5530 Y17.8732
G01 X12.5628 Y17.8648
G01 X12.5696 Y17.8579
G01 X12.6195 Y17.8002
G01 X12.6290 Y17.7871
G01 X12.6368 Y17.7730
G01 X12.6428 Y17.7580
G01 X12.6454 Y17.7487
G01 X12.6474 Y17.7392
G01 X12.6583 Y17.6637
G01 X12.6592 Y17.6475
G01 X12.6584 Y17.6347
G01 X12.6571 Y17.6251
G01 X12.6541 Y17.6125
G01 X12.6499 Y17.6003
G01 X12.6155 Y17.5250
G01 X12.6090 Y17.5137
G01 X12.5993 Y17.5007
G01 X12.5880 Y17.4890
G01 X12.5650 Y17.4679
G01 X12.5581 Y17.4623
G01 X12.4100 Y17.3547
G01 X12.2853 Y17.2300
G01 X12.1817 Y17.0873
G01 X12.1016 Y16.9301
G01 X12.0471 Y16.7624
G01 X12.0195 Y16.5882
G00 Z2.0000
G00 X12.8875 Y17.5842
G01 F60.00
G01 Z-0.0800
G01 F120.00
G01 X12.9139 Y17.5907
G01 X12.9315 Y17.5942
G01 X13.0219 Y17.6077
G01 X13.0486 Y17.6099
G01 X13.1221 Y17.6136
G01 X13.1400 Y17.6140
G01 X13.1579 Y17.6136
G01 X13.2314 Y17.6099
G01 X13.2581 Y17.6077
G01 X13.3485 Y17.5942
G01 X13.3661 Y17.5907
G01 X13.3960 Y17.5834
G01 X13.3894 Y17.6595
G01 X13.3881 Y17.6866
G01 X13.3883 Y17.7046
G01 X13.3895 Y17.7227
G01 X13.3915 Y17.7406
G01 X13.3944 Y17.7585
G01 X13.3982 Y17.7762
G01 X13.4029 Y17.7936
G01 X13.4085 Y17.8108
G01 X13.4149 Y17.8277
G01 X13.4260 Y17.8524
G01 X13.4647 Y17.9260
G01 X12.8176 Y17.9260
G01 X12.8314 Y17.9047
G01 X12.8403 Y17.8890
G01 X12.8484 Y17.8728
G01 X12.8557 Y17.8563
G01 X12.8622 Y17.8394
G01 X12.8678 Y17.8222
G01 X12.8726 Y17.8048
G01 X12.8765 Y17.7871
G01 X12.8795 Y17.7693
G01 X12.8895 Y17.7002
G01 X12.8916 Y17.6822
G01 X12.8928 Y17.6642
G01 X12.8932 Y17.6461
G01 X12.8926 Y17.6280
G01 X12.8911 Y17.6100
G01 X12.8875 Y17.5842
G00 Z2.0000
G00 X13.0601 Y15.6238
G01 F60.00
G01 Z-0.0800
G01 F120.00
G01 X13.1400 Y15.6200
G01 X13.2263 Y15.6242
G01 X13.3117 Y15.6369
G01 X13.3955 Y15.6579
G01 X13.4768 Y15.6870
G01 X13.5548 Y15.7239
G01 X13.6289 Y15.7683
G01 X13.6983 Y15.8198
G01 X13.7623 Y15.8777
G01 X13.8202 Y15.9417
G01 X13.8717 Y16.0111
G01 X13.9161 Y16.0852
G01 X13.9530 Y16.1632
G01 X13.9821 Y16.2445
G01 X14.0031 Y16.3283
G01 X14.0158 Y16.4142
G01 X14.0200 Y16.5000
G01 X14.0158 Y16.5863
G01 X14.0031 Y16.6717
G01 X13.9821 Y16.7555
G01 X13.9530 Y16.8368
G01 X13.9161 Y16.9148
G01 X13.8717 Y16.9889
G01 X13.8202 Y17.0583
G01 X13.7623 Y17.1223
G01 X13.6983 Y17.1802
G01 X13.6289 Y17.2317
G01 X13.5548 Y17.2761
G01 X13.4768 Y17.3130
G01 X13.3955 Y17.3421
G01 X13.3117 Y17.3631
G01 X13.2263 Y17.3758
G01 X13.1400 Y17.3800
G01 X13.0537 Y17.3758
G01 X12.9683 Y17.3631
G01 X12.8845 Y17.3421
G01 X12.8032 Y17.3130
G01 X12.7252 Y17.2761
G01 X12.6511 Y17.2317
G01 X12.5817 Y17.1802
G01 X12.5177 Y17.1223
G01 X12.4598 Y17.0583
G01 X12.4083 Y16.9889
G01 X12.3639 Y16.9148
G01 X12.3270 Y16.8368
G01 X12.2979 Y16.7555
G01 X12.2769 Y16.6717
G01 X12.2642 Y16.5863
G01 X12.2600 Y16.5000
G01 X12.2642 Y16.4137
G01 X12.2769 Y16.3283
G01 X12.2979 Y16.2445
G01 X12.3270 Y16.1632
G01 X12.3639 Y16.0852
G01 X12.4083 Y16.0111
G01 X12.4598 Y15.9417
G01 X12.5177 Y15.8777
G01 X12.5817 Y15.8198
G01 X12.6511 Y15.7683
G01 X12.7252 Y15.7239
G01 X12.8032 Y15.6870
G01 X12.8845 Y15.6579
G01 X12.9683 Y15.6369
G01 X13.0474 Y15.6250
G01 X13.0601 Y15.6238
G00 Z2.0000
G00 X13.0608 Y15.0705
G01 F60.00
G01 Z-0.0800
G01 F120.00
G01 X13.1221 Y15.0736
G01 X13.1400 Y15.0740
G01 X13.1579 Y15.0736
G01 X13.2171 Y15.0707
G01 X13.1979 Y15.1478
G01 X13.1923 Y15.1744
G01 X13.1898 Y15.1922
G01 X13.1881 Y15.2102
G01 X13.1872 Y15.2373
G01 X13.1878 Y15.2554
G01 X13.1892 Y15.2734
G01 X13.1915 Y15.2914
G01 X13.1948 Y15.3091
G01 X13.1989 Y15.3267
G01 X13.2038 Y15.3441
G01 X13.2192 Y15.3895
G01 X13.1579 Y15.3864
G01 X13.1400 Y15.3860
G01 X13.1221 Y15.3864
G01 X13.0629 Y15.3893
G01 X13.0821 Y15.3122
G01 X13.0877 Y15.2856
G01 X13.0902 Y15.2678
G01 X13.0919 Y15.2498
G01 X13.0928 Y15.2227
G01 X13.0922 Y15.2046
G01 X13.0908 Y15.1866
G01 X13.0885 Y15.1686
G01 X13.0852 Y15.1509
G01 X13.0811 Y15.1333
G01 X13.0762 Y15.1159
G01 X13.0608 Y15.0705
G00 Z2.0000
G00 X13.0601 Y13.0838
G01 F60.00
G01 Z-0.0800
G01 F120.00
G01 X13.1400 Y13.0800
G01 X13.2263 Y13.0842
G01 X13.3117 Y13.0969
G01 X13.3955 Y13.1179
G01 X13.4768 Y13.1470
G01 X13.5548 Y13.1839
G01 X13.6289 Y13.2283
G01 X13.6983 Y13.2798
G01 X13.7623 Y13.3377
G01 X13.8202 Y13.4017
G01 X13.8717 Y13.4711
G01 X13.9161 Y13.5452
G01 X13.9530 Y13.6232
G01 X13.9821 Y13.7045
G01 X14.0031 Y13.7883
G01 X14.0158 Y13.8742
G01 X14.0200 Y13.9600
G01 X14.0158 Y14.0463
G01 X14.0031 Y14.1317
G01 X13.9821 Y14.2155
G01 X13.9530 Y14.2968
G01 X13.9161 Y14.3748
G01 X13.8717 Y14.4489
G01 X13.8202 Y14.5183
G01 X13.7623 Y14.5823
G01 X13.6983 Y14.6402
G01 X13.6289 Y14.6917
G01 X13.5548 Y14.7361
G01 X13.4768 Y14.7730
G01 X13.3955 Y14.8021
G01 X13.3117 Y14.8231
G01 X13.2263 Y14.8358
G01 X13.1400 Y14.8400
G01 X13.0537 Y14.8358
G01 X12.9683 Y14.8231
G01 X12.8845 Y14.8021
G01 X12.8032 Y14.7730
G01 X12.7252 Y14.7361
G01 X12.6511 Y14.6917
G01 X12.5817 Y14.6402
G01 X12.5177 Y14.5823
G01 X12.4598 Y14.5183
G01 X12.4083 Y14.4489
G01 X12.3639 Y14.3748
G01 X12.3270 Y14.2968
G01 X12.2979 Y14.2155
G01 X12.2769 Y14.1317
G01 X12.2642 Y14.0463
G01 X12.2600 Y13.9600
G01 X12.2642 Y13.8737
G01 X12.2769 Y13.7883
G01 X12.2979 Y13.7045
G01 X12.3270 Y13.6232
G01 X12.3639 Y13.5452
G01 X12.4083 Y13.4711
G01 X12.4598 Y13.4017
G01 X12.5177 Y13.3377
G01 X12.5817 Y13.2798
G01 X12.6511 Y13.2283
G01 X12.7252 Y13.1839
G01 X12.8032 Y13.1470
G01 X12.8845 Y13.1179
G01 X12.9683 Y13.0969
G01 X13.0474 Y13.0850
G01 X13.0601 Y13.0838
G00 Z2.0000
G00 X17.0183 Y11.9431
G01 F60.00
G01 Z-0.0800
G01 F120.00
G01 X17.0183 Y11.7746
G01 X17.0446 Y11.6082
G01 X17.0967 Y11.4479
G01 X17.1732 Y11.2978
G01 X17.2722 Y11.1615
G01 X17.3914 Y11.0423
G01 X17.5277 Y10.9433
G01 X17.6778 Y10.8668
G01 X17.8381 Y10.8147
G01 X18.0045 Y10.7883
G01 X18.1730 Y10.7883
G01 X18.3394 Y10.8147
G01 X18.4997 Y10.8668
G01 X18.6498 Y10.9433
G01 X18.7861 Y11.0423
G01 X18.9053 Y11.1615
G01 X19.0043 Y11.2978
G01 X19.0808 Y11.4479
G01 X19.1329 Y11.6082
G01 X19.1593 Y11.7746
G01 X19.1593 Y11.9431
G01 X19.1329 Y12.1095
G01 X19.0808 Y12.2698
G01 X19.0043 Y12.4199
G01 X18.9053 Y12.5562
G01 X18.7861 Y12.6754
G01 X18.6498 Y12.7744
G01 X18.4997 Y12.8509
G01 X18.3394 Y12.9030
G01 X18.1730 Y12.9293
G01 X18.0045 Y12.9293
G01 X17.8381 Y12.9030
G01 X17.6778 Y12.8509
G01 X17.5277 Y12.7744
G01 X17.3914 Y12.6754
G01 X17.2722 Y12.5562
G01 X17.1732 Y12.4199
G01 X17.0967 Y12.2698
G01 X17.0446 Y12.1095
G01 X17.0183 Y11.9431
G00 Z2.0000
G00 X17.4432 Y12.3804
G01 F60.00
G01 Z-0.0800
G01 F120.00
G01 X17.3986 Y12.3200
G01 X17.3568 Y12.2501
G01 X17.3219 Y12.1765
G01 X17.2945 Y12.0998
G01 X17.2747 Y12.0208
G01 X17.2628 Y11.9402
G01 X17.2588 Y11.8588
G01 X17.2628 Y11.7775
G01 X17.2747 Y11.6969
G01 X17.2945 Y11.6179
G01 X17.3219 Y11.5412
G01 X17.3568 Y11.4676
G01 X17.3986 Y11.3977
G01 X17.4469 Y11.3326
G01 X17.5019 Y11.2719
G01 X17.5622 Y11.2172
G01 X17.6276 Y11.1687
G01 X17.6975 Y11.1268
G01 X17.7711 Y11.0920
G01 X17.8478 Y11.0646
G01 X17.9268 Y11.0448
G01 X18.0074 Y11.0328
G01 X18.0888 Y11.0288
G01 X18.1701 Y11.0328
G01 X18.2507 Y11.0448
G01 X18.3297 Y11.0646
G01 X18.4064 Y11.0920
G01 X18.4800 Y11.1268
G01 X18.5499 Y11.1687
G01 X18.6153 Y11.2172
G01 X18.6757 Y11.2719
G01 X18.7304 Y11.3323
G01 X18.7789 Y11.3977
G01 X18.8208 Y11.4676
G01 X18.8556 Y11.5412
G01 X18.8830 Y11.6179
G01 X18.9028 Y11.6969
G01 X18.9148 Y11.7775
G01 X18.9188 Y11.8588
G01 X18.9148 Y11.9402
G01 X18.9028 Y12.0208
G01 X18.8831 Y12.0995
G01 X18.8556 Y12.1765
G01 X18.8208 Y12.2501
G01 X18.7789 Y12.3200
G01 X18.7303 Y12.3855
G01 X18.6757 Y12.4457
G01 X18.6153 Y12.5004
G01 X18.5499 Y12.5490
G01 X18.4800 Y12.5908
G01 X18.4064 Y12.6257
G01 X18.3297 Y12.6531
G01 X18.2507 Y12.6729
G01 X18.1701 Y12.6848
G01 X18.0888 Y12.6888
G01 X18.0074 Y12.6848
G01 X17.9268 Y12.6729
G01 X17.8481 Y12.6532
G01 X17.7711 Y12.6257
G01 X17.6975 Y12.5908
G01 X17.6276 Y12.5490
G01 X17.5621 Y12.5003
G01 X17.5019 Y12.4457
G01 X17.4511 Y12.3900
G01 X17.4432 Y12.3804
G00 Z2.0000
G00 X19.0467 Y14.9962
G01 F60.00
G01 Z-0.0800
G01 F120.00
G01 X19.0548 Y14.9864
G01 X19.1053 Y14.9309
G01 X19.1655 Y14.8762
G01 X19.2311 Y14.8276
G01 X19.3009 Y14.7858
G01 X19.3746 Y14.7509
G01 X19.4513 Y14.7235
G01 X19.5303 Y14.7037
G01 X19.6108 Y14.6918
G01 X19.6922 Y14.6878
G01 X19.7735 Y14.6918
G01 X19.8541 Y14.7037
G01 X19.9331 Y14.7235
G01 X20.0098 Y14.7509
G01 X20.0835 Y14.7858
G01 X20.1533 Y14.8276
G01 X20.2187 Y14.8762
G01 X20.2791 Y14.9309
G01 X20.3337 Y14.9911
G01 X20.3823 Y15.0566
G01 X20.4242 Y15.1265
G01 X20.4590 Y15.2001
G01 X20.4865 Y15.2768
G01 X20.5062 Y15.3558
G01 X20.5182 Y15.4364
G01 X20.5222 Y15.5178
G01 X20.5182 Y15.5991
G01 X20.5062 Y15.6797
G01 X20.4865 Y15.7584
G01 X20.4590 Y15.8354
G01 X20.4242 Y15.9090
G01 X20.3823 Y15.9789
G01 X20.3338 Y16.0443
G01 X20.2791 Y16.1047
G01 X20.2187 Y16.1594
G01 X20.1533 Y16.2079
G01 X20.0835 Y16.2498
G01 X20.0098 Y16.2846
G01 X19.9331 Y16.3120
G01 X19.8541 Y16.3318
G01 X19.7735 Y16.3438
G01 X19.6922 Y16.3478
G01 X19.6108 Y16.3438
G01 X19.5303 Y16.3318
G01 X19.4515 Y16.3121
G01 X19.3746 Y16.2846
G01 X19.3009 Y16.2498
G01 X19.2311 Y16.2079
G01 X19.1660 Y16.1596
G01 X19.1053 Y16.1047
G01 X19.0506 Y16.0443
G01 X19.0021 Y15.9789
G01 X18.9602 Y15.9090
G01 X18.9254 Y15.8354
G01 X18.8979 Y15.7587
G01 X18.8781 Y15.6797
G01 X18.8662 Y15.5991
G01 X18.8622 Y15.5178
G01 X18.8662 Y15.4364
G01 X18.8781 Y15.3558
G01 X18.8979 Y15.2768
G01 X18.9254 Y15.2001
G01 X18.9602 Y15.1265
G01 X19.0021 Y15.0566
G01 X19.0467 Y14.9962
G00 Z2.0000
G00 X18.6217 Y15.6020
G01 F60.00
G01 Z-0.0800
G01 F120.00
G01 X18.6217 Y15.4335
G01 X18.6481 Y15.2671
G01 X18.7001 Y15.1068
G01 X18.7766 Y14.9567
G01 X18.8757 Y14.8204
G01 X18.9948 Y14.7012
G01 X19.1311 Y14.6022
G01 X19.2813 Y14.5257
G01 X19.4415 Y14.4736
G01 X19.6079 Y14.4473
G01 X19.7764 Y14.4473
G01 X19.9429 Y14.4736
G01 X20.1031 Y14.5257
G01 X20.2533 Y14.6022
G01 X20.3896 Y14.7012
G01 X20.5087 Y14.8204
G01 X20.6078 Y14.9567
G01 X20.6843 Y15.1068
G01 X20.7363 Y15.2671
G01 X20.7627 Y15.4335
G01 X20.7627 Y15.6020
G01 X20.7363 Y15.7684
G01 X20.6843 Y15.9287
G01 X20.6078 Y16.0788
G01 X20.5087 Y16.2151
G01 X20.3896 Y16.3343
G01 X20.2533 Y16.4333
G01 X20.1031 Y16.5098
G01 X19.9429 Y16.5619
G01 X19.7764 Y16.5883
G01 X19.6079 Y16.5883
G01 X19.4415 Y16.5619
G01 X19.2813 Y16.5098
G01 X19.1311 Y16.4333
G01 X18.9948 Y16.3343
G01 X18.8757 Y16.2152
G01 X18.7766 Y16.0788
G01 X18.7001 Y15.9287
G01 X18.6481 Y15.7684
G01 X18.6217 Y15.6020
G00 Z2.0000
G00 X19.0467 Y20.0762
G01 F60.00
G01 Z-0.0800
G01 F120.00
G01 X19.0548 Y20.0664
G01 X19.1053 Y20.0109
G01 X19.1655 Y19.9562
G01 X19.2311 Y19.9076
G01 X19.3009 Y19.8658
G01 X19.3746 Y19.8309
G01 X19.4513 Y19.8035
G01 X19.5303 Y19.7837
G01 X19.6108 Y19.7718
G01 X19.6922 Y19.7678
G01 X19.7735 Y19.7718
G01 X19.8541 Y19.7837
G01 X19.9331 Y19.8035
G01 X20.0098 Y19.8309
G01 X20.0835 Y19.8658
G01 X20.1533 Y19.9076
G01 X20.2187 Y19.9562
G01 X20.2791 Y20.0109
G01 X20.3337 Y20.0711
G01 X20.3823 Y20.1366
G01 X20.4242 Y20.2065
G01 X20.4590 Y20.2801
G01 X20.4865 Y20.3568
G01 X20.5062 Y20.4358
G01 X20.5182 Y20.5164
G01 X20.5222 Y20.5978
G01 X20.5182 Y20.6791
G01 X20.5062 Y20.7597
G01 X20.4865 Y20.8384
G01 X20.4590 Y20.9154
G01 X20.4242 Y20.9890
G01 X20.3823 Y21.0589
G01 X20.3338 Y21.1243
G01 X20.2791 Y21.1847
G01 X20.2187 Y21.2394
G01 X20.1533 Y21.2879
G01 X20.0835 Y21.3298
G01 X20.0098 Y21.3646
G01 X19.9331 Y21.3920
G01 X19.8541 Y21.4118
G01 X19.7735 Y21.4238
G01 X19.6922 Y21.4278
G01 X19.6108 Y21.4238
G01 X19.5303 Y21.4118
G01 X19.4515 Y21.3921
G01 X19.3746 Y21.3646
G01 X19.3009 Y21.3298
G01 X19.2311 Y21.2879
G01 X19.1660 Y21.2396
G01 X19.1053 Y21.1847
G01 X19.0506 Y21.1243
G01 X19.0021 Y21.0589
G01 X18.9602 Y20.9890
G01 X18.9254 Y20.9154
G01 X18.8979 Y20.8387
G01 X18.8781 Y20.7597
G01 X18.8662 Y20.6791
G01 X18.8622 Y20.5978
G01 X18.8662 Y20.5164
G01 X18.8781 Y20.4358
G01 X18.8979 Y20.3568
G01 X18.9254 Y20.2801
G01 X18.9602 Y20.2065
G01 X19.0021 Y20.1366
G01 X19.0467 Y20.0762
G00 Z2.0000
G00 X18.6217 Y20.6820
G01 F60.00
G01 Z-0.0800
G01 F120.00
G01 X18.6217 Y20.5135
G01 X18.6481 Y20.3471
G01 X18.7001 Y20.1868
G01 X18.7766 Y20.0367
G01 X18.8757 Y19.9004
G01 X18.9948 Y19.7812
G01 X19.1311 Y19.6822
G01 X19.2813 Y19.6057
G01 X19.4415 Y19.5536
G01 X19.6079 Y19.5273
G01 X19.7764 Y19.5273
G01 X19.9429 Y19.5536
G01 X20.1031 Y19.6057
G01 X20.2533 Y19.6822
G01 X20.3896 Y19.7812
G01 X20.5087 Y19.9004
G01 X20.6078 Y20.0367
G01 X20.6843 Y20.1868
G01 X20.7363 Y20.3471
G01 X20.7627 Y20.5135
G01 X20.7627 Y20.6820
G01 X20.7363 Y20.8484
G01 X20.6843 Y21.0087
G01 X20.6078 Y21.1588
G01 X20.5087 Y21.2951
G01 X20.3896 Y21.4143
G01 X20.2533 Y21.5133
G01 X20.1031 Y21.5898
G01 X19.9429 Y21.6419
G01 X19.7764 Y21.6683
G01 X19.6079 Y21.6683
G01 X19.4415 Y21.6419
G01 X19.2813 Y21.5898
G01 X19.1311 Y21.5133
G01 X18.9948 Y21.4143
G01 X18.8757 Y21.2952
G01 X18.7766 Y21.1588
G01 X18.7001 Y21.0087
G01 X18.6481 Y20.8484
G01 X18.6217 Y20.6820
G00 Z2.0000
G00 X13.5200 Y19.9200
G01 F60.00
G01 Z-0.0800
G01 F120.00
G01 X13.8964 Y19.9198
G01 X13.9059 Y19.9190
G01 X13.9154 Y19.9175
G01 X13.9308 Y19.9134
G01 X13.9397 Y19.9101
G01 X13.9484 Y19.9061
G01 X13.9622 Y19.8981
G01 X13.9725 Y19.8905
G01 X13.9842 Y19.8796
G01 X13.9925 Y19.8700
G01 X13.9998 Y19.8595
G01 X14.0061 Y19.8484
G01 X14.0124 Y19.8338
G01 X14.0168 Y19.8185
G01 X14.0190 Y19.8059
G01 X14.0200 Y19.7900
G01 X14.0200 Y19.4200
G01 X14.2600 Y19.4200
G01 X14.2600 Y19.8309
G01 X14.2561 Y19.8672
G01 X14.2181 Y19.9691
G01 X14.1543 Y20.0543
G01 X14.0691 Y20.1181
G01 X13.9672 Y20.1561
G01 X13.9309 Y20.1600
G01 X13.5200 Y20.1600
G01 X13.5200 Y19.9200
G00 Z2.0000
G00 X12.0619 Y19.9691
G01 F60.00
G01 Z-0.0800
G01 F120.00
G01 X12.0239 Y19.8672
G01 X12.0200 Y19.8309
G01 X12.0200 Y19.4200
G01 X12.2600 Y19.4200
G01 X12.2602 Y19.7964
G01 X12.2610 Y19.8059
G01 X12.2625 Y19.8154
G01 X12.2666 Y19.8308
G01 X12.2699 Y19.8397
G01 X12.2739 Y19.8484
G01 X12.2819 Y19.8622
G01 X12.2916 Y19.8749
G01 X12.3004 Y19.8842
G01 X12.3126 Y19.8944
G01 X12.3232 Y19.9015
G01 X12.3344 Y19.9075
G01 X12.3462 Y19.9124
G01 X12.3584 Y19.9161
G01 X12.3741 Y19.9190
G01 X12.3900 Y19.9200
G01 X12.7600 Y19.9200
G01 X12.7600 Y20.1600
G01 X12.3491 Y20.1600
G01 X12.3128 Y20.1561
G01 X12.2109 Y20.1181
G01 X12.1257 Y20.0543
G01 X12.0619 Y19.9691
G00 Z2.0000
G00 X15.7745 Y26.4785
G01 F60.00
G01 Z-0.0800
G01 F120.00
G01 X15.7826 Y26.4686
G01 X15.8331 Y26.4131
G01 X15.8934 Y26.3585
G01 X15.9589 Y26.3099
G01 X16.0287 Y26.2680
G01 X16.1024 Y26.2332
G01 X16.1791 Y26.2057
G01 X16.2581 Y26.1859
G01 X16.3386 Y26.1740
G01 X16.4200 Y26.1700
G01 X16.5014 Y26.1740
G01 X16.5819 Y26.1859
G01 X16.6609 Y26.2057
G01 X16.7376 Y26.2332
G01 X16.8113 Y26.2680
G01 X16.8811 Y26.3099
G01 X16.9465 Y26.3584
G01 X17.0069 Y26.4131
G01 X17.0616 Y26.4735
G01 X17.1101 Y26.5389
G01 X17.1520 Y26.6087
G01 X17.1868 Y26.6824
G01 X17.2143 Y26.7591
G01 X17.2341 Y26.8381
G01 X17.2460 Y26.9186
G01 X17.2500 Y27.0000
G01 X17.2460 Y27.0814
G01 X17.2341 Y27.1619
G01 X17.2143 Y27.2409
G01 X17.1868 Y27.3176
G01 X17.1520 Y27.3913
G01 X17.1101 Y27.4611
G01 X17.0615 Y27.5267
G01 X17.0069 Y27.5869
G01 X16.9465 Y27.6416
G01 X16.8811 Y27.6901
G01 X16.8113 Y27.7320
G01 X16.7376 Y27.7668
G01 X16.6609 Y27.7943
G01 X16.5819 Y27.8141
G01 X16.5014 Y27.8260
G01 X16.4200 Y27.8300
G01 X16.3386 Y27.8260
G01 X16.2581 Y27.8141
G01 X16.1793 Y27.7943
G01 X16.1024 Y27.7668
G01 X16.0287 Y27.7320
G01 X15.9589 Y27.6901
G01 X15.8938 Y27.6419
G01 X15.8331 Y27.5869
G01 X15.7784 Y27.5265
G01 X15.7299 Y27.4611
G01 X15.6880 Y27.3913
G01 X15.6532 Y27.3176
G01 X15.6257 Y27.2409
G01 X15.6059 Y27.1619
G01 X15.5940 Y27.0814
G01 X15.5900 Y27.0000
G01 X15.5940 Y26.9186
G01 X15.6059 Y26.8381
G01 X15.6257 Y26.7591
G01 X15.6532 Y26.6824
G01 X15.6880 Y26.6087
G01 X15.7299 Y26.5389
G01 X15.7745 Y26.4785
G00 Z2.0000
G00 X15.3495 Y27.0843
G01 F60.00
G01 Z-0.0800
G01 F120.00
G01 X15.3495 Y26.9157
G01 X15.3759 Y26.7493
G01 X15.4279 Y26.5891
G01 X15.5044 Y26.4389
G01 X15.6035 Y26.3026
G01 X15.7226 Y26.1835
G01 X15.8589 Y26.0844
G01 X16.0091 Y26.0079
G01 X16.1693 Y25.9559
G01 X16.3357 Y25.9295
G01 X16.5043 Y25.9295
G01 X16.6707 Y25.9559
G01 X16.8309 Y26.0079
G01 X16.9811 Y26.0844
G01 X17.1174 Y26.1835
G01 X17.2365 Y26.3026
G01 X17.3356 Y26.4389
G01 X17.4121 Y26.5891
G01 X17.4641 Y26.7493
G01 X17.4905 Y26.9157
G01 X17.4905 Y27.0843
G01 X17.4641 Y27.2507
G01 X17.4121 Y27.4109
G01 X17.3356 Y27.5611
G01 X17.2365 Y27.6974
G01 X17.1174 Y27.8165
G01 X16.9811 Y27.9156
G01 X16.8309 Y27.9921
G01 X16.6707 Y28.0441
G01 X16.5043 Y28.0705
G01 X16.3357 Y28.0705
G01 X16.1693 Y28.0441
G01 X16.0091 Y27.9921
G01 X15.8589 Y27.9156
G01 X15.7226 Y27.8165
G01 X15.6035 Y27.6974
G01 X15.5044 Y27.5611
G01 X15.4279 Y27.4109
G01 X15.3759 Y27.2507
G01 X15.3495 Y27.0843
G00 Z2.0000
G00 X13.0601 Y29.5838
G01 F60.00
G01 Z-0.0800
G01 F120.00
G01 X13.1400 Y29.5800
G01 X13.2263 Y29.5842
G01 X13.3117 Y29.5969
G01 X13.3955 Y29.6179
G01 X13.4768 Y29.6470
G01 X13.5548 Y29.6839
G01 X13.6289 Y29.7283
G01 X13.6983 Y29.7798
G01 X13.7623 Y29.8377
G01 X13.8202 Y29.9017
G01 X13.8717 Y29.9711
G01 X13.9161 Y30.0452
G01 X13.9530 Y30.1232
G01 X13.9821 Y30.2045
G01 X14.0031 Y30.2883
G01 X14.0158 Y30.3742
G01 X14.0200 Y30.4600
G01 X14.0158 Y30.5463
G01 X14.0031 Y30.6317
G01 X13.9821 Y30.7155
G01 X13.9530 Y30.7968
G01 X13.9161 Y30.8748
G01 X13.8717 Y30.9489
G01 X13.8202 Y31.0183
G01 X13.7623 Y31.0823
G01 X13.6983 Y31.1402
G01 X13.6289 Y31.1917
G01 X13.5548 Y31.2361
G01 X13.4768 Y31.2730
G01 X13.3955 Y31.3021
G01 X13.3117 Y31.3231
G01 X13.2263 Y31.3358
G01 X13.1400 Y31.3400
G01 X13.0537 Y31.3358
G01 X12.9683 Y31.3231
G01 X12.8845 Y31.3021
G01 X12.8032 Y31.2730
G01 X12.7252 Y31.2361
G01 X12.6511 Y31.1917
G01 X12.5817 Y31.1402
G01 X12.5177 Y31.0823
G01 X12.4598 Y31.0183
G01 X12.4083 Y30.9489
G01 X12.3639 Y30.8748
G01 X12.3270 Y30.7968
G01 X12.2979 Y30.7155
G01 X12.2769 Y30.6317
G01 X12.2642 Y30.5463
G01 X12.2600 Y30.4600
G01 X12.2642 Y30.3737
G01 X12.2769 Y30.2883
G01 X12.2979 Y30.2045
G01 X12.3270 Y30.1232
G01 X12.3639 Y30.0452
G01 X12.4083 Y29.9711
G01 X12.4598 Y29.9017
G01 X12.5177 Y29.8377
G01 X12.5817 Y29.7798
G01 X12.6511 Y29.7283
G01 X12.7252 Y29.6839
G01 X12.8032 Y29.6470
G01 X12.8845 Y29.6179
G01 X12.9683 Y29.5969
G01 X13.0474 Y29.5850
G01 X13.0601 Y29.5838
G00 Z2.0000
G00 X13.0608 Y31.5705
G01 F60.00
G01 Z-0.0800
G01 F120.00
G01 X13.1221 Y31.5736
G01 X13.1400 Y31.5740
G01 X13.1579 Y31.5736
G01 X13.2138 Y31.5708
G01 X13.2090 Y31.5855
G01 X13.2043 Y31.6029
G01 X13.1988 Y31.6295
G01 X13.1962 Y31.6474
G01 X13.1949 Y31.6610
G01 X13.1923 Y31.6744
G01 X13.1898 Y31.6923
G01 X13.1875 Y31.7193
G01 X13.1872 Y31.7373
G01 X13.1878 Y31.7554
G01 X13.1892 Y31.7734
G01 X13.1966 Y31.8252
G01 X13.2003 Y31.8429
G01 X13.2049 Y31.8604
G01 X13.2103 Y31.8776
G01 X13.2145 Y31.8892
G01 X13.1579 Y31.8864
G01 X13.1400 Y31.8860
G01 X13.1221 Y31.8864
G01 X13.0629 Y31.8893
G01 X13.0821 Y31.8122
G01 X13.0877 Y31.7856
G01 X13.0902 Y31.7678
G01 X13.0919 Y31.7498
G01 X13.0928 Y31.7227
G01 X13.0922 Y31.7046
G01 X13.0908 Y31.6866
G01 X13.0885 Y31.6686
G01 X13.0852 Y31.6509
G01 X13.0811 Y31.6333
G01 X13.0762 Y31.6159
G01 X13.0608 Y31.5705
G00 Z2.0000
G00 X12.2638 Y33.0799
G01 F60.00
G01 Z-0.0800
G01 F120.00
G01 X12.2600 Y33.0000
G01 X12.2642 Y32.9137
G01 X12.2769 Y32.8283
G01 X12.2979 Y32.7445
G01 X12.3270 Y32.6632
G01 X12.3639 Y32.5852
G01 X12.4083 Y32.5111
G01 X12.4598 Y32.4417
G01 X12.5177 Y32.3777
G01 X12.5817 Y32.3198
G01 X12.6511 Y32.2683
G01 X12.7252 Y32.2239
G01 X12.8032 Y32.1870
G01 X12.8845 Y32.1579
G01 X12.9683 Y32.1369
G01 X13.0542 Y32.1242
G01 X13.1400 Y32.1200
G01 X13.2263 Y32.1242
G01 X13.3117 Y32.1369
G01 X13.3955 Y32.1579
G01 X13.4768 Y32.1870
G01 X13.5548 Y32.2239
G01 X13.6289 Y32.2683
G01 X13.6983 Y32.3198
G01 X13.7623 Y32.3777
G01 X13.8202 Y32.4417
G01 X13.8717 Y32.5111
G01 X13.9161 Y32.5852
G01 X13.9530 Y32.6632
G01 X13.9821 Y32.7445
G01 X14.0031 Y32.8283
G01 X14.0158 Y32.9142
G01 X14.0200 Y33.0000
G01 X14.0158 Y33.0863
G01 X14.0031 Y33.1717
G01 X13.9821 Y33.2555
G01 X13.9530 Y33.3368
G01 X13.9161 Y33.4148
G01 X13.8717 Y33.4889
G01 X13.8202 Y33.5583
G01 X13.7623 Y33.6223
G01 X13.6983 Y33.6802
G01 X13.6289 Y33.7317
G01 X13.5548 Y33.7761
G01 X13.4768 Y33.8130
G01 X13.3955 Y33.8421
G01 X13.3117 Y33.8631
G01 X13.2263 Y33.8758
G01 X13.1400 Y33.8800
G01 X13.0537 Y33.8758
G01 X12.9683 Y33.8631
G01 X12.8845 Y33.8421
G01 X12.8032 Y33.8130
G01 X12.7252 Y33.7761
G01 X12.6511 Y33.7317
G01 X12.5817 Y33.6802
G01 X12.5177 Y33.6223
G01 X12.4598 Y33.5583
G01 X12.4083 Y33.4889
G01 X12.3639 Y33.4148
G01 X12.3270 Y33.3368
G01 X12.2979 Y33.2555
G01 X12.2769 Y33.1717
G01 X12.2650 Y33.0926
G01 X12.2638 Y33.0799
G00 Z2.0000
G00 X12.0195 Y33.0882
G01 F60.00
G01 Z-0.0800
G01 F120.00
G01 X12.0195 Y32.9118
G01 X12.0471 Y32.7376
G01 X12.1016 Y32.5699
G01 X12.1817 Y32.4127
G01 X12.2853 Y32.2700
G01 X12.4100 Y32.1453
G01 X12.5527 Y32.0417
G01 X12.7202 Y31.9563
G01 X12.7336 Y31.9485
G01 X12.7411 Y31.9431
G01 X12.7482 Y31.9371
G01 X12.8036 Y31.8848
G01 X12.8123 Y31.8752
G01 X12.8218 Y31.8622
G01 X12.8281 Y31.8510
G01 X12.8345 Y31.8361
G01 X12.8382 Y31.8238
G01 X12.8557 Y31.7528
G01 X12.8579 Y31.7401
G01 X12.8588 Y31.7272
G01 X12.8581 Y31.7111
G01 X12.8567 Y31.7015
G01 X12.8546 Y31.6920
G01 X12.8519 Y31.6828
G01 X12.8272 Y31.6108
G01 X12.8206 Y31.5966
G01 X12.8141 Y31.5859
G01 X12.8046 Y31.5736
G01 X12.7960 Y31.5645
G01 X12.7439 Y31.5192
G01 X12.7312 Y31.5100
G01 X12.7202 Y31.5037
G01 X12.5527 Y31.4183
G01 X12.4100 Y31.3147
G01 X12.2853 Y31.1900
G01 X12.1817 Y31.0473
G01 X12.1016 Y30.8901
G01 X12.0471 Y30.7224
G01 X12.0195 Y30.5482
G01 X12.0195 Y30.3718
G01 X12.0471 Y30.1976
G01 X12.1016 Y30.0299
G01 X12.1817 Y29.8727
G01 X12.2853 Y29.7300
G01 X12.4100 Y29.6053
G01 X12.5527 Y29.5017
G01 X12.7099 Y29.4216
G01 X12.8776 Y29.3671
G01 X13.0518 Y29.3395
G01 X13.2282 Y29.3395
G01 X13.4024 Y29.3671
G01 X13.5701 Y29.4216
G01 X13.7273 Y29.5017
G01 X13.8700 Y29.6053
G01 X13.9947 Y29.7300
G01 X14.0983 Y29.8727
G01 X14.1784 Y30.0299
G01 X14.2329 Y30.1976
G01 X14.2605 Y30.3718
G01 X14.2605 Y30.5482
G01 X14.2329 Y30.7224
G01 X14.1784 Y30.8901
G01 X14.0983 Y31.0473
G01 X13.9947 Y31.1900
G01 X13.8700 Y31.3147
G01 X13.7273 Y31.4183
G01 X13.5570 Y31.5051
G01 X13.5464 Y31.5115
G01 X13.5384 Y31.5174
G01 X13.5317 Y31.5210
G01 X13.5236 Y31.5263
G01 X13.5159 Y31.5321
G01 X13.5063 Y31.5407
G01 X13.4956 Y31.5528
G01 X13.4860 Y31.5661
G01 X13.4719 Y31.5799
G01 X13.4618 Y31.5925
G01 X13.4565 Y31.6006
G01 X13.4519 Y31.6090
G01 X13.4478 Y31.6179
G01 X13.4451 Y31.6250
G01 X13.4388 Y31.6375
G01 X13.4332 Y31.6527
G01 X13.4295 Y31.6684
G01 X13.4283 Y31.6780
G01 X13.4274 Y31.6944
G01 X13.4243 Y31.7072
G01 X13.4225 Y31.7167
G01 X13.4215 Y31.7264
G01 X13.4212 Y31.7360
G01 X13.4223 Y31.7521
G01 X13.4249 Y31.7660
G01 X13.4258 Y31.7768
G01 X13.4275 Y31.7863
G01 X13.4317 Y31.8019
G01 X13.4365 Y31.8139
G01 X13.4408 Y31.8225
G01 X13.4475 Y31.8339
G01 X13.4517 Y31.8463
G01 X13.4553 Y31.8550
G01 X13.4594 Y31.8634
G01 X13.4642 Y31.8714
G01 X13.4695 Y31.8791
G01 X13.4754 Y31.8864
G01 X13.4841 Y31.8956
G01 X13.4931 Y31.9068
G01 X13.5023 Y31.9162
G01 X13.5150 Y31.9264
G01 X13.5464 Y31.9485
G01 X13.5543 Y31.9534
G01 X13.7273 Y32.0417
G01 X13.8700 Y32.1453
G01 X13.9947 Y32.2700
G01 X14.0983 Y32.4127
G01 X14.1784 Y32.5699
G01 X14.2329 Y32.7376
G01 X14.2605 Y32.9118
G01 X14.2605 Y33.0882
G01 X14.2329 Y33.2624
G01 X14.1784 Y33.4301
G01 X14.0983 Y33.5873
G01 X13.9947 Y33.7300
G01 X13.8700 Y33.8547
G01 X13.7243 Y33.9605
G01 X13.7123 Y33.9703
G01 X13.7058 Y33.9769
G01 X13.6997 Y33.9839
G01 X13.6531 Y34.0442
G01 X13.6460 Y34.0550
G01 X13.6400 Y34.0664
G01 X13.6352 Y34.0784
G01 X13.6309 Y34.0939
G01 X13.6285 Y34.1099
G01 X13.6225 Y34.1795
G01 X13.6221 Y34.1924
G01 X13.6229 Y34.2053
G01 X13.6250 Y34.2180
G01 X13.6274 Y34.2274
G01 X13.6316 Y34.2396
G01 X13.6371 Y34.2513
G01 X13.6697 Y34.3131
G01 X13.6781 Y34.3269
G01 X13.6881 Y34.3395
G01 X13.6996 Y34.3508
G01 X13.7098 Y34.3587
G01 X13.7207 Y34.3656
G01 X13.7844 Y34.4015
G01 X13.7962 Y34.4071
G01 X13.8084 Y34.4114
G01 X13.8179 Y34.4138
G01 X13.8275 Y34.4155
G01 X13.8647 Y34.4197
G01 X13.8736 Y34.4200
G01 X13.9309 Y34.4200
G01 X13.9672 Y34.4239
G01 X14.0691 Y34.4619
G01 X14.1543 Y34.5257
G01 X14.2181 Y34.6109
G01 X14.2561 Y34.7128
G01 X14.2600 Y34.7491
G01 X14.2600 Y35.1600
G01 X14.0200 Y35.1600
G01 X14.0200 Y34.7900
G01 X14.0194 Y34.7773
G01 X14.0175 Y34.7646
G01 X14.0134 Y34.7492
G01 X14.0101 Y34.7403
G01 X14.0061 Y34.7316
G01 X13.9981 Y34.7178
G01 X13.9925 Y34.7100
G01 X13.9863 Y34.7027
G01 X13.9796 Y34.6958
G01 X13.9725 Y34.6895
G01 X13.9649 Y34.6837
G01 X13.9568 Y34.6785
G01 X13.9427 Y34.6712
G01 X13.9338 Y34.6676
G01 X13.9247 Y34.6647
G01 X13.9154 Y34.6625
G01 X13.9059 Y34.6610
G01 X13.8900 Y34.6600
G01 X12.3900 Y34.6600
G01 X12.3804 Y34.6604
G01 X12.3709 Y34.6614
G01 X12.3584 Y34.6639
G01 X12.3492 Y34.6666
G01 X12.3373 Y34.6712
G01 X12.3287 Y34.6754
G01 X12.3205 Y34.6802
G01 X12.3100 Y34.6875
G01 X12.3027 Y34.6937
G01 X12.2937 Y34.7027
G01 X12.2875 Y34.7100
G01 X12.2819 Y34.7178
G01 X12.2754 Y34.7287
G01 X12.2712 Y34.7373
G01 X12.2666 Y34.7492
G01 X12.2639 Y34.7584
G01 X12.2610 Y34.7741
G01 X12.2600 Y34.7900
G01 X12.2600 Y35.1600
G01 X12.0200 Y35.1600
G01 X12.0200 Y34.7491
G01 X12.0239 Y34.7128
G01 X12.0619 Y34.6109
G01 X12.1257 Y34.5257
G01 X12.2108 Y34.4619
G01 X12.3128 Y34.4239
G01 X12.3491 Y34.4200
G01 X12.4064 Y34.4200
G01 X12.4157 Y34.4197
G01 X12.4280 Y34.4182
G01 X12.4401 Y34.4156
G01 X12.5101 Y34.3950
G01 X12.5193 Y34.3920
G01 X12.5282 Y34.3882
G01 X12.5368 Y34.3838
G01 X12.5451 Y34.3788
G01 X12.5530 Y34.3732
G01 X12.5604 Y34.3670
G01 X12.5696 Y34.3579
G01 X12.6195 Y34.3002
G01 X12.6290 Y34.2871
G01 X12.6368 Y34.2730
G01 X12.6406 Y34.2641
G01 X12.6437 Y34.2549
G01 X12.6474 Y34.2392
G01 X12.6583 Y34.1637
G01 X12.6592 Y34.1475
G01 X12.6584 Y34.1347
G01 X12.6571 Y34.1251
G01 X12.6541 Y34.1125
G01 X12.6499 Y34.1003
G01 X12.6155 Y34.0250
G01 X12.6090 Y34.0137
G01 X12.5993 Y34.0007
G01 X12.5880 Y33.9890
G01 X12.5650 Y33.9679
G01 X12.5581 Y33.9623
G01 X12.4100 Y33.8547
G01 X12.2853 Y33.7300
G01 X12.1817 Y33.5873
G01 X12.1016 Y33.4301
G01 X12.0471 Y33.2624
G01 X12.0195 Y33.0882
G00 Z2.0000
G00 X12.8875 Y34.0842
G01 F60.00
G01 Z-0.0800
G01 F120.00
G01 X12.9139 Y34.0907
G01 X12.9315 Y34.0942
G01 X13.0219 Y34.1077
G01 X13.0486 Y34.1099
G01 X13.1221 Y34.1136
G01 X13.1400 Y34.1140
G01 X13.1579 Y34.1136
G01 X13.2314 Y34.1099
G01 X13.2581 Y34.1077
G01 X13.3485 Y34.0942
G01 X13.3661 Y34.0907
G01 X13.3960 Y34.0834
G01 X13.3894 Y34.1595
G01 X13.3881 Y34.1866
G01 X13.3883 Y34.2046
G01 X13.3895 Y34.2227
G01 X13.3915 Y34.2406
G01 X13.3944 Y34.2585
G01 X13.3982 Y34.2762
G01 X13.4029 Y34.2936
G01 X13.4085 Y34.3108
G01 X13.4149 Y34.3277
G01 X13.4260 Y34.3524
G01 X13.4647 Y34.4260
G01 X12.8176 Y34.4260
G01 X12.8314 Y34.4047
G01 X12.8403 Y34.3890
G01 X12.8484 Y34.3728
G01 X12.8557 Y34.3563
G01 X12.8622 Y34.3394
G01 X12.8678 Y34.3222
G01 X12.8726 Y34.3048
G01 X12.8765 Y34.2871
G01 X12.8795 Y34.2693
G01 X12.8895 Y34.2002
G01 X12.8916 Y34.1822
G01 X12.8928 Y34.1642
G01 X12.8932 Y34.1461
G01 X12.8926 Y34.1280
G01 X12.8911 Y34.1100
G01 X12.8875 Y34.0842
G00 Z2.0000
G00 X13.5200 Y36.4200
G01 F60.00
G01 Z-0.0800
G01 F120.00
G01 X13.8964 Y36.4198
G01 X13.9122 Y36.4181
G01 X13.9216 Y36.4161
G01 X13.9308 Y36.4134
G01 X13.9456 Y36.4075
G01 X13.9541 Y36.4031
G01 X13.9622 Y36.3981
G01 X13.9749 Y36.3884
G01 X13.9842 Y36.3796
G01 X13.9925 Y36.3700
G01 X14.0015 Y36.3568
G01 X14.0075 Y36.3456
G01 X14.0124 Y36.3338
G01 X14.0161 Y36.3216
G01 X14.0190 Y36.3059
G01 X14.0200 Y36.2900
G01 X14.0200 Y35.9200
G01 X14.2600 Y35.9200
G01 X14.2600 Y36.3309
G01 X14.2561 Y36.3672
G01 X14.2181 Y36.4691
G01 X14.1543 Y36.5543
G01 X14.0691 Y36.6181
G01 X13.9672 Y36.6561
G01 X13.9309 Y36.6600
G01 X13.5200 Y36.6600
G01 X13.5200 Y36.4200
G00 Z2.0000
G00 X12.0619 Y36.4691
G01 F60.00
G01 Z-0.0800
G01 F120.00
G01 X12.0239 Y36.3672
G01 X12.0200 Y36.3309
G01 X12.0200 Y35.9200
G01 X12.2600 Y35.9200
G01 X12.2602 Y36.2964
G01 X12.2619 Y36.3122
G01 X12.2639 Y36.3216
G01 X12.2666 Y36.3308
G01 X12.2699 Y36.3397
G01 X12.2739 Y36.3484
G01 X12.2819 Y36.3622
G01 X12.2916 Y36.3749
G01 X12.3004 Y36.3842
G01 X12.3100 Y36.3925
G01 X12.3232 Y36.4015
G01 X12.3344 Y36.4075
G01 X12.3492 Y36.4134
G01 X12.3615 Y36.4168
G01 X12.3741 Y36.4190
G01 X12.3900 Y36.4200
G01 X12.7600 Y36.4200
G01 X12.7600 Y36.6600
G01 X12.3491 Y36.6600
G01 X12.3128 Y36.6561
G01 X12.2109 Y36.6181
G01 X12.1257 Y36.5543
G01 X12.0619 Y36.4691
G00 Z2.0000
G00 X18.4295 Y36.8458
G01 F60.00
G01 Z-0.0800
G01 F120.00
G01 X18.4295 Y36.6773
G01 X18.4559 Y36.5109
G01 X18.5079 Y36.3506
G01 X18.5844 Y36.2005
G01 X18.6835 Y36.0642
G01 X18.8026 Y35.9450
G01 X18.9389 Y35.8460
G01 X19.0891 Y35.7695
G01 X19.2493 Y35.7174
G01 X19.4157 Y35.6910
G01 X19.5843 Y35.6910
G01 X19.7507 Y35.7174
G01 X19.9109 Y35.7695
G01 X20.0611 Y35.8460
G01 X20.1974 Y35.9450
G01 X20.3165 Y36.0642
G01 X20.4156 Y36.2005
G01 X20.4921 Y36.3506
G01 X20.5441 Y36.5109
G01 X20.5705 Y36.6773
G01 X20.5705 Y36.8458
G01 X20.5441 Y37.0122
G01 X20.4921 Y37.1725
G01 X20.4156 Y37.3226
G01 X20.3165 Y37.4589
G01 X20.1974 Y37.5781
G01 X20.0611 Y37.6771
G01 X19.9109 Y37.7536
G01 X19.7507 Y37.8057
G01 X19.5843 Y37.8320
G01 X19.4157 Y37.8320
G01 X19.2493 Y37.8057
G01 X19.0891 Y37.7536
G01 X18.9389 Y37.6771
G01 X18.8026 Y37.5781
G01 X18.6835 Y37.4589
G01 X18.5844 Y37.3226
G01 X18.5079 Y37.1725
G01 X18.4559 Y37.0122
G01 X18.4295 Y36.8458
G00 Z2.0000
G00 X18.8545 Y36.2400
G01 F60.00
G01 Z-0.0800
G01 F120.00
G01 X18.8626 Y36.2302
G01 X18.9131 Y36.1746
G01 X18.9734 Y36.1200
G01 X19.0389 Y36.0714
G01 X19.1087 Y36.0296
G01 X19.1824 Y35.9947
G01 X19.2591 Y35.9673
G01 X19.3381 Y35.9475
G01 X19.4186 Y35.9355
G01 X19.5000 Y35.9315
G01 X19.5814 Y35.9355
G01 X19.6619 Y35.9475
G01 X19.7409 Y35.9673
G01 X19.8176 Y35.9947
G01 X19.8913 Y36.0296
G01 X19.9611 Y36.0714
G01 X20.0265 Y36.1199
G01 X20.0869 Y36.1746
G01 X20.1415 Y36.2349
G01 X20.1901 Y36.3004
G01 X20.2320 Y36.3703
G01 X20.2668 Y36.4439
G01 X20.2943 Y36.5206
G01 X20.3141 Y36.5996
G01 X20.3260 Y36.6802
G01 X20.3300 Y36.7615
G01 X20.3260 Y36.8429
G01 X20.3141 Y36.9235
G01 X20.2943 Y37.0022
G01 X20.2668 Y37.0792
G01 X20.2320 Y37.1528
G01 X20.1901 Y37.2227
G01 X20.1416 Y37.2881
G01 X20.0869 Y37.3484
G01 X20.0265 Y37.4031
G01 X19.9611 Y37.4517
G01 X19.8913 Y37.4935
G01 X19.8176 Y37.5284
G01 X19.7409 Y37.5558
G01 X19.6619 Y37.5756
G01 X19.5814 Y37.5876
G01 X19.5000 Y37.5915
G01 X19.4186 Y37.5876
G01 X19.3381 Y37.5756
G01 X19.2593 Y37.5559
G01 X19.1824 Y37.5284
G01 X19.1087 Y37.4935
G01 X19.0389 Y37.4517
G01 X18.9738 Y37.4034
G01 X18.9131 Y37.3484
G01 X18.8584 Y37.2881
G01 X18.8099 Y37.2227
G01 X18.7680 Y37.1528
G01 X18.7332 Y37.0792
G01 X18.7057 Y37.0025
G01 X18.6859 Y36.9235
G01 X18.6740 Y36.8429
G01 X18.6700 Y36.7615
G01 X18.6740 Y36.6802
G01 X18.6859 Y36.5996
G01 X18.7057 Y36.5206
G01 X18.7332 Y36.4439
G01 X18.7680 Y36.3703
G01 X18.8099 Y36.3004
G01 X18.8545 Y36.2400
G00 Z2.0000
G00 X18.4295 Y31.7658
G01 F60.00
G01 Z-0.0800
G01 F120.00
G01 X18.4295 Y31.5973
G01 X18.4559 Y31.4309
G01 X18.5079 Y31.2706
G01 X18.5844 Y31.1205
G01 X18.6835 Y30.9842
G01 X18.8026 Y30.8650
G01 X18.9389 Y30.7660
G01 X19.0891 Y30.6895
G01 X19.2493 Y30.6374
G01 X19.4157 Y30.6110
G01 X19.5843 Y30.6110
G01 X19.7507 Y30.6374
G01 X19.9109 Y30.6895
G01 X20.0611 Y30.7660
G01 X20.1974 Y30.8650
G01 X20.3165 Y30.9842
G01 X20.4156 Y31.1205
G01 X20.4921 Y31.2706
G01 X20.5441 Y31.4309
G01 X20.5705 Y31.5973
G01 X20.5705 Y31.7658
G01 X20.5441 Y31.9322
G01 X20.4921 Y32.0925
G01 X20.4156 Y32.2426
G01 X20.3165 Y32.3789
G01 X20.1974 Y32.4981
G01 X20.0611 Y32.5971
G01 X19.9109 Y32.6736
G01 X19.7507 Y32.7257
G01 X19.5843 Y32.7520
G01 X19.4157 Y32.7520
G01 X19.2493 Y32.7257
G01 X19.0891 Y32.6736
G01 X18.9389 Y32.5971
G01 X18.8026 Y32.4981
G01 X18.6835 Y32.3789
G01 X18.6418 Y32.3216
G01 X18.5844 Y32.2426
G01 X18.5079 Y32.0925
G01 X18.4559 Y31.9322
G01 X18.4295 Y31.7658
G00 Z2.0000
G00 X18.8545 Y31.1600
G01 F60.00
G01 Z-0.0800
G01 F120.00
G01 X18.8626 Y31.1502
G01 X18.9131 Y31.0946
G01 X18.9734 Y31.0400
G01 X19.0389 Y30.9914
G01 X19.1087 Y30.9496
G01 X19.1824 Y30.9147
G01 X19.2591 Y30.8873
G01 X19.3381 Y30.8675
G01 X19.4186 Y30.8555
G01 X19.5000 Y30.8515
G01 X19.5814 Y30.8555
G01 X19.6619 Y30.8675
G01 X19.7409 Y30.8873
G01 X19.8176 Y30.9147
G01 X19.8913 Y30.9496
G01 X19.9611 Y30.9914
G01 X20.0265 Y31.0399
G01 X20.0869 Y31.0946
G01 X20.1415 Y31.1549
G01 X20.1901 Y31.2204
G01 X20.2320 Y31.2903
G01 X20.2668 Y31.3639
G01 X20.2943 Y31.4406
G01 X20.3141 Y31.5196
G01 X20.3260 Y31.6002
G01 X20.3300 Y31.6815
G01 X20.3260 Y31.7629
G01 X20.3141 Y31.8435
G01 X20.2943 Y31.9222
G01 X20.2668 Y31.9992
G01 X20.2320 Y32.0728
G01 X20.1901 Y32.1427
G01 X20.1416 Y32.2081
G01 X20.0869 Y32.2684
G01 X20.0265 Y32.3231
G01 X19.9611 Y32.3717
G01 X19.8913 Y32.4135
G01 X19.8176 Y32.4484
G01 X19.7409 Y32.4758
G01 X19.6619 Y32.4956
G01 X19.5814 Y32.5076
G01 X19.5000 Y32.5115
G01 X19.4186 Y32.5076
G01 X19.3381 Y32.4956
G01 X19.2593 Y32.4759
G01 X19.1824 Y32.4484
G01 X19.1087 Y32.4135
G01 X19.0389 Y32.3717
G01 X18.9738 Y32.3234
G01 X18.9131 Y32.2684
G01 X18.8584 Y32.2081
G01 X18.8099 Y32.1427
G01 X18.7680 Y32.0728
G01 X18.7332 Y31.9992
G01 X18.7057 Y31.9225
G01 X18.6859 Y31.8435
G01 X18.6740 Y31.7629
G01 X18.6700 Y31.6815
G01 X18.6740 Y31.6002
G01 X18.6859 Y31.5196
G01 X18.7057 Y31.4406
G01 X18.7332 Y31.3639
G01 X18.7680 Y31.2903
G01 X18.8099 Y31.2204
G01 X18.8545 Y31.1600
G00 Z2.0000
G00 X22.0106 Y31.8458
G01 F60.00
G01 Z-0.0800
G01 F120.00
G01 X22.0106 Y31.6773
G01 X22.0369 Y31.5109
G01 X22.0890 Y31.3506
G01 X22.1655 Y31.2005
G01 X22.2645 Y31.0642
G01 X22.3837 Y30.9450
G01 X22.5200 Y30.8460
G01 X22.6701 Y30.7695
G01 X22.8304 Y30.7174
G01 X22.9968 Y30.6910
G01 X23.1653 Y30.6910
G01 X23.3317 Y30.7174
G01 X23.4920 Y30.7695
G01 X23.6421 Y30.8460
G01 X23.7784 Y30.9450
G01 X23.8976 Y31.0642
G01 X23.9966 Y31.2005
G01 X24.0731 Y31.3506
G01 X24.1252 Y31.5109
G01 X24.1516 Y31.6773
G01 X24.1516 Y31.8458
G01 X24.1252 Y32.0122
G01 X24.0731 Y32.1725
G01 X23.9966 Y32.3226
G01 X23.8976 Y32.4589
G01 X23.7784 Y32.5781
G01 X23.6421 Y32.6771
G01 X23.4920 Y32.7536
G01 X23.3317 Y32.8057
G01 X23.1653 Y32.8320
G01 X22.9968 Y32.8320
G01 X22.8304 Y32.8057
G01 X22.6701 Y32.7536
G01 X22.5200 Y32.6771
G01 X22.3837 Y32.5781
G01 X22.2645 Y32.4589
G01 X22.1655 Y32.3226
G01 X22.0890 Y32.1725
G01 X22.0369 Y32.0122
G01 X22.0106 Y31.8458
G00 Z2.0000
G00 X22.4355 Y31.2400
G01 F60.00
G01 Z-0.0800
G01 F120.00
G01 X22.4436 Y31.2302
G01 X22.4942 Y31.1746
G01 X22.5544 Y31.1200
G01 X22.6199 Y31.0714
G01 X22.6898 Y31.0296
G01 X22.7634 Y30.9947
G01 X22.8401 Y30.9673
G01 X22.9191 Y30.9475
G01 X22.9997 Y30.9355
G01 X23.0811 Y30.9315
G01 X23.1624 Y30.9355
G01 X23.2430 Y30.9475
G01 X23.3220 Y30.9673
G01 X23.3987 Y30.9947
G01 X23.4723 Y31.0296
G01 X23.5422 Y31.0714
G01 X23.6076 Y31.1199
G01 X23.6680 Y31.1746
G01 X23.7227 Y31.2350
G01 X23.7712 Y31.3004
G01 X23.8131 Y31.3703
G01 X23.8479 Y31.4439
G01 X23.8753 Y31.5206
G01 X23.8951 Y31.5996
G01 X23.9071 Y31.6802
G01 X23.9111 Y31.7615
G01 X23.9071 Y31.8429
G01 X23.8951 Y31.9235
G01 X23.8754 Y32.0022
G01 X23.8479 Y32.0792
G01 X23.8131 Y32.1528
G01 X23.7712 Y32.2227
G01 X23.7226 Y32.2882
G01 X23.6680 Y32.3484
G01 X23.6076 Y32.4031
G01 X23.5422 Y32.4517
G01 X23.4723 Y32.4935
G01 X23.3987 Y32.5284
G01 X23.3220 Y32.5558
G01 X23.2430 Y32.5756
G01 X23.1624 Y32.5876
G01 X23.0811 Y32.5915
G01 X22.9997 Y32.5876
G01 X22.9191 Y32.5756
G01 X22.8404 Y32.5559
G01 X22.7634 Y32.5284
G01 X22.6898 Y32.4935
G01 X22.6199 Y32.4517
G01 X22.5549 Y32.4034
G01 X22.4942 Y32.3484
G01 X22.4395 Y32.2881
G01 X22.3909 Y32.2227
G01 X22.3491 Y32.1528
G01 X22.3142 Y32.0792
G01 X22.2868 Y32.0025
G01 X22.2670 Y31.9235
G01 X22.2551 Y31.8429
G01 X22.2511 Y31.7615
G01 X22.2551 Y31.6802
G01 X22.2670 Y31.5996
G01 X22.2868 Y31.5206
G01 X22.3142 Y31.4439
G01 X22.3491 Y31.3703
G01 X22.3909 Y31.3004
G01 X22.4355 Y31.2400
G00 Z2.0000
G00 X20.4295 Y27.0843
G01 F60.00
G01 Z-0.0800
G01 F120.00
G01 X20.4295 Y26.9157
G01 X20.4559 Y26.7493
G01 X20.5079 Y26.5891
G01 X20.5844 Y26.4389
G01 X20.6835 Y26.3026
G01 X20.8026 Y26.1835
G01 X20.9389 Y26.0844
G01 X21.0891 Y26.0079
G01 X21.2493 Y25.9559
G01 X21.4157 Y25.9295
G01 X21.5843 Y25.9295
G01 X21.7507 Y25.9559
G01 X21.9109 Y26.0079
G01 X22.0611 Y26.0844
G01 X22.1974 Y26.1835
G01 X22.3165 Y26.3026
G01 X22.4156 Y26.4389
G01 X22.4921 Y26.5891
G01 X22.5441 Y26.7493
G01 X22.5705 Y26.9157
G01 X22.5705 Y27.0843
G01 X22.5441 Y27.2507
G01 X22.4921 Y27.4109
G01 X22.4156 Y27.5611
G01 X22.3165 Y27.6974
G01 X22.1974 Y27.8165
G01 X22.0611 Y27.9156
G01 X21.9109 Y27.9921
G01 X21.7507 Y28.0441
G01 X21.5843 Y28.0705
G01 X21.4157 Y28.0705
G01 X21.2493 Y28.0441
G01 X21.0891 Y27.9921
G01 X20.9389 Y27.9156
G01 X20.8026 Y27.8165
G01 X20.6835 Y27.6974
G01 X20.5844 Y27.5611
G01 X20.5079 Y27.4109
G01 X20.4559 Y27.2507
G01 X20.4295 Y27.0843
G00 Z2.0000
G00 X20.8545 Y26.4785
G01 F60.00
G01 Z-0.0800
G01 F120.00
G01 X20.8626 Y26.4686
G01 X20.9131 Y26.4131
G01 X20.9734 Y26.3585
G01 X21.0389 Y26.3099
G01 X21.1087 Y26.2680
G01 X21.1824 Y26.2332
G01 X21.2591 Y26.2057
G01 X21.3381 Y26.1859
G01 X21.4186 Y26.1740
G01 X21.5000 Y26.1700
G01 X21.5814 Y26.1740
G01 X21.6619 Y26.1859
G01 X21.7409 Y26.2057
G01 X21.8176 Y26.2332
G01 X21.8913 Y26.2680
G01 X21.9611 Y26.3099
G01 X22.0265 Y26.3584
G01 X22.0869 Y26.4131
G01 X22.1416 Y26.4735
G01 X22.1901 Y26.5389
G01 X22.2320 Y26.6087
G01 X22.2668 Y26.6824
G01 X22.2943 Y26.7591
G01 X22.3141 Y26.8381
G01 X22.3260 Y26.9186
G01 X22.3300 Y27.0000
G01 X22.3260 Y27.0814
G01 X22.3141 Y27.1619
G01 X22.2943 Y27.2407
G01 X22.2668 Y27.3176
G01 X22.2320 Y27.3913
G01 X22.1901 Y27.4611
G01 X22.1415 Y27.5267
G01 X22.0869 Y27.5869
G01 X22.0265 Y27.6416
G01 X21.9611 Y27.6901
G01 X21.8913 Y27.7320
G01 X21.8176 Y27.7668
G01 X21.7409 Y27.7943
G01 X21.6619 Y27.8141
G01 X21.5814 Y27.8260
G01 X21.5000 Y27.8300
G01 X21.4186 Y27.8260
G01 X21.3381 Y27.8141
G01 X21.2593 Y27.7943
G01 X21.1824 Y27.7668
G01 X21.1087 Y27.7320
G01 X21.0389 Y27.6901
G01 X20.9738 Y27.6419
G01 X20.9131 Y27.5869
G01 X20.8584 Y27.5265
G01 X20.8099 Y27.4611
G01 X20.7680 Y27.3913
G01 X20.7332 Y27.3176
G01 X20.7057 Y27.2409
G01 X20.6859 Y27.1619
G01 X20.6740 Y27.0814
G01 X20.6700 Y27.0000
G01 X20.6740 Y26.9186
G01 X20.6859 Y26.8381
G01 X20.7057 Y26.7591
G01 X20.7332 Y26.6824
G01 X20.7680 Y26.6087
G01 X20.8099 Y26.5389
G01 X20.8545 Y26.4785
G00 Z2.0000
G00 X27.5155 Y31.2400
G01 F60.00
G01 Z-0.0800
G01 F120.00
G01 X27.5236 Y31.2302
G01 X27.5742 Y31.1746
G01 X27.6344 Y31.1200
G01 X27.6999 Y31.0714
G01 X27.7698 Y31.0296
G01 X27.8434 Y30.9947
G01 X27.9201 Y30.9673
G01 X27.9991 Y30.9475
G01 X28.0797 Y30.9355
G01 X28.1611 Y30.9315
G01 X28.2424 Y30.9355
G01 X28.3230 Y30.9475
G01 X28.4020 Y30.9673
G01 X28.4787 Y30.9947
G01 X28.5523 Y31.0296
G01 X28.6222 Y31.0714
G01 X28.6876 Y31.1199
G01 X28.7480 Y31.1746
G01 X28.8027 Y31.2350
G01 X28.8512 Y31.3004
G01 X28.8931 Y31.3703
G01 X28.9279 Y31.4439
G01 X28.9553 Y31.5206
G01 X28.9751 Y31.5996
G01 X28.9871 Y31.6802
G01 X28.9911 Y31.7615
G01 X28.9871 Y31.8429
G01 X28.9751 Y31.9235
G01 X28.9554 Y32.0022
G01 X28.9279 Y32.0792
G01 X28.8931 Y32.1528
G01 X28.8512 Y32.2227
G01 X28.8026 Y32.2882
G01 X28.7480 Y32.3484
G01 X28.6876 Y32.4031
G01 X28.6222 Y32.4517
G01 X28.5523 Y32.4935
G01 X28.4787 Y32.5284
G01 X28.4020 Y32.5558
G01 X28.3230 Y32.5756
G01 X28.2424 Y32.5876
G01 X28.1611 Y32.5915
G01 X28.0797 Y32.5876
G01 X27.9991 Y32.5756
G01 X27.9204 Y32.5559
G01 X27.8434 Y32.5284
G01 X27.7698 Y32.4935
G01 X27.6999 Y32.4517
G01 X27.6349 Y32.4034
G01 X27.5742 Y32.3484
G01 X27.5195 Y32.2881
G01 X27.4709 Y32.2227
G01 X27.4291 Y32.1528
G01 X27.3942 Y32.0792
G01 X27.3668 Y32.0025
G01 X27.3470 Y31.9235
G01 X27.3351 Y31.8429
G01 X27.3311 Y31.7615
G01 X27.3351 Y31.6802
G01 X27.3470 Y31.5996
G01 X27.3668 Y31.5206
G01 X27.3942 Y31.4439
G01 X27.4291 Y31.3703
G01 X27.4709 Y31.3004
G01 X27.5155 Y31.2400
G00 Z2.0000
G00 X27.0906 Y31.8458
G01 F60.00
G01 Z-0.0800
G01 F120.00
G01 X27.0906 Y31.6773
G01 X27.1169 Y31.5109
G01 X27.1690 Y31.3506
G01 X27.2455 Y31.2005
G01 X27.3445 Y31.0642
G01 X27.4637 Y30.9450
G01 X27.6000 Y30.8460
G01 X27.7501 Y30.7695
G01 X27.9104 Y30.7174
G01 X28.0768 Y30.6910
G01 X28.2453 Y30.6910
G01 X28.4117 Y30.7174
G01 X28.5720 Y30.7695
G01 X28.7221 Y30.8460
G01 X28.8584 Y30.9450
G01 X28.9776 Y31.0642
G01 X29.0766 Y31.2005
G01 X29.1531 Y31.3506
G01 X29.2052 Y31.5109
G01 X29.2316 Y31.6773
G01 X29.2316 Y31.8458
G01 X29.2052 Y32.0122
G01 X29.1531 Y32.1725
G01 X29.0766 Y32.3226
G01 X28.9776 Y32.4589
G01 X28.8584 Y32.5781
G01 X28.7221 Y32.6771
G01 X28.5720 Y32.7536
G01 X28.4117 Y32.8057
G01 X28.2453 Y32.8320
G01 X28.0768 Y32.8320
G01 X27.9104 Y32.8057
G01 X27.7501 Y32.7536
G01 X27.6000 Y32.6771
G01 X27.4637 Y32.5781
G01 X27.3445 Y32.4589
G01 X27.2455 Y32.3226
G01 X27.1690 Y32.1725
G01 X27.1169 Y32.0122
G01 X27.0906 Y31.8458
G00 Z2.0000
G00 X20.8545 Y42.4785
G01 F60.00
G01 Z-0.0800
G01 F120.00
G01 X20.8626 Y42.4686
G01 X20.9131 Y42.4131
G01 X20.9734 Y42.3585
G01 X21.0389 Y42.3099
G01 X21.1087 Y42.2680
G01 X21.1824 Y42.2332
G01 X21.2591 Y42.2057
G01 X21.3381 Y42.1859
G01 X21.4186 Y42.1740
G01 X21.5000 Y42.1700
G01 X21.5814 Y42.1740
G01 X21.6619 Y42.1859
G01 X21.7409 Y42.2057
G01 X21.8176 Y42.2332
G01 X21.8913 Y42.2680
G01 X21.9611 Y42.3099
G01 X22.0265 Y42.3584
G01 X22.0869 Y42.4131
G01 X22.1416 Y42.4735
G01 X22.1901 Y42.5389
G01 X22.2320 Y42.6087
G01 X22.2668 Y42.6824
G01 X22.2943 Y42.7591
G01 X22.3141 Y42.8381
G01 X22.3260 Y42.9186
G01 X22.3300 Y43.0000
G01 X22.3260 Y43.0814
G01 X22.3141 Y43.1619
G01 X22.2943 Y43.2407
G01 X22.2668 Y43.3176
G01 X22.2320 Y43.3913
G01 X22.1901 Y43.4611
G01 X22.1415 Y43.5267
G01 X22.0869 Y43.5869
G01 X22.0265 Y43.6416
G01 X21.9611 Y43.6901
G01 X21.8913 Y43.7320
G01 X21.8176 Y43.7668
G01 X21.7409 Y43.7943
G01 X21.6619 Y43.8141
G01 X21.5814 Y43.8260
G01 X21.5000 Y43.8300
G01 X21.4186 Y43.8260
G01 X21.3381 Y43.8141
G01 X21.2593 Y43.7943
G01 X21.1824 Y43.7668
G01 X21.1087 Y43.7320
G01 X21.0389 Y43.6901
G01 X20.9738 Y43.6419
G01 X20.9131 Y43.5869
G01 X20.8584 Y43.5265
G01 X20.8099 Y43.4611
G01 X20.7680 Y43.3913
G01 X20.7332 Y43.3176
G01 X20.7057 Y43.2409
G01 X20.6859 Y43.1619
G01 X20.6740 Y43.0814
G01 X20.6700 Y43.0000
G01 X20.6740 Y42.9186
G01 X20.6859 Y42.8381
G01 X20.7057 Y42.7591
G01 X20.7332 Y42.6824
G01 X20.7680 Y42.6087
G01 X20.8099 Y42.5389
G01 X20.8545 Y42.4785
G00 Z2.0000
G00 X20.4295 Y43.0843
G01 F60.00
G01 Z-0.0800
G01 F120.00
G01 X20.4295 Y42.9157
G01 X20.4559 Y42.7493
G01 X20.5079 Y42.5891
G01 X20.5755 Y42.4565
G01 X20.5844 Y42.4389
G01 X20.6835 Y42.3026
G01 X20.8026 Y42.1835
G01 X20.9389 Y42.0844
G01 X21.0891 Y42.0079
G01 X21.2493 Y41.9559
G01 X21.4157 Y41.9295
G01 X21.5843 Y41.9295
G01 X21.7507 Y41.9559
G01 X21.9109 Y42.0079
G01 X22.0611 Y42.0844
G01 X22.1974 Y42.1835
G01 X22.3165 Y42.3026
G01 X22.4156 Y42.4389
G01 X22.4921 Y42.5891
G01 X22.5441 Y42.7493
G01 X22.5705 Y42.9157
G01 X22.5705 Y43.0843
G01 X22.5441 Y43.2507
G01 X22.4921 Y43.4109
G01 X22.4156 Y43.5611
G01 X22.3165 Y43.6974
G01 X22.1974 Y43.8165
G01 X22.0611 Y43.9156
G01 X21.9109 Y43.9921
G01 X21.7507 Y44.0441
G01 X21.5843 Y44.0705
G01 X21.4157 Y44.0705
G01 X21.2493 Y44.0441
G01 X21.0891 Y43.9921
G01 X20.9389 Y43.9156
G01 X20.8026 Y43.8165
G01 X20.6835 Y43.6974
G01 X20.5844 Y43.5611
G01 X20.5079 Y43.4109
G01 X20.4559 Y43.2507
G01 X20.4295 Y43.0843
G00 Z2.0000
G00 X15.7745 Y42.4785
G01 F60.00
G01 Z-0.0800
G01 F120.00
G01 X15.7826 Y42.4686
G01 X15.8331 Y42.4131
G01 X15.8934 Y42.3585
G01 X15.9589 Y42.3099
G01 X16.0287 Y42.2680
G01 X16.1024 Y42.2332
G01 X16.1791 Y42.2057
G01 X16.2581 Y42.1859
G01 X16.3386 Y42.1740
G01 X16.4200 Y42.1700
G01 X16.5014 Y42.1740
G01 X16.5819 Y42.1859
G01 X16.6609 Y42.2057
G01 X16.7376 Y42.2332
G01 X16.8113 Y42.2680
G01 X16.8811 Y42.3099
G01 X16.9465 Y42.3584
G01 X17.0069 Y42.4131
G01 X17.0616 Y42.4735
G01 X17.1101 Y42.5389
G01 X17.1520 Y42.6087
G01 X17.1868 Y42.6824
G01 X17.2143 Y42.7591
G01 X17.2341 Y42.8381
G01 X17.2460 Y42.9186
G01 X17.2500 Y43.0000
G01 X17.2460 Y43.0814
G01 X17.2341 Y43.1619
G01 X17.2143 Y43.2409
G01 X17.1868 Y43.3176
G01 X17.1520 Y43.3913
G01 X17.1101 Y43.4611
G01 X17.0615 Y43.5267
G01 X17.0069 Y43.5869
G01 X16.9465 Y43.6416
G01 X16.8811 Y43.6901
G01 X16.8113 Y43.7320
G01 X16.7376 Y43.7668
G01 X16.6609 Y43.7943
G01 X16.5819 Y43.8141
G01 X16.5014 Y43.8260
G01 X16.4200 Y43.8300
G01 X16.3386 Y43.8260
G01 X16.2581 Y43.8141
G01 X16.1793 Y43.7943
G01 X16.1024 Y43.7668
G01 X16.0287 Y43.7320
G01 X15.9589 Y43.6901
G01 X15.8938 Y43.6419
G01 X15.8331 Y43.5869
G01 X15.7784 Y43.5265
G01 X15.7299 Y43.4611
G01 X15.6880 Y43.3913
G01 X15.6532 Y43.3176
G01 X15.6257 Y43.2409
G01 X15.6059 Y43.1619
G01 X15.5940 Y43.0814
G01 X15.5900 Y43.0000
G01 X15.5940 Y42.9186
G01 X15.6059 Y42.8381
G01 X15.6257 Y42.7591
G01 X15.6532 Y42.6824
G01 X15.6880 Y42.6087
G01 X15.7299 Y42.5389
G01 X15.7745 Y42.4785
G00 Z2.0000
G00 X15.3495 Y43.0843
G01 F60.00
G01 Z-0.0800
G01 F120.00
G01 X15.3495 Y42.9157
G01 X15.3759 Y42.7493
G01 X15.4279 Y42.5891
G01 X15.4955 Y42.4565
G01 X15.5044 Y42.4389
G01 X15.6035 Y42.3026
G01 X15.7226 Y42.1835
G01 X15.8589 Y42.0844
G01 X16.0091 Y42.0079
G01 X16.1693 Y41.9559
G01 X16.3357 Y41.9295
G01 X16.5043 Y41.9295
G01 X16.6707 Y41.9559
G01 X16.8309 Y42.0079
G01 X16.9811 Y42.0844
G01 X17.1174 Y42.1835
G01 X17.2365 Y42.3026
G01 X17.3356 Y42.4389
G01 X17.4121 Y42.5891
G01 X17.4641 Y42.7493
G01 X17.4905 Y42.9157
G01 X17.4905 Y43.0843
G01 X17.4641 Y43.2507
G01 X17.4121 Y43.4109
G01 X17.3356 Y43.5611
G01 X17.2365 Y43.6974
G01 X17.1174 Y43.8165
G01 X16.9811 Y43.9156
G01 X16.8309 Y43.9921
G01 X16.6707 Y44.0441
G01 X16.5043 Y44.0705
G01 X16.3357 Y44.0705
G01 X16.1693 Y44.0441
G01 X16.0091 Y43.9921
G01 X15.8589 Y43.9156
G01 X15.7226 Y43.8165
G01 X15.6035 Y43.6974
G01 X15.5044 Y43.5611
G01 X15.4279 Y43.4109
G01 X15.3759 Y43.2507
G01 X15.3495 Y43.0843
G00 Z2.0000
G00 X12.4201 Y46.0838
G01 F60.00
G01 Z-0.0800
G01 F120.00
G01 X12.5000 Y46.0800
G01 X12.5863 Y46.0842
G01 X12.6717 Y46.0969
G01 X12.7555 Y46.1179
G01 X12.8368 Y46.1470
G01 X12.9148 Y46.1839
G01 X12.9889 Y46.2283
G01 X13.0583 Y46.2798
G01 X13.1223 Y46.3377
G01 X13.1802 Y46.4017
G01 X13.2317 Y46.4711
G01 X13.2761 Y46.5452
G01 X13.3130 Y46.6232
G01 X13.3421 Y46.7045
G01 X13.3631 Y46.7883
G01 X13.3758 Y46.8742
G01 X13.3800 Y46.9600
G01 X13.3758 Y47.0463
G01 X13.3631 Y47.1317
G01 X13.3421 Y47.2155
G01 X13.3130 Y47.2968
G01 X13.2761 Y47.3748
G01 X13.2317 Y47.4489
G01 X13.1802 Y47.5183
G01 X13.1223 Y47.5823
G01 X13.0583 Y47.6402
G01 X12.9889 Y47.6917
G01 X12.9148 Y47.7361
G01 X12.8368 Y47.7730
G01 X12.7555 Y47.8021
G01 X12.6717 Y47.8231
G01 X12.5863 Y47.8358
G01 X12.5000 Y47.8400
G01 X12.4137 Y47.8358
G01 X12.3283 Y47.8231
G01 X12.2445 Y47.8021
G01 X12.1632 Y47.7730
G01 X12.0852 Y47.7361
G01 X12.0111 Y47.6917
G01 X11.9417 Y47.6402
G01 X11.8777 Y47.5823
G01 X11.8198 Y47.5183
G01 X11.7683 Y47.4489
G01 X11.7239 Y47.3748
G01 X11.6870 Y47.2968
G01 X11.6579 Y47.2155
G01 X11.6369 Y47.1317
G01 X11.6242 Y47.0463
G01 X11.6200 Y46.9600
G01 X11.6242 Y46.8737
G01 X11.6369 Y46.7883
G01 X11.6579 Y46.7045
G01 X11.6870 Y46.6232
G01 X11.7239 Y46.5452
G01 X11.7683 Y46.4711
G01 X11.8198 Y46.4017
G01 X11.8777 Y46.3377
G01 X11.9417 Y46.2798
G01 X12.0111 Y46.2283
G01 X12.0852 Y46.1839
G01 X12.1632 Y46.1470
G01 X12.2445 Y46.1179
G01 X12.3283 Y46.0969
G01 X12.4074 Y46.0850
G01 X12.4201 Y46.0838
G00 Z2.0000
G00 X12.4229 Y48.3893
G01 F60.00
G01 Z-0.0800
G01 F120.00
G01 X12.4421 Y48.3122
G01 X12.4477 Y48.2856
G01 X12.4512 Y48.2588
G01 X12.4525 Y48.2407
G01 X12.4528 Y48.2227
G01 X12.4522 Y48.2046
G01 X12.4508 Y48.1866
G01 X12.4485 Y48.1686
G01 X12.4452 Y48.1509
G01 X12.4411 Y48.1333
G01 X12.4362 Y48.1159
G01 X12.4208 Y48.0705
G01 X12.4821 Y48.0736
G01 X12.5000 Y48.0740
G01 X12.5179 Y48.0736
G01 X12.5771 Y48.0707
G01 X12.5579 Y48.1478
G01 X12.5523 Y48.1744
G01 X12.5488 Y48.2012
G01 X12.5475 Y48.2193
G01 X12.5472 Y48.2373
G01 X12.5478 Y48.2554
G01 X12.5492 Y48.2734
G01 X12.5515 Y48.2914
G01 X12.5548 Y48.3091
G01 X12.5589 Y48.3267
G01 X12.5638 Y48.3441
G01 X12.5792 Y48.3895
G01 X12.5179 Y48.3864
G01 X12.5000 Y48.3860
G01 X12.4821 Y48.3864
G01 X12.4229 Y48.3893
G00 Z2.0000
G00 X12.4201 Y48.6238
G01 F60.00
G01 Z-0.0800
G01 F120.00
G01 X12.5000 Y48.6200
G01 X12.5863 Y48.6242
G01 X12.6717 Y48.6369
G01 X12.7555 Y48.6579
G01 X12.8368 Y48.6870
G01 X12.9148 Y48.7239
G01 X12.9889 Y48.7683
G01 X13.0583 Y48.8198
G01 X13.1223 Y48.8777
G01 X13.1802 Y48.9417
G01 X13.2317 Y49.0111
G01 X13.2761 Y49.0852
G01 X13.3130 Y49.1632
G01 X13.3421 Y49.2445
G01 X13.3631 Y49.3283
G01 X13.3758 Y49.4142
G01 X13.3800 Y49.5000
G01 X13.3758 Y49.5863
G01 X13.3631 Y49.6717
G01 X13.3421 Y49.7555
G01 X13.3130 Y49.8368
G01 X13.2761 Y49.9148
G01 X13.2317 Y49.9889
G01 X13.1802 Y50.0583
G01 X13.1223 Y50.1223
G01 X13.0583 Y50.1802
G01 X12.9889 Y50.2317
G01 X12.9148 Y50.2761
G01 X12.8368 Y50.3130
G01 X12.7555 Y50.3421
G01 X12.6717 Y50.3631
G01 X12.5863 Y50.3758
G01 X12.5000 Y50.3800
G01 X12.4137 Y50.3758
G01 X12.3283 Y50.3631
G01 X12.2445 Y50.3421
G01 X12.1632 Y50.3130
G01 X12.0852 Y50.2761
G01 X12.0111 Y50.2317
G01 X11.9417 Y50.1802
G01 X11.8777 Y50.1223
G01 X11.8198 Y50.0583
G01 X11.7683 Y49.9889
G01 X11.7239 Y49.9148
G01 X11.6870 Y49.8368
G01 X11.6579 Y49.7555
G01 X11.6369 Y49.6717
G01 X11.6242 Y49.5863
G01 X11.6200 Y49.5000
G01 X11.6242 Y49.4137
G01 X11.6369 Y49.3283
G01 X11.6579 Y49.2445
G01 X11.6870 Y49.1632
G01 X11.7239 Y49.0852
G01 X11.7683 Y49.0111
G01 X11.8198 Y48.9417
G01 X11.8777 Y48.8777
G01 X11.9417 Y48.8198
G01 X12.0111 Y48.7683
G01 X12.0852 Y48.7239
G01 X12.1632 Y48.6870
G01 X12.2445 Y48.6579
G01 X12.3283 Y48.6369
G01 X12.4074 Y48.6250
G01 X12.4201 Y48.6238
G00 Z2.0000
G00 X11.3795 Y49.5882
G01 F60.00
G01 Z-0.0800
G01 F120.00
G01 X11.3795 Y49.4118
G01 X11.4071 Y49.2376
G01 X11.4616 Y49.0699
G01 X11.5417 Y48.9127
G01 X11.6453 Y48.7700
G01 X11.7700 Y48.6453
G01 X11.9127 Y48.5417
G01 X12.0802 Y48.4563
G01 X12.0936 Y48.4485
G01 X12.1011 Y48.4431
G01 X12.1082 Y48.4371
G01 X12.1636 Y48.3848
G01 X12.1743 Y48.3727
G01 X12.1818 Y48.3622
G01 X12.1881 Y48.3510
G01 X12.1945 Y48.3361
G01 X12.1982 Y48.3238
G01 X12.2157 Y48.2528
G01 X12.2179 Y48.2401
G01 X12.2188 Y48.2272
G01 X12.2181 Y48.2111
G01 X12.2167 Y48.2015
G01 X12.2146 Y48.1920
G01 X12.2119 Y48.1828
G01 X12.1872 Y48.1108
G01 X12.1806 Y48.0966
G01 X12.1741 Y48.0859
G01 X12.1666 Y48.0759
G01 X12.1560 Y48.0645
G01 X12.1039 Y48.0192
G01 X12.0912 Y48.0100
G01 X12.0802 Y48.0037
G01 X11.9127 Y47.9183
G01 X11.7700 Y47.8147
G01 X11.6453 Y47.6900
G01 X11.5417 Y47.5473
G01 X11.4616 Y47.3901
G01 X11.4071 Y47.2224
G01 X11.3795 Y47.0482
G01 X11.3795 Y46.8718
G01 X11.4071 Y46.6976
G01 X11.4616 Y46.5299
G01 X11.5417 Y46.3727
G01 X11.6453 Y46.2300
G01 X11.7700 Y46.1053
G01 X11.9127 Y46.0017
G01 X12.0699 Y45.9216
G01 X12.2376 Y45.8671
G01 X12.4118 Y45.8395
G01 X12.5882 Y45.8395
G01 X12.7624 Y45.8671
G01 X12.9301 Y45.9216
G01 X13.0873 Y46.0017
G01 X13.2300 Y46.1053
G01 X13.3547 Y46.2300
G01 X13.4583 Y46.3727
G01 X13.5384 Y46.5299
G01 X13.5929 Y46.6976
G01 X13.6205 Y46.8718
G01 X13.6205 Y47.0482
G01 X13.5929 Y47.2224
G01 X13.5384 Y47.3901
G01 X13.4583 Y47.5473
G01 X13.3547 Y47.6900
G01 X13.2300 Y47.8147
G01 X13.0873 Y47.9183
G01 X12.9197 Y48.0037
G01 X12.9064 Y48.0115
G01 X12.8989 Y48.0170
G01 X12.8918 Y48.0229
G01 X12.8364 Y48.0752
G01 X12.8277 Y48.0848
G01 X12.8182 Y48.0978
G01 X12.8105 Y48.1119
G01 X12.8055 Y48.1239
G01 X12.8018 Y48.1362
G01 X12.7843 Y48.2072
G01 X12.7821 Y48.2199
G01 X12.7812 Y48.2360
G01 X12.7816 Y48.2457
G01 X12.7827 Y48.2553
G01 X12.7862 Y48.2711
G01 X12.8128 Y48.3492
G01 X12.8180 Y48.3606
G01 X12.8259 Y48.3741
G01 X12.8354 Y48.3864
G01 X12.8463 Y48.3976
G01 X12.8961 Y48.4408
G01 X12.9088 Y48.4500
G01 X12.9198 Y48.4563
G01 X13.0873 Y48.5417
G01 X13.2300 Y48.6453
G01 X13.3547 Y48.7700
G01 X13.4583 Y48.9127
G01 X13.5384 Y49.0699
G01 X13.5929 Y49.2376
G01 X13.6205 Y49.4118
G01 X13.6205 Y49.5882
G01 X13.5929 Y49.7624
G01 X13.5384 Y49.9301
G01 X13.4583 Y50.0873
G01 X13.3547 Y50.2300
G01 X13.2300 Y50.3547
G01 X13.0843 Y50.4605
G01 X13.0723 Y50.4703
G01 X13.0658 Y50.4769
G01 X13.0597 Y50.4839
G01 X13.0131 Y50.5442
G01 X13.0060 Y50.5550
G01 X12.9987 Y50.5694
G01 X12.9942 Y50.5815
G01 X12.9909 Y50.5939
G01 X12.9885 Y50.6099
G01 X12.9825 Y50.6795
G01 X12.9821 Y50.6924
G01 X12.9826 Y50.7021
G01 X12.9843 Y50.7149
G01 X12.9874 Y50.7274
G01 X12.9916 Y50.7396
G01 X12.9971 Y50.7513
G01 X13.0297 Y50.8131
G01 X13.0381 Y50.8269
G01 X13.0460 Y50.8371
G01 X13.0572 Y50.8486
G01 X13.0698 Y50.8587
G01 X13.0807 Y50.8656
G01 X13.1444 Y50.9015
G01 X13.1562 Y50.9071
G01 X13.1684 Y50.9114
G01 X13.1779 Y50.9138
G01 X13.1875 Y50.9155
G01 X13.2247 Y50.9197
G01 X13.2336 Y50.9200
G01 X13.2909 Y50.9200
G01 X13.3272 Y50.9239
G01 X13.4291 Y50.9619
G01 X13.5143 Y51.0257
G01 X13.5781 Y51.1109
G01 X13.6161 Y51.2128
G01 X13.6200 Y51.2491
G01 X13.6200 Y51.6600
G01 X13.3800 Y51.6600
G01 X13.3800 Y51.2900
G01 X13.3794 Y51.2773
G01 X13.3775 Y51.2646
G01 X13.3734 Y51.2492
G01 X13.3701 Y51.2403
G01 X13.3661 Y51.2316
G01 X13.3581 Y51.2178
G01 X13.3525 Y51.2100
G01 X13.3463 Y51.2027
G01 X13.3396 Y51.1958
G01 X13.3325 Y51.1895
G01 X13.3249 Y51.1837
G01 X13.3168 Y51.1785
G01 X13.3027 Y51.1712
G01 X13.2938 Y51.1676
G01 X13.2847 Y51.1647
G01 X13.2754 Y51.1625
G01 X13.2659 Y51.1610
G01 X13.2500 Y51.1600
G01 X11.7500 Y51.1600
G01 X11.7404 Y51.1604
G01 X11.7309 Y51.1614
G01 X11.7184 Y51.1639
G01 X11.7092 Y51.1666
G01 X11.6973 Y51.1712
G01 X11.6887 Y51.1754
G01 X11.6805 Y51.1802
G01 X11.6700 Y51.1875
G01 X11.6627 Y51.1937
G01 X11.6537 Y51.2027
G01 X11.6475 Y51.2100
G01 X11.6419 Y51.2178
G01 X11.6354 Y51.2287
G01 X11.6312 Y51.2373
G01 X11.6266 Y51.2492
G01 X11.6239 Y51.2584
G01 X11.6210 Y51.2741
G01 X11.6200 Y51.2900
G01 X11.6200 Y51.6600
G01 X11.3800 Y51.6600
G01 X11.3800 Y51.2491
G01 X11.3839 Y51.2128
G01 X11.4219 Y51.1109
G01 X11.4857 Y51.0257
G01 X11.5708 Y50.9619
G01 X11.6728 Y50.9239
G01 X11.7091 Y50.9200
G01 X11.7664 Y50.9200
G01 X11.7757 Y50.9197
G01 X11.7880 Y50.9182
G01 X11.8001 Y50.9156
G01 X11.8701 Y50.8950
G01 X11.8793 Y50.8920
G01 X11.8882 Y50.8882
G01 X11.8968 Y50.8838
G01 X11.9051 Y50.8788
G01 X11.9130 Y50.8732
G01 X11.9228 Y50.8648
G01 X11.9296 Y50.8579
G01 X11.9795 Y50.8002
G01 X11.9890 Y50.7871
G01 X11.9968 Y50.7730
G01 X12.0028 Y50.7580
G01 X12.0054 Y50.7487
G01 X12.0074 Y50.7392
G01 X12.0183 Y50.6637
G01 X12.0192 Y50.6475
G01 X12.0187 Y50.6379
G01 X12.0171 Y50.6251
G01 X12.0141 Y50.6125
G01 X12.0099 Y50.6003
G01 X11.9755 Y50.5250
G01 X11.9690 Y50.5137
G01 X11.9593 Y50.5007
G01 X11.9480 Y50.4890
G01 X11.9250 Y50.4679
G01 X11.9181 Y50.4623
G01 X11.7700 Y50.3547
G01 X11.6453 Y50.2300
G01 X11.5417 Y50.0873
G01 X11.4616 Y49.9301
G01 X11.4071 Y49.7624
G01 X11.3795 Y49.5882
G00 Z2.0000
G00 X12.7560 Y50.5834
G01 F60.00
G01 Z-0.0800
G01 F120.00
G01 X12.7494 Y50.6595
G01 X12.7481 Y50.6866
G01 X12.7483 Y50.7046
G01 X12.7495 Y50.7227
G01 X12.7515 Y50.7406
G01 X12.7544 Y50.7585
G01 X12.7582 Y50.7762
G01 X12.7629 Y50.7936
G01 X12.7685 Y50.8108
G01 X12.7749 Y50.8277
G01 X12.7860 Y50.8524
G01 X12.8247 Y50.9260
G01 X12.1776 Y50.9260
G01 X12.1914 Y50.9047
G01 X12.2003 Y50.8890
G01 X12.2084 Y50.8728
G01 X12.2157 Y50.8563
G01 X12.2222 Y50.8394
G01 X12.2278 Y50.8222
G01 X12.2326 Y50.8048
G01 X12.2365 Y50.7871
G01 X12.2395 Y50.7693
G01 X12.2495 Y50.7002
G01 X12.2516 Y50.6822
G01 X12.2528 Y50.6642
G01 X12.2532 Y50.6461
G01 X12.2526 Y50.6280
G01 X12.2511 Y50.6100
G01 X12.2475 Y50.5842
G01 X12.2739 Y50.5907
G01 X12.2915 Y50.5942
G01 X12.3819 Y50.6077
G01 X12.4086 Y50.6099
G01 X12.4821 Y50.6136
G01 X12.5000 Y50.6140
G01 X12.5179 Y50.6136
G01 X12.5914 Y50.6099
G01 X12.6181 Y50.6077
G01 X12.7085 Y50.5942
G01 X12.7261 Y50.5907
G01 X12.7560 Y50.5834
G00 Z2.0000
G00 X12.8800 Y52.9200
G01 F60.00
G01 Z-0.0800
G01 F120.00
G01 X13.2564 Y52.9198
G01 X13.2722 Y52.9181
G01 X13.2816 Y52.9161
G01 X13.2908 Y52.9134
G01 X13.3056 Y52.9075
G01 X13.3141 Y52.9031
G01 X13.3222 Y52.8981
G01 X13.3349 Y52.8884
G01 X13.3442 Y52.8796
G01 X13.3525 Y52.8700
G01 X13.3615 Y52.8568
G01 X13.3675 Y52.8456
G01 X13.3724 Y52.8338
G01 X13.3761 Y52.8216
G01 X13.3790 Y52.8059
G01 X13.3800 Y52.7900
G01 X13.3800 Y52.4200
G01 X13.6200 Y52.4200
G01 X13.6200 Y52.8309
G01 X13.6161 Y52.8672
G01 X13.5781 Y52.9691
G01 X13.5143 Y53.0543
G01 X13.4291 Y53.1181
G01 X13.3272 Y53.1561
G01 X13.2909 Y53.1600
G01 X12.8800 Y53.1600
G01 X12.8800 Y52.9200
G00 Z2.0000
G00 X11.4219 Y52.9691
G01 F60.00
G01 Z-0.0800
G01 F120.00
G01 X11.3839 Y52.8672
G01 X11.3800 Y52.8309
G01 X11.3800 Y52.4200
G01 X11.6200 Y52.4200
G01 X11.6202 Y52.7964
G01 X11.6219 Y52.8122
G01 X11.6239 Y52.8216
G01 X11.6266 Y52.8308
G01 X11.6299 Y52.8397
G01 X11.6339 Y52.8484
G01 X11.6419 Y52.8622
G01 X11.6516 Y52.8749
G01 X11.6604 Y52.8842
G01 X11.6700 Y52.8925
G01 X11.6832 Y52.9015
G01 X11.6944 Y52.9075
G01 X11.7092 Y52.9134
G01 X11.7215 Y52.9168
G01 X11.7341 Y52.9190
G01 X11.7500 Y52.9200
G01 X12.1200 Y52.9200
G01 X12.1200 Y53.1600
G01 X11.7091 Y53.1600
G01 X11.6728 Y53.1561
G01 X11.5709 Y53.1181
G01 X11.4857 Y53.0543
G01 X11.4219 Y52.9691
G00 Z2.0000
G00 X17.9295 Y53.1643
G01 F60.00
G01 Z-0.0800
G01 F120.00
G01 X17.9295 Y52.9957
G01 X17.9559 Y52.8293
G01 X18.0079 Y52.6691
G01 X18.0844 Y52.5189
G01 X18.1835 Y52.3826
G01 X18.3026 Y52.2635
G01 X18.4389 Y52.1644
G01 X18.5891 Y52.0879
G01 X18.7493 Y52.0359
G01 X18.9157 Y52.0095
G01 X19.0843 Y52.0095
G01 X19.2507 Y52.0359
G01 X19.4109 Y52.0879
G01 X19.5611 Y52.1644
G01 X19.6974 Y52.2635
G01 X19.8165 Y52.3826
G01 X19.9156 Y52.5189
G01 X19.9921 Y52.6691
G01 X20.0440 Y52.8290
G01 X20.0705 Y52.9957
G01 X20.0705 Y53.1643
G01 X20.0441 Y53.3307
G01 X19.9921 Y53.4909
G01 X19.9156 Y53.6411
G01 X19.8165 Y53.7774
G01 X19.6974 Y53.8965
G01 X19.5611 Y53.9956
G01 X19.4109 Y54.0721
G01 X19.2507 Y54.1241
G01 X19.0843 Y54.1505
G01 X18.9157 Y54.1505
G01 X18.7493 Y54.1241
G01 X18.5891 Y54.0721
G01 X18.4389 Y53.9956
G01 X18.3026 Y53.8965
G01 X18.1835 Y53.7774
G01 X18.0844 Y53.6411
G01 X18.0079 Y53.4909
G01 X17.9559 Y53.3307
G01 X17.9295 Y53.1643
G00 Z2.0000
G00 X18.3545 Y52.5585
G01 F60.00
G01 Z-0.0800
G01 F120.00
G01 X18.3626 Y52.5486
G01 X18.4131 Y52.4931
G01 X18.4734 Y52.4385
G01 X18.5389 Y52.3899
G01 X18.6087 Y52.3480
G01 X18.6824 Y52.3132
G01 X18.7591 Y52.2857
G01 X18.8381 Y52.2659
G01 X18.9186 Y52.2540
G01 X19.0000 Y52.2500
G01 X19.0814 Y52.2540
G01 X19.1619 Y52.2659
G01 X19.2409 Y52.2857
G01 X19.3176 Y52.3132
G01 X19.3913 Y52.3480
G01 X19.4611 Y52.3899
G01 X19.5265 Y52.4384
G01 X19.5869 Y52.4931
G01 X19.6415 Y52.5534
G01 X19.6901 Y52.6189
G01 X19.7320 Y52.6887
G01 X19.7668 Y52.7624
G01 X19.7943 Y52.8391
G01 X19.8141 Y52.9181
G01 X19.8260 Y52.9986
G01 X19.8300 Y53.0800
G01 X19.8260 Y53.1614
G01 X19.8141 Y53.2419
G01 X19.7943 Y53.3207
G01 X19.7668 Y53.3976
G01 X19.7320 Y53.4713
G01 X19.6901 Y53.5411
G01 X19.6416 Y53.6065
G01 X19.5869 Y53.6669
G01 X19.5265 Y53.7216
G01 X19.4611 Y53.7701
G01 X19.3913 Y53.8120
G01 X19.3176 Y53.8468
G01 X19.2409 Y53.8743
G01 X19.1619 Y53.8941
G01 X19.0814 Y53.9060
G01 X19.0000 Y53.9100
G01 X18.9186 Y53.9060
G01 X18.8381 Y53.8941
G01 X18.7593 Y53.8743
G01 X18.6824 Y53.8468
G01 X18.6087 Y53.8120
G01 X18.5389 Y53.7701
G01 X18.4738 Y53.7219
G01 X18.4131 Y53.6669
G01 X18.3584 Y53.6065
G01 X18.3099 Y53.5411
G01 X18.2680 Y53.4713
G01 X18.2332 Y53.3976
G01 X18.2057 Y53.3209
G01 X18.1859 Y53.2419
G01 X18.1740 Y53.1614
G01 X18.1700 Y53.0800
G01 X18.1740 Y52.9986
G01 X18.1859 Y52.9181
G01 X18.2057 Y52.8391
G01 X18.2332 Y52.7624
G01 X18.2680 Y52.6887
G01 X18.3099 Y52.6189
G01 X18.3545 Y52.5585
G00 Z2.0000
G00 X17.9295 Y48.0843
G01 F60.00
G01 Z-0.0800
G01 F120.00
G01 X17.9295 Y47.9157
G01 X17.9559 Y47.7493
G01 X18.0079 Y47.5891
G01 X18.0844 Y47.4389
G01 X18.1835 Y47.3026
G01 X18.3026 Y47.1835
G01 X18.4389 Y47.0844
G01 X18.5891 Y47.0079
G01 X18.7493 Y46.9559
G01 X18.9157 Y46.9295
G01 X19.0843 Y46.9295
G01 X19.2507 Y46.9559
G01 X19.4109 Y47.0079
G01 X19.5611 Y47.0844
G01 X19.6974 Y47.1835
G01 X19.8165 Y47.3026
G01 X19.9156 Y47.4389
G01 X19.9921 Y47.5891
G01 X20.0441 Y47.7493
G01 X20.0705 Y47.9157
G01 X20.0705 Y48.0843
G01 X20.0441 Y48.2507
G01 X19.9921 Y48.4109
G01 X19.9156 Y48.5611
G01 X19.8165 Y48.6974
G01 X19.6974 Y48.8165
G01 X19.5611 Y48.9156
G01 X19.4109 Y48.9921
G01 X19.2507 Y49.0441
G01 X19.0843 Y49.0705
G01 X18.9157 Y49.0705
G01 X18.7493 Y49.0441
G01 X18.5891 Y48.9921
G01 X18.4389 Y48.9156
G01 X18.3026 Y48.8165
G01 X18.1835 Y48.6974
G01 X18.0844 Y48.5611
G01 X18.0079 Y48.4109
G01 X17.9559 Y48.2507
G01 X17.9295 Y48.0843
G00 Z2.0000
G00 X18.3545 Y47.4785
G01 F60.00
G01 Z-0.0800
G01 F120.00
G01 X18.3626 Y47.4686
G01 X18.4131 Y47.4131
G01 X18.4734 Y47.3585
G01 X18.5389 Y47.3099
G01 X18.6087 Y47.2680
G01 X18.6824 Y47.2332
G01 X18.7591 Y47.2057
G01 X18.8381 Y47.1859
G01 X18.9186 Y47.1740
G01 X19.0000 Y47.1700
G01 X19.0814 Y47.1740
G01 X19.1619 Y47.1859
G01 X19.2409 Y47.2057
G01 X19.3176 Y47.2332
G01 X19.3913 Y47.2680
G01 X19.4611 Y47.3099
G01 X19.5265 Y47.3584
G01 X19.5869 Y47.4131
G01 X19.6415 Y47.4734
G01 X19.6901 Y47.5389
G01 X19.7320 Y47.6087
G01 X19.7668 Y47.6824
G01 X19.7943 Y47.7591
G01 X19.8141 Y47.8381
G01 X19.8260 Y47.9186
G01 X19.8300 Y48.0000
G01 X19.8260 Y48.0814
G01 X19.8141 Y48.1619
G01 X19.7943 Y48.2407
G01 X19.7668 Y48.3176
G01 X19.7320 Y48.3913
G01 X19.6901 Y48.4611
G01 X19.6416 Y48.5265
G01 X19.5869 Y48.5869
G01 X19.5265 Y48.6416
G01 X19.4611 Y48.6901
G01 X19.3913 Y48.7320
G01 X19.3176 Y48.7668
G01 X19.2409 Y48.7943
G01 X19.1619 Y48.8141
G01 X19.0814 Y48.8260
G01 X19.0000 Y48.8300
G01 X18.9186 Y48.8260
G01 X18.8381 Y48.8141
G01 X18.7593 Y48.7943
G01 X18.6824 Y48.7668
G01 X18.6087 Y48.7320
G01 X18.5389 Y48.6901
G01 X18.4738 Y48.6419
G01 X18.4131 Y48.5869
G01 X18.3584 Y48.5265
G01 X18.3099 Y48.4611
G01 X18.2680 Y48.3913
G01 X18.2332 Y48.3176
G01 X18.2057 Y48.2409
G01 X18.1859 Y48.1619
G01 X18.1740 Y48.0814
G01 X18.1700 Y48.0000
G01 X18.1740 Y47.9186
G01 X18.1859 Y47.8381
G01 X18.2057 Y47.7591
G01 X18.2332 Y47.6824
G01 X18.2680 Y47.6087
G01 X18.3099 Y47.5389
G01 X18.3545 Y47.4785
G00 Z2.0000
G00 X21.9295 Y48.0843
G01 F60.00
G01 Z-0.0800
G01 F120.00
G01 X21.9295 Y47.9157
G01 X21.9559 Y47.7493
G01 X22.0079 Y47.5891
G01 X22.0844 Y47.4389
G01 X22.1835 Y47.3026
G01 X22.3026 Y47.1835
G01 X22.4389 Y47.0844
G01 X22.5891 Y47.0079
G01 X22.7493 Y46.9559
G01 X22.9157 Y46.9295
G01 X23.0843 Y46.9295
G01 X23.2507 Y46.9559
G01 X23.4109 Y47.0079
G01 X23.5611 Y47.0844
G01 X23.6974 Y47.1835
G01 X23.8165 Y47.3026
G01 X23.9156 Y47.4389
G01 X23.9921 Y47.5891
G01 X24.0441 Y47.7493
G01 X24.0705 Y47.9157
G01 X24.0705 Y48.0843
G01 X24.0441 Y48.2507
G01 X23.9921 Y48.4109
G01 X23.9156 Y48.5611
G01 X23.8165 Y48.6974
G01 X23.6974 Y48.8165
G01 X23.5611 Y48.9156
G01 X23.4109 Y48.9921
G01 X23.2507 Y49.0441
G01 X23.0843 Y49.0705
G01 X22.9157 Y49.0705
G01 X22.7493 Y49.0441
G01 X22.5891 Y48.9921
G01 X22.4389 Y48.9156
G01 X22.3026 Y48.8165
G01 X22.1835 Y48.6974
G01 X22.0844 Y48.5611
G01 X22.0079 Y48.4109
G01 X21.9559 Y48.2507
G01 X21.9295 Y48.0843
G00 Z2.0000
G00 X22.3545 Y47.4785
G01 F60.00
G01 Z-0.0800
G01 F120.00
G01 X22.3626 Y47.4686
G01 X22.4131 Y47.4131
G01 X22.4734 Y47.3585
G01 X22.5389 Y47.3099
G01 X22.6087 Y47.2680
G01 X22.6824 Y47.2332
G01 X22.7591 Y47.2057
G01 X22.8381 Y47.1859
G01 X22.9186 Y47.1740
G01 X23.0000 Y47.1700
G01 X23.0814 Y47.1740
G01 X23.1619 Y47.1859
G01 X23.2409 Y47.2057
G01 X23.3176 Y47.2332
G01 X23.3913 Y47.2680
G01 X23.4611 Y47.3099
G01 X23.5265 Y47.3584
G01 X23.5869 Y47.4131
G01 X23.6416 Y47.4735
G01 X23.6901 Y47.5389
G01 X23.7320 Y47.6087
G01 X23.7668 Y47.6824
G01 X23.7943 Y47.7591
G01 X23.8141 Y47.8381
G01 X23.8260 Y47.9186
G01 X23.8300 Y48.0000
G01 X23.8260 Y48.0814
G01 X23.8141 Y48.1619
G01 X23.7943 Y48.2407
G01 X23.7668 Y48.3176
G01 X23.7320 Y48.3913
G01 X23.6901 Y48.4611
G01 X23.6415 Y48.5267
G01 X23.5869 Y48.5869
G01 X23.5265 Y48.6416
G01 X23.4611 Y48.6901
G01 X23.3913 Y48.7320
G01 X23.3176 Y48.7668
G01 X23.2409 Y48.7943
G01 X23.1619 Y48.8141
G01 X23.0814 Y48.8260
G01 X23.0000 Y48.8300
G01 X22.9186 Y48.8260
G01 X22.8381 Y48.8141
G01 X22.7593 Y48.7943
G01 X22.6824 Y48.7668
G01 X22.6087 Y48.7320
G01 X22.5389 Y48.6901
G01 X22.4738 Y48.6419
G01 X22.4131 Y48.5869
G01 X22.3584 Y48.5265
G01 X22.3099 Y48.4611
G01 X22.2680 Y48.3913
G01 X22.2332 Y48.3176
G01 X22.2057 Y48.2409
G01 X22.1859 Y48.1619
G01 X22.1740 Y48.0814
G01 X22.1700 Y48.0000
G01 X22.1740 Y47.9186
G01 X22.1859 Y47.8381
G01 X22.2057 Y47.7591
G01 X22.2332 Y47.6824
G01 X22.2680 Y47.6087
G01 X22.3099 Y47.5389
G01 X22.3545 Y47.4785
G00 Z2.0000
G00 X27.0095 Y48.0843
G01 F60.00
G01 Z-0.0800
G01 F120.00
G01 X27.0095 Y47.9157
G01 X27.0359 Y47.7493
G01 X27.0879 Y47.5891
G01 X27.1644 Y47.4389
G01 X27.2635 Y47.3026
G01 X27.3826 Y47.1835
G01 X27.5189 Y47.0844
G01 X27.6691 Y47.0079
G01 X27.8293 Y46.9559
G01 X27.9957 Y46.9295
G01 X28.1643 Y46.9295
G01 X28.3307 Y46.9559
G01 X28.4909 Y47.0079
G01 X28.6411 Y47.0844
G01 X28.7774 Y47.1835
G01 X28.8965 Y47.3026
G01 X28.9956 Y47.4389
G01 X29.0721 Y47.5891
G01 X29.1241 Y47.7493
G01 X29.1505 Y47.9157
G01 X29.1505 Y48.0843
G01 X29.1241 Y48.2507
G01 X29.0721 Y48.4109
G01 X28.9956 Y48.5611
G01 X28.8965 Y48.6974
G01 X28.7774 Y48.8165
G01 X28.6411 Y48.9156
G01 X28.4909 Y48.9921
G01 X28.3307 Y49.0441
G01 X28.1643 Y49.0705
G01 X27.9957 Y49.0705
G01 X27.8293 Y49.0441
G01 X27.6691 Y48.9921
G01 X27.5189 Y48.9156
G01 X27.3826 Y48.8165
G01 X27.2635 Y48.6974
G01 X27.1644 Y48.5611
G01 X27.0879 Y48.4109
G01 X27.0359 Y48.2507
G01 X27.0095 Y48.0843
G00 Z2.0000
G00 X27.4345 Y47.4785
G01 F60.00
G01 Z-0.0800
G01 F120.00
G01 X27.4426 Y47.4686
G01 X27.4931 Y47.4131
G01 X27.5534 Y47.3585
G01 X27.6189 Y47.3099
G01 X27.6887 Y47.2680
G01 X27.7624 Y47.2332
G01 X27.8391 Y47.2057
G01 X27.9181 Y47.1859
G01 X27.9986 Y47.1740
G01 X28.0800 Y47.1700
G01 X28.1614 Y47.1740
G01 X28.2419 Y47.1859
G01 X28.3209 Y47.2057
G01 X28.3976 Y47.2332
G01 X28.4713 Y47.2680
G01 X28.5411 Y47.3099
G01 X28.6065 Y47.3584
G01 X28.6669 Y47.4131
G01 X28.7216 Y47.4735
G01 X28.7701 Y47.5389
G01 X28.8120 Y47.6087
G01 X28.8468 Y47.6824
G01 X28.8743 Y47.7591
G01 X28.8941 Y47.8381
G01 X28.9060 Y47.9186
G01 X28.9100 Y48.0000
G01 X28.9060 Y48.0814
G01 X28.8941 Y48.1619
G01 X28.8743 Y48.2407
G01 X28.8468 Y48.3176
G01 X28.8120 Y48.3913
G01 X28.7701 Y48.4611
G01 X28.7215 Y48.5267
G01 X28.6669 Y48.5869
G01 X28.6065 Y48.6416
G01 X28.5411 Y48.6901
G01 X28.4713 Y48.7320
G01 X28.3976 Y48.7668
G01 X28.3209 Y48.7943
G01 X28.2419 Y48.8141
G01 X28.1614 Y48.8260
G01 X28.0800 Y48.8300
G01 X27.9986 Y48.8260
G01 X27.9181 Y48.8141
G01 X27.8393 Y48.7943
G01 X27.7624 Y48.7668
G01 X27.6887 Y48.7320
G01 X27.6189 Y48.6901
G01 X27.5538 Y48.6419
G01 X27.4931 Y48.5869
G01 X27.4384 Y48.5265
G01 X27.3899 Y48.4611
G01 X27.3480 Y48.3913
G01 X27.3132 Y48.3176
G01 X27.2857 Y48.2409
G01 X27.2659 Y48.1619
G01 X27.2540 Y48.0814
G01 X27.2500 Y48.0000
G01 X27.2540 Y47.9186
G01 X27.2659 Y47.8381
G01 X27.2857 Y47.7591
G01 X27.3132 Y47.6824
G01 X27.3480 Y47.6087
G01 X27.3899 Y47.5389
G01 X27.4345 Y47.4785
G00 Z2.0000
G00 X27.5789 Y55.8865
G01 F60.00
G01 Z-0.0800
G01 F120.00
G01 X27.6617 Y55.8444
G01 X27.8443 Y55.7850
G01 X28.0340 Y55.7550
G01 X28.2260 Y55.7550
G01 X28.4157 Y55.7850
G01 X28.5983 Y55.8444
G01 X28.6811 Y55.8865
G01 X28.5000 Y56.0676
G01 X28.4145 Y56.0372
G01 X28.3212 Y56.0138
G01 X28.2261 Y55.9997
G01 X28.1300 Y55.9950
G01 X28.0339 Y55.9997
G01 X27.9385 Y56.0139
G01 X27.8455 Y56.0372
G01 X27.7600 Y56.0676
G01 X27.5789 Y55.8865
G00 Z2.0000
G00 X26.9100 Y57.0710
G01 F60.00
G01 Z-0.0800
G01 F120.00
G01 X26.9100 Y56.8790
G01 X26.9400 Y56.6893
G01 X26.9994 Y56.5067
G01 X27.0415 Y56.4239
G01 X27.2226 Y56.6050
G01 X27.1922 Y56.6905
G01 X27.1688 Y56.7838
G01 X27.1547 Y56.8789
G01 X27.1500 Y56.9750
G01 X27.1547 Y57.0711
G01 X27.1688 Y57.1662
G01 X27.1922 Y57.2595
G01 X27.2226 Y57.3450
G01 X27.0415 Y57.5261
G01 X26.9994 Y57.4433
G01 X26.9400 Y57.2607
G01 X26.9100 Y57.0710
G00 Z2.0000
G00 X27.5789 Y58.0635
G01 F60.00
G01 Z-0.0800
G01 F120.00
G01 X27.7600 Y57.8824
G01 X27.8458 Y57.9129
G01 X27.9388 Y57.9362
G01 X28.0339 Y57.9503
G01 X28.1300 Y57.9550
G01 X28.2261 Y57.9503
G01 X28.3212 Y57.9362
G01 X28.4145 Y57.9128
G01 X28.5000 Y57.8824
G01 X28.6811 Y58.0635
G01 X28.5983 Y58.1056
G01 X28.4157 Y58.1650
G01 X28.2260 Y58.1950
G01 X28.0340 Y58.1950
G01 X27.8443 Y58.1650
G01 X27.6617 Y58.1056
G01 X27.5789 Y58.0635
G00 Z2.0000
G00 X29.0374 Y56.6050
G01 F60.00
G01 Z-0.0800
G01 F120.00
G01 X29.3751 Y56.2673
G01 X29.3834 Y56.2581
G01 X29.3891 Y56.2508
G01 X29.3973 Y56.2377
G01 X29.4308 Y56.1764
G01 X29.4363 Y56.1649
G01 X29.4397 Y56.1559
G01 X29.4432 Y56.1437
G01 X29.4455 Y56.1311
G01 X29.4491 Y56.0981
G01 X29.4495 Y56.0841
G01 X29.4534 Y56.0476
G01 X29.4915 Y55.9456
G01 X29.5553 Y55.8603
G01 X29.6406 Y55.7965
G01 X29.7426 Y55.7584
G01 X29.7791 Y55.7545
G01 X31.5609 Y55.7545
G01 X31.5974 Y55.7584
G01 X31.6994 Y55.7965
G01 X31.7847 Y55.8603
G01 X31.8485 Y55.9456
G01 X31.8866 Y56.0476
G01 X31.8905 Y56.0841
G01 X31.8905 Y57.8659
G01 X31.8866 Y57.9024
G01 X31.8485 Y58.0044
G01 X31.7847 Y58.0897
G01 X31.6994 Y58.1535
G01 X31.5973 Y58.1916
G01 X31.5609 Y58.1955
G01 X29.7791 Y58.1955
G01 X29.7426 Y58.1916
G01 X29.6406 Y58.1535
G01 X29.5553 Y58.0897
G01 X29.4915 Y58.0044
G01 X29.4534 Y57.9024
G01 X29.4495 Y57.8659
G01 X29.4489 Y57.8499
G01 X29.4471 Y57.8377
G01 X29.4442 Y57.8257
G01 X29.4245 Y57.7586
G01 X29.4204 Y57.7466
G01 X29.4165 Y57.7379
G01 X29.4103 Y57.7267
G01 X29.4049 Y57.7188
G01 X29.3844 Y57.6931
G01 X29.3751 Y57.6827
G01 X29.0374 Y57.3450
G01 X29.0679 Y57.2592
G01 X29.0912 Y57.1662
G01 X29.1053 Y57.0711
G01 X29.1100 Y56.9750
G01 X29.1053 Y56.8789
G01 X29.0911 Y56.7835
G01 X29.0678 Y56.6905
G01 X29.0374 Y56.6050
G00 Z2.0000
G00 X29.3039 Y56.6694
G01 F60.00
G01 Z-0.0800
G01 F120.00
G01 X29.4560 Y56.5173
G01 X29.4560 Y57.4327
G01 X29.3039 Y57.2806
G01 X29.3168 Y57.2293
G01 X29.3207 Y57.2118
G01 X29.3237 Y57.1942
G01 X29.3372 Y57.1029
G01 X29.3395 Y57.0762
G01 X29.3436 Y56.9929
G01 X29.3440 Y56.9750
G01 X29.3436 Y56.9571
G01 X29.3395 Y56.8738
G01 X29.3372 Y56.8471
G01 X29.3221 Y56.7457
G01 X29.3168 Y56.7207
G01 X29.3039 Y56.6694
G00 Z2.0000
G00 X29.6900 Y57.8250
G01 F60.00
G01 Z-0.0800
G01 F120.00
G01 X29.6900 Y56.1218
G01 X29.6910 Y56.1091
G01 X29.6932 Y56.0965
G01 X29.6966 Y56.0842
G01 X29.7012 Y56.0723
G01 X29.7069 Y56.0609
G01 X29.7137 Y56.0501
G01 X29.7216 Y56.0401
G01 X29.7304 Y56.0308
G01 X29.7400 Y56.0225
G01 X29.7505 Y56.0152
G01 X29.7587 Y56.0104
G01 X29.7703 Y56.0049
G01 X29.7823 Y56.0006
G01 X29.7946 Y55.9975
G01 X29.8073 Y55.9956
G01 X29.8168 Y55.9950
G01 X31.5200 Y55.9950
G01 X31.5327 Y55.9956
G01 X31.5485 Y55.9982
G01 X31.5608 Y56.0016
G01 X31.5727 Y56.0062
G01 X31.5841 Y56.0119
G01 X31.5949 Y56.0187
G01 X31.6049 Y56.0266
G01 X31.6142 Y56.0354
G01 X31.6225 Y56.0450
G01 X31.6298 Y56.0555
G01 X31.6361 Y56.0666
G01 X31.6401 Y56.0753
G01 X31.6444 Y56.0873
G01 X31.6468 Y56.0965
G01 X31.6490 Y56.1091
G01 X31.6500 Y56.1218
G01 X31.6500 Y57.8250
G01 X31.6494 Y57.8377
G01 X31.6475 Y57.8504
G01 X31.6444 Y57.8627
G01 X31.6388 Y57.8777
G01 X31.6331 Y57.8891
G01 X31.6263 Y57.8999
G01 X31.6184 Y57.9099
G01 X31.6096 Y57.9192
G01 X31.6000 Y57.9275
G01 X31.5895 Y57.9348
G01 X31.5813 Y57.9396
G01 X31.5697 Y57.9451
G01 X31.5608 Y57.9484
G01 X31.5485 Y57.9518
G01 X31.5359 Y57.9540
G01 X31.5232 Y57.9550
G01 X29.8136 Y57.9548
G01 X29.8009 Y57.9536
G01 X29.7884 Y57.9511
G01 X29.7762 Y57.9474
G01 X29.7644 Y57.9425
G01 X29.7532 Y57.9365
G01 X29.7426 Y57.9294
G01 X29.7351 Y57.9234
G01 X29.7258 Y57.9146
G01 X29.7175 Y57.9050
G01 X29.7102 Y57.8945
G01 X29.7039 Y57.8834
G01 X29.6987 Y57.8718
G01 X29.6956 Y57.8627
G01 X29.6925 Y57.8504
G01 X29.6906 Y57.8377
G01 X29.6900 Y57.8250
G00 Z2.0000
G00 X34.8495 Y56.5843
G01 F60.00
G01 Z-0.0800
G01 F120.00
G01 X34.8495 Y56.4157
G01 X34.8759 Y56.2493
G01 X34.9279 Y56.0891
G01 X35.0030 Y55.9417
G01 X35.0044 Y55.9389
G01 X35.1035 Y55.8026
G01 X35.2226 Y55.6835
G01 X35.3589 Y55.5844
G01 X35.5091 Y55.5079
G01 X35.6693 Y55.4559
G01 X35.8357 Y55.4295
G01 X36.0043 Y55.4295
G01 X36.1707 Y55.4559
G01 X36.3309 Y55.5079
G01 X36.4811 Y55.5844
G01 X36.6174 Y55.6835
G01 X36.7365 Y55.8026
G01 X36.8356 Y55.9389
G01 X36.9121 Y56.0891
G01 X36.9641 Y56.2493
G01 X36.9905 Y56.4157
G01 X36.9905 Y56.5843
G01 X36.9641 Y56.7507
G01 X36.9121 Y56.9109
G01 X36.8356 Y57.0611
G01 X36.7365 Y57.1974
G01 X36.6174 Y57.3165
G01 X36.4811 Y57.4156
G01 X36.3309 Y57.4921
G01 X36.1707 Y57.5441
G01 X36.0043 Y57.5705
G01 X35.8357 Y57.5705
G01 X35.6693 Y57.5441
G01 X35.5091 Y57.4921
G01 X35.3589 Y57.4156
G01 X35.2226 Y57.3165
G01 X35.1035 Y57.1974
G01 X35.0618 Y57.1400
G01 X35.0044 Y57.0611
G01 X34.9279 Y56.9109
G01 X34.8759 Y56.7507
G01 X34.8495 Y56.5843
G00 Z2.0000
G00 X35.2745 Y55.9785
G01 F60.00
G01 Z-0.0800
G01 F120.00
G01 X35.2826 Y55.9686
G01 X35.3331 Y55.9131
G01 X35.3934 Y55.8585
G01 X35.4589 Y55.8099
G01 X35.5287 Y55.7680
G01 X35.6024 Y55.7332
G01 X35.6791 Y55.7057
G01 X35.7581 Y55.6859
G01 X35.8386 Y55.6740
G01 X35.9200 Y55.6700
G01 X36.0014 Y55.6740
G01 X36.0819 Y55.6859
G01 X36.1609 Y55.7057
G01 X36.2376 Y55.7332
G01 X36.3113 Y55.7680
G01 X36.3811 Y55.8099
G01 X36.4465 Y55.8584
G01 X36.5069 Y55.9131
G01 X36.5616 Y55.9735
G01 X36.6101 Y56.0389
G01 X36.6520 Y56.1087
G01 X36.6868 Y56.1824
G01 X36.7143 Y56.2591
G01 X36.7341 Y56.3381
G01 X36.7460 Y56.4186
G01 X36.7500 Y56.5000
G01 X36.7460 Y56.5814
G01 X36.7341 Y56.6619
G01 X36.7143 Y56.7407
G01 X36.6868 Y56.8176
G01 X36.6520 Y56.8913
G01 X36.6101 Y56.9611
G01 X36.5615 Y57.0267
G01 X36.5069 Y57.0869
G01 X36.4465 Y57.1416
G01 X36.3811 Y57.1901
G01 X36.3113 Y57.2320
G01 X36.2376 Y57.2668
G01 X36.1609 Y57.2943
G01 X36.0819 Y57.3141
G01 X36.0014 Y57.3260
G01 X35.9200 Y57.3300
G01 X35.8386 Y57.3260
G01 X35.7581 Y57.3141
G01 X35.6793 Y57.2943
G01 X35.6024 Y57.2668
G01 X35.5287 Y57.2320
G01 X35.4589 Y57.1901
G01 X35.3938 Y57.1419
G01 X35.3331 Y57.0869
G01 X35.2784 Y57.0265
G01 X35.2299 Y56.9611
G01 X35.1880 Y56.8913
G01 X35.1532 Y56.8176
G01 X35.1257 Y56.7409
G01 X35.1059 Y56.6619
G01 X35.0940 Y56.5814
G01 X35.0900 Y56.5000
G01 X35.0940 Y56.4186
G01 X35.1059 Y56.3381
G01 X35.1257 Y56.2591
G01 X35.1532 Y56.1824
G01 X35.1880 Y56.1087
G01 X35.2299 Y56.0389
G01 X35.2745 Y55.9785
G00 Z2.0000
G00 X39.9295 Y56.5843
G01 F60.00
G01 Z-0.0800
G01 F120.00
G01 X39.9295 Y56.4157
G01 X39.9559 Y56.2493
G01 X40.0079 Y56.0891
G01 X40.0830 Y55.9417
G01 X40.0844 Y55.9389
G01 X40.1835 Y55.8026
G01 X40.3026 Y55.6835
G01 X40.4389 Y55.5844
G01 X40.5891 Y55.5079
G01 X40.7493 Y55.4559
G01 X40.9157 Y55.4295
G01 X41.0843 Y55.4295
G01 X41.2507 Y55.4559
G01 X41.4109 Y55.5079
G01 X41.5611 Y55.5844
G01 X41.6974 Y55.6835
G01 X41.8165 Y55.8026
G01 X41.9156 Y55.9389
G01 X41.9921 Y56.0891
G01 X42.0441 Y56.2493
G01 X42.0705 Y56.4157
G01 X42.0705 Y56.5843
G01 X42.0441 Y56.7507
G01 X41.9921 Y56.9109
G01 X41.9156 Y57.0611
G01 X41.8165 Y57.1974
G01 X41.6974 Y57.3165
G01 X41.5611 Y57.4156
G01 X41.4109 Y57.4921
G01 X41.2507 Y57.5441
G01 X41.0843 Y57.5705
G01 X40.9157 Y57.5705
G01 X40.7493 Y57.5441
G01 X40.5891 Y57.4921
G01 X40.4389 Y57.4156
G01 X40.3026 Y57.3165
G01 X40.1835 Y57.1974
G01 X40.1418 Y57.1400
G01 X40.0844 Y57.0611
G01 X40.0079 Y56.9109
G01 X39.9559 Y56.7507
G01 X39.9295 Y56.5843
G00 Z2.0000
G00 X40.3545 Y55.9785
G01 F60.00
G01 Z-0.0800
G01 F120.00
G01 X40.3626 Y55.9686
G01 X40.4131 Y55.9131
G01 X40.4734 Y55.8585
G01 X40.5389 Y55.8099
G01 X40.6087 Y55.7680
G01 X40.6824 Y55.7332
G01 X40.7591 Y55.7057
G01 X40.8381 Y55.6859
G01 X40.9186 Y55.6740
G01 X41.0000 Y55.6700
G01 X41.0814 Y55.6740
G01 X41.1619 Y55.6859
G01 X41.2409 Y55.7057
G01 X41.3176 Y55.7332
G01 X41.3913 Y55.7680
G01 X41.4611 Y55.8099
G01 X41.5265 Y55.8584
G01 X41.5869 Y55.9131
G01 X41.6416 Y55.9735
G01 X41.6901 Y56.0389
G01 X41.7320 Y56.1087
G01 X41.7668 Y56.1824
G01 X41.7943 Y56.2591
G01 X41.8141 Y56.3381
G01 X41.8260 Y56.4186
G01 X41.8300 Y56.5000
G01 X41.8260 Y56.5814
G01 X41.8141 Y56.6619
G01 X41.7943 Y56.7407
G01 X41.7668 Y56.8176
G01 X41.7320 Y56.8913
G01 X41.6901 Y56.9611
G01 X41.6415 Y57.0267
G01 X41.5869 Y57.0869
G01 X41.5265 Y57.1416
G01 X41.4611 Y57.1901
G01 X41.3913 Y57.2320
G01 X41.3176 Y57.2668
G01 X41.2409 Y57.2943
G01 X41.1619 Y57.3141
G01 X41.0814 Y57.3260
G01 X41.0000 Y57.3300
G01 X40.9186 Y57.3260
G01 X40.8381 Y57.3141
G01 X40.7593 Y57.2943
G01 X40.6824 Y57.2668
G01 X40.6087 Y57.2320
G01 X40.5389 Y57.1901
G01 X40.4738 Y57.1419
G01 X40.4131 Y57.0869
G01 X40.3584 Y57.0265
G01 X40.3099 Y56.9611
G01 X40.2680 Y56.8913
G01 X40.2332 Y56.8176
G01 X40.2057 Y56.7409
G01 X40.1859 Y56.6619
G01 X40.1740 Y56.5814
G01 X40.1700 Y56.5000
G01 X40.1740 Y56.4186
G01 X40.1859 Y56.3381
G01 X40.2057 Y56.2591
G01 X40.2332 Y56.1824
G01 X40.2680 Y56.1087
G01 X40.3099 Y56.0389
G01 X40.3545 Y55.9785
G00 Z2.0000
G00 X47.4745 Y55.3283
G01 F60.00
G01 Z-0.0800
G01 F120.00
G01 X47.4745 Y55.1755
G01 X47.4984 Y55.0246
G01 X47.5456 Y54.8793
G01 X47.6150 Y54.7432
G01 X47.7047 Y54.6196
G01 X47.8128 Y54.5116
G01 X47.9363 Y54.4218
G01 X48.0725 Y54.3525
G01 X48.2177 Y54.3053
G01 X48.3686 Y54.2814
G01 X49.3214 Y54.2814
G01 X49.4723 Y54.3053
G01 X49.6175 Y54.3525
G01 X49.7537 Y54.4218
G01 X49.8772 Y54.5116
G01 X49.9853 Y54.6196
G01 X50.0750 Y54.7432
G01 X50.1444 Y54.8793
G01 X50.1916 Y55.0246
G01 X50.2155 Y55.1755
G01 X50.2155 Y55.3283
G01 X50.1916 Y55.4791
G01 X50.1444 Y55.6244
G01 X50.0750 Y55.7605
G01 X49.9853 Y55.8841
G01 X49.8772 Y55.9921
G01 X49.7537 Y56.0819
G01 X49.6175 Y56.1513
G01 X49.4723 Y56.1985
G01 X49.3214 Y56.2224
G01 X48.3686 Y56.2224
G01 X48.2177 Y56.1985
G01 X48.0725 Y56.1513
G01 X47.9363 Y56.0819
G01 X47.8128 Y55.9921
G01 X47.7047 Y55.8841
G01 X47.6150 Y55.7605
G01 X47.5456 Y55.6244
G01 X47.4984 Y55.4791
G01 X47.4745 Y55.3283
G00 Z2.0000
G00 X47.7181 Y55.3171
G01 F60.00
G01 Z-0.0800
G01 F120.00
G01 X47.7150 Y55.2519
G01 X47.7185 Y55.1803
G01 X47.7290 Y55.1095
G01 X47.7447 Y55.0461
G01 X47.7484 Y55.0339
G01 X47.7706 Y54.9725
G01 X47.7983 Y54.9135
G01 X47.8043 Y54.9022
G01 X47.8382 Y54.8461
G01 X47.8768 Y54.7938
G01 X47.8849 Y54.7839
G01 X47.9244 Y54.7403
G01 X47.9334 Y54.7313
G01 X47.9819 Y54.6876
G01 X48.0394 Y54.6449
G01 X48.1009 Y54.6081
G01 X48.1656 Y54.5774
G01 X48.2331 Y54.5533
G01 X48.3026 Y54.5359
G01 X48.3734 Y54.5254
G01 X48.4418 Y54.5219
G01 X49.2450 Y54.5219
G01 X49.3134 Y54.5251
G01 X49.3229 Y54.5262
G01 X49.3874 Y54.5359
G01 X49.4569 Y54.5533
G01 X49.5244 Y54.5774
G01 X49.5834 Y54.6052
G01 X49.5947 Y54.6112
G01 X49.6452 Y54.6415
G01 X49.6554 Y54.6483
G01 X49.7081 Y54.6876
G01 X49.7566 Y54.7313
G01 X49.7656 Y54.7403
G01 X49.8093 Y54.7888
G01 X49.8483 Y54.8411
G01 X49.8554 Y54.8517
G01 X49.8888 Y54.9078
G01 X49.9168 Y54.9667
G01 X49.9217 Y54.9785
G01 X49.9436 Y55.0400
G01 X49.9596 Y55.1032
G01 X49.9621 Y55.1158
G01 X49.9715 Y55.1803
G01 X49.9750 Y55.2487
G01 X49.9748 Y55.2583
G01 X49.9715 Y55.3234
G01 X49.9610 Y55.3943
G01 X49.9436 Y55.4638
G01 X49.9194 Y55.5312
G01 X49.8888 Y55.5960
G01 X49.8520 Y55.6574
G01 X49.8093 Y55.7150
G01 X49.7612 Y55.7681
G01 X49.7081 Y55.8162
G01 X49.6506 Y55.8589
G01 X49.5891 Y55.8957
G01 X49.5244 Y55.9263
G01 X49.4569 Y55.9504
G01 X49.3877 Y55.9678
G01 X49.3161 Y55.9784
G01 X49.2482 Y55.9818
G01 X48.4450 Y55.9819
G01 X48.3798 Y55.9788
G01 X48.3671 Y55.9776
G01 X48.3089 Y55.9689
G01 X48.2964 Y55.9665
G01 X48.2331 Y55.9504
G01 X48.1716 Y55.9286
G01 X48.1627 Y55.9251
G01 X48.1009 Y55.8957
G01 X48.0448 Y55.8623
G01 X48.0342 Y55.8552
G01 X47.9819 Y55.8162
G01 X47.9334 Y55.7725
G01 X47.9244 Y55.7634
G01 X47.8807 Y55.7150
G01 X47.8417 Y55.6627
G01 X47.8346 Y55.6521
G01 X47.8043 Y55.6016
G01 X47.7983 Y55.5903
G01 X47.7706 Y55.5312
G01 X47.7484 Y55.4698
G01 X47.7447 Y55.4576
G01 X47.7291 Y55.3946
G01 X47.7193 Y55.3298
G01 X47.7181 Y55.3171
G00 Z2.0000
G00 X47.7181 Y52.7771
G01 F60.00
G01 Z-0.0800
G01 F120.00
G01 X47.7150 Y52.7119
G01 X47.7185 Y52.6403
G01 X47.7290 Y52.5695
G01 X47.7447 Y52.5061
G01 X47.7484 Y52.4939
G01 X47.7706 Y52.4325
G01 X47.7983 Y52.3735
G01 X47.8043 Y52.3622
G01 X47.8382 Y52.3061
G01 X47.8768 Y52.2538
G01 X47.8849 Y52.2439
G01 X47.9244 Y52.2003
G01 X47.9334 Y52.1913
G01 X47.9819 Y52.1476
G01 X48.0394 Y52.1049
G01 X48.1009 Y52.0681
G01 X48.1656 Y52.0374
G01 X48.2331 Y52.0133
G01 X48.3026 Y51.9959
G01 X48.3734 Y51.9854
G01 X48.4418 Y51.9819
G01 X49.2450 Y51.9819
G01 X49.3134 Y51.9851
G01 X49.3229 Y51.9862
G01 X49.3874 Y51.9959
G01 X49.4569 Y52.0133
G01 X49.5244 Y52.0374
G01 X49.5834 Y52.0652
G01 X49.5947 Y52.0712
G01 X49.6452 Y52.1015
G01 X49.6554 Y52.1083
G01 X49.7081 Y52.1476
G01 X49.7566 Y52.1913
G01 X49.7656 Y52.2003
G01 X49.8093 Y52.2488
G01 X49.8483 Y52.3011
G01 X49.8554 Y52.3117
G01 X49.8888 Y52.3678
G01 X49.9168 Y52.4267
G01 X49.9217 Y52.4385
G01 X49.9436 Y52.5000
G01 X49.9596 Y52.5632
G01 X49.9621 Y52.5758
G01 X49.9715 Y52.6403
G01 X49.9750 Y52.7087
G01 X49.9748 Y52.7183
G01 X49.9715 Y52.7834
G01 X49.9610 Y52.8543
G01 X49.9436 Y52.9238
G01 X49.9194 Y52.9912
G01 X49.8888 Y53.0560
G01 X49.8520 Y53.1174
G01 X49.8093 Y53.1750
G01 X49.7612 Y53.2281
G01 X49.7081 Y53.2762
G01 X49.6506 Y53.3189
G01 X49.5891 Y53.3557
G01 X49.5244 Y53.3863
G01 X49.4569 Y53.4104
G01 X49.3877 Y53.4278
G01 X49.3161 Y53.4384
G01 X49.2482 Y53.4418
G01 X48.4450 Y53.4419
G01 X48.3798 Y53.4388
G01 X48.3671 Y53.4376
G01 X48.3089 Y53.4289
G01 X48.2964 Y53.4265
G01 X48.2331 Y53.4104
G01 X48.1716 Y53.3886
G01 X48.1627 Y53.3851
G01 X48.1009 Y53.3557
G01 X48.0448 Y53.3223
G01 X48.0342 Y53.3152
G01 X47.9819 Y53.2762
G01 X47.9334 Y53.2325
G01 X47.9244 Y53.2234
G01 X47.8807 Y53.1750
G01 X47.8417 Y53.1227
G01 X47.8346 Y53.1121
G01 X47.8043 Y53.0616
G01 X47.7983 Y53.0503
G01 X47.7706 Y52.9912
G01 X47.7484 Y52.9298
G01 X47.7447 Y52.9176
G01 X47.7291 Y52.8546
G01 X47.7193 Y52.7898
G01 X47.7181 Y52.7771
G00 Z2.0000
G00 X47.4745 Y52.7883
G01 F60.00
G01 Z-0.0800
G01 F120.00
G01 X47.4745 Y52.6355
G01 X47.4984 Y52.4846
G01 X47.5456 Y52.3393
G01 X47.6150 Y52.2032
G01 X47.7047 Y52.0796
G01 X47.8128 Y51.9716
G01 X47.9363 Y51.8818
G01 X48.0725 Y51.8125
G01 X48.2177 Y51.7653
G01 X48.3686 Y51.7414
G01 X49.3214 Y51.7414
G01 X49.4723 Y51.7653
G01 X49.6175 Y51.8125
G01 X49.7537 Y51.8818
G01 X49.8772 Y51.9716
G01 X49.9853 Y52.0796
G01 X50.0750 Y52.2032
G01 X50.1444 Y52.3393
G01 X50.1916 Y52.4846
G01 X50.2155 Y52.6355
G01 X50.2155 Y52.7883
G01 X50.1916 Y52.9391
G01 X50.1444 Y53.0844
G01 X50.0750 Y53.2205
G01 X49.9853 Y53.3441
G01 X49.8772 Y53.4521
G01 X49.7537 Y53.5419
G01 X49.6175 Y53.6113
G01 X49.4723 Y53.6585
G01 X49.3214 Y53.6824
G01 X48.3686 Y53.6824
G01 X48.2177 Y53.6585
G01 X48.0725 Y53.6113
G01 X47.9363 Y53.5419
G01 X47.8128 Y53.4521
G01 X47.7047 Y53.3441
G01 X47.6150 Y53.2205
G01 X47.5456 Y53.0844
G01 X47.4984 Y52.9391
G01 X47.4745 Y52.7883
G00 Z2.0000
G00 X47.4745 Y50.2483
G01 F60.00
G01 Z-0.0800
G01 F120.00
G01 X47.4745 Y50.0955
G01 X47.4984 Y49.9446
G01 X47.5456 Y49.7993
G01 X47.6150 Y49.6632
G01 X47.7047 Y49.5396
G01 X47.8128 Y49.4316
G01 X47.9363 Y49.3418
G01 X48.0725 Y49.2725
G01 X48.2177 Y49.2253
G01 X48.3686 Y49.2014
G01 X49.3214 Y49.2014
G01 X49.4723 Y49.2253
G01 X49.6175 Y49.2725
G01 X49.7537 Y49.3418
G01 X49.8772 Y49.4316
G01 X49.9853 Y49.5396
G01 X50.0750 Y49.6632
G01 X50.1444 Y49.7993
G01 X50.1916 Y49.9446
G01 X50.2155 Y50.0955
G01 X50.2155 Y50.2483
G01 X50.1916 Y50.3991
G01 X50.1444 Y50.5444
G01 X50.0750 Y50.6805
G01 X49.9853 Y50.8041
G01 X49.8772 Y50.9121
G01 X49.7537 Y51.0019
G01 X49.6175 Y51.0713
G01 X49.4723 Y51.1185
G01 X49.3214 Y51.1424
G01 X48.3686 Y51.1424
G01 X48.2177 Y51.1185
G01 X48.0725 Y51.0713
G01 X47.9363 Y51.0019
G01 X47.8128 Y50.9121
G01 X47.7047 Y50.8041
G01 X47.6150 Y50.6805
G01 X47.5456 Y50.5444
G01 X47.4984 Y50.3991
G01 X47.4745 Y50.2483
G00 Z2.0000
G00 X47.7181 Y50.2371
G01 F60.00
G01 Z-0.0800
G01 F120.00
G01 X47.7150 Y50.1719
G01 X47.7185 Y50.1003
G01 X47.7290 Y50.0295
G01 X47.7447 Y49.9661
G01 X47.7484 Y49.9539
G01 X47.7706 Y49.8925
G01 X47.7983 Y49.8335
G01 X47.8043 Y49.8222
G01 X47.8382 Y49.7661
G01 X47.8768 Y49.7138
G01 X47.8849 Y49.7039
G01 X47.9244 Y49.6603
G01 X47.9334 Y49.6513
G01 X47.9819 Y49.6076
G01 X48.0394 Y49.5649
G01 X48.1009 Y49.5281
G01 X48.1656 Y49.4974
G01 X48.2331 Y49.4733
G01 X48.3026 Y49.4559
G01 X48.3734 Y49.4454
G01 X48.4418 Y49.4419
G01 X49.2450 Y49.4419
G01 X49.3134 Y49.4451
G01 X49.3229 Y49.4462
G01 X49.3874 Y49.4559
G01 X49.4569 Y49.4733
G01 X49.5244 Y49.4974
G01 X49.5834 Y49.5252
G01 X49.5947 Y49.5312
G01 X49.6452 Y49.5615
G01 X49.6554 Y49.5683
G01 X49.7081 Y49.6076
G01 X49.7566 Y49.6513
G01 X49.7656 Y49.6603
G01 X49.8093 Y49.7088
G01 X49.8483 Y49.7611
G01 X49.8554 Y49.7717
G01 X49.8888 Y49.8278
G01 X49.9168 Y49.8867
G01 X49.9217 Y49.8985
G01 X49.9436 Y49.9600
G01 X49.9596 Y50.0232
G01 X49.9621 Y50.0358
G01 X49.9715 Y50.1003
G01 X49.9750 Y50.1687
G01 X49.9748 Y50.1783
G01 X49.9715 Y50.2434
G01 X49.9610 Y50.3143
G01 X49.9436 Y50.3838
G01 X49.9194 Y50.4512
G01 X49.8888 Y50.5160
G01 X49.8520 Y50.5774
G01 X49.8093 Y50.6350
G01 X49.7612 Y50.6881
G01 X49.7081 Y50.7362
G01 X49.6506 Y50.7789
G01 X49.5891 Y50.8157
G01 X49.5244 Y50.8463
G01 X49.4569 Y50.8704
G01 X49.3877 Y50.8878
G01 X49.3161 Y50.8984
G01 X49.2482 Y50.9018
G01 X48.4450 Y50.9019
G01 X48.3798 Y50.8988
G01 X48.3671 Y50.8976
G01 X48.3089 Y50.8889
G01 X48.2964 Y50.8865
G01 X48.2331 Y50.8704
G01 X48.1716 Y50.8486
G01 X48.1627 Y50.8451
G01 X48.1009 Y50.8157
G01 X48.0448 Y50.7823
G01 X48.0342 Y50.7752
G01 X47.9819 Y50.7362
G01 X47.9334 Y50.6925
G01 X47.9244 Y50.6834
G01 X47.8807 Y50.6350
G01 X47.8417 Y50.5827
G01 X47.8346 Y50.5721
G01 X47.8043 Y50.5216
G01 X47.7983 Y50.5103
G01 X47.7706 Y50.4512
G01 X47.7484 Y50.3898
G01 X47.7447 Y50.3776
G01 X47.7291 Y50.3146
G01 X47.7193 Y50.2498
G01 X47.7181 Y50.2371
G00 Z2.0000
G00 X47.7181 Y47.6971
G01 F60.00
G01 Z-0.0800
G01 F120.00
G01 X47.7150 Y47.6319
G01 X47.7185 Y47.5603
G01 X47.7290 Y47.4895
G01 X47.7447 Y47.4261
G01 X47.7484 Y47.4139
G01 X47.7706 Y47.3525
G01 X47.7983 Y47.2935
G01 X47.8043 Y47.2822
G01 X47.8382 Y47.2261
G01 X47.8768 Y47.1738
G01 X47.8849 Y47.1639
G01 X47.9244 Y47.1203
G01 X47.9334 Y47.1113
G01 X47.9819 Y47.0676
G01 X48.0394 Y47.0249
G01 X48.1009 Y46.9881
G01 X48.1656 Y46.9574
G01 X48.2331 Y46.9333
G01 X48.3026 Y46.9159
G01 X48.3734 Y46.9054
G01 X48.4418 Y46.9019
G01 X49.2450 Y46.9019
G01 X49.3134 Y46.9051
G01 X49.3229 Y46.9062
G01 X49.3874 Y46.9159
G01 X49.4569 Y46.9333
G01 X49.5244 Y46.9574
G01 X49.5834 Y46.9852
G01 X49.5947 Y46.9912
G01 X49.6452 Y47.0215
G01 X49.6554 Y47.0283
G01 X49.7081 Y47.0676
G01 X49.7566 Y47.1113
G01 X49.7656 Y47.1203
G01 X49.8093 Y47.1688
G01 X49.8483 Y47.2211
G01 X49.8554 Y47.2317
G01 X49.8888 Y47.2878
G01 X49.9168 Y47.3467
G01 X49.9217 Y47.3585
G01 X49.9436 Y47.4200
G01 X49.9596 Y47.4832
G01 X49.9621 Y47.4958
G01 X49.9715 Y47.5603
G01 X49.9750 Y47.6287
G01 X49.9748 Y47.6383
G01 X49.9715 Y47.7034
G01 X49.9610 Y47.7743
G01 X49.9436 Y47.8438
